Final/public/luts/LUT2.CUBE
#Created by: Adobe Photoshop Export Color Lookup Plugin
TITLE "LUT.psd"
#LUT size
LUT_3D_SIZE 5
#data domain
#LUT data points
DOMAIN_MIN 0.000000 0.000000 0.000000
DOMAIN_MAX 0.903226 0.903226 0.903226
0.000000 0.000000 0.000000
0.250763 0.000000 0.000000
0.522888 0.000000 0.000000
0.759369 0.000000 0.000000
0.938812 0.000000 0.000000
0.000000 0.232025 0.000000
0.259827 0.236511 0.000000
0.532013 0.240875 0.000000
0.765900 0.245239 0.000000
0.943756 0.249695 0.000000
0.000000 0.506226 0.000000
0.269135 0.511047 0.000000
0.540710 0.515533 0.000000
0.772430 0.520294 0.000000
0.948792 0.525116 0.000000
0.000000 0.753448 0.000000
0.278015 0.757141 0.000000
0.549652 0.760620 0.000000
0.779083 0.764313 0.000549
0.953613 0.767944 0.007843
0.003876 0.941833 0.000000
0.287201 0.944672 0.000336
0.558136 0.947510 0.007599
0.785461 0.950287 0.014740
0.958405 0.953094 0.021515
0.000000 0.000000 0.239258
0.252472 0.000000 0.243866
0.524719 0.000000 0.248444
0.760498 0.000000 0.252838
0.939850 0.000000 0.257446
0.000000 0.233795 0.248077
0.261688 0.238037 0.252655
0.533630 0.242523 0.257263
0.767242 0.247009 0.261932
0.944763 0.251495 0.266510
0.000000 0.508118 0.257141
0.270752 0.512634 0.261749
0.542542 0.517426 0.266388
0.773773 0.522217 0.270813
0.949646 0.526978 0.275360
0.000000 0.754669 0.266235
0.279877 0.758392 0.270599
0.551117 0.762054 0.275238
0.780182 0.765747 0.279816
0.954620 0.769409 0.284424
0.006897 0.942963 0.275024
0.289032 0.945770 0.279694
0.559906 0.948547 0.284241
0.786774 0.951263 0.288879
0.959381 0.954041 0.293243
0.000000 0.000000 0.507446
0.254364 0.000000 0.512207
0.526581 0.000000 0.516937
0.761902 0.000000 0.521637
0.940704 0.000000 0.526337
0.000000 0.235321 0.516785
0.263428 0.239777 0.521515
0.535309 0.244232 0.526001
0.768433 0.248779 0.530579
0.945770 0.253052 0.535187
0.000000 0.509735 0.525696
0.272552 0.514557 0.530396
0.544312 0.519348 0.535065
0.775116 0.524048 0.539642
0.950623 0.528748 0.544189
0.000000 0.756165 0.534912
0.281677 0.759857 0.539520
0.552887 0.763519 0.543915
0.781525 0.767181 0.548401
0.955444 0.770691 0.552917
0.009583 0.944092 0.543671
0.290588 0.946716 0.548218
0.561646 0.949524 0.552795
0.787933 0.952332 0.557312
0.960358 0.955109 0.561798
0.000000 0.000000 0.746582
0.256226 0.000000 0.750183
0.528137 0.000000 0.753784
0.763245 0.000000 0.757324
0.941742 0.000000 0.760681
0.000000 0.237061 0.753662
0.265137 0.241577 0.757233
0.537201 0.246033 0.760529
0.769775 0.250275 0.764069
0.946655 0.254822 0.767609
0.000000 0.511658 0.760437
0.274384 0.516418 0.763947
0.545807 0.521118 0.767487
0.776245 0.525665 0.770996
0.951630 0.530396 0.774231
0.000000 0.757599 0.767395
0.283539 0.761322 0.770813
0.554657 0.764832 0.774139
0.782837 0.768433 0.777588
0.956451 0.772095 0.781036
0.012421 0.945038 0.774017
0.292419 0.947845 0.777466
0.563080 0.950653 0.780945
0.789154 0.953430 0.784271
0.961182 0.956207 0.787598
0.000000 0.000000 0.929352
0.257843 0.000000 0.932098
0.529938 0.000000 0.934631
0.764404 0.000000 0.937347
0.942780 0.000000 0.940063
0.000000 0.238861 0.934570
0.266968 0.243103 0.937286
0.538696 0.247559 0.939941
0.771118 0.252106 0.942596
0.947632 0.256592 0.945129
0.000000 0.513519 0.939880
0.276215 0.518036 0.942505
0.547607 0.522827 0.945068
0.777588 0.527557 0.947693
0.952484 0.532288 0.950287
0.000427 0.758850 0.944946
0.285126 0.762543 0.947601
0.556152 0.766235 0.950256
0.783966 0.769867 0.952759
0.957428 0.773499 0.955322
0.015259 0.946136 0.950165
0.294250 0.948944 0.952667
0.564850 0.951752 0.955231
0.790497 0.954559 0.957825
0.962158 0.957275 0.960449
