Final/public/luts/LUT2.CUBE
#Created by: Adobe Photoshop Export Color Lookup Plugin
TITLE "LUT.psd"
#LUT size
LUT_3D_SIZE 8
#data domain
#LUT data points
DOMAIN_MIN 0.000000 0.000000 0.000000
DOMAIN_MAX 0.903226 0.903226 0.903226
0.000000 0.000000 0.000000
0.135803 0.000000 0.000000
0.289185 0.000000 0.000000
0.444031 0.000000 0.000000
0.597260 0.000000 0.000000
0.729401 0.000000 0.000000
0.842255 0.000000 0.000000
0.938812 0.000000 0.000000
0.000000 0.118164 0.000000
0.141174 0.120697 0.000000
0.294342 0.123230 0.000000
0.449219 0.125702 0.000000
0.601990 0.128235 0.000000
0.733368 0.130768 0.000000
0.845642 0.133240 0.000000
0.941650 0.135742 0.000000
0.000000 0.269989 0.000000
0.146545 0.272552 0.000000
0.299561 0.275085 0.000000
0.454498 0.277679 0.000000
0.606659 0.280243 0.000000
0.737366 0.282745 0.000000
0.849060 0.285278 0.000000
0.944550 0.287842 0.000000
0.000000 0.425751 0.000000
0.151917 0.428436 0.000000
0.304749 0.431091 0.000000
0.459717 0.433777 0.000000
0.611298 0.436432 0.000000
0.741302 0.439056 0.000000
0.852356 0.441833 0.000000
0.947357 0.444489 0.000000
0.000000 0.583954 0.000000
0.157257 0.586426 0.000000
0.309937 0.588959 0.000000
0.464996 0.591461 0.000000
0.615936 0.593994 0.000000
0.745117 0.596436 0.000000
0.855713 0.598938 0.000000
0.950165 0.601440 0.000000
0.000000 0.721954 0.000000
0.162567 0.724121 0.000000
0.315155 0.726288 0.000000
0.470306 0.728485 0.000000
0.620514 0.730682 0.000000
0.748901 0.732910 0.000000
0.859009 0.735138 0.001526
0.952942 0.737274 0.005707
0.000000 0.840515 0.000000
0.167816 0.842377 0.000000
0.320312 0.844269 0.000000
0.475494 0.846130 0.000000
0.625092 0.847961 0.001343
0.752716 0.849792 0.005493
0.862305 0.851654 0.009796
0.955658 0.853607 0.013947
0.003876 0.941833 0.000000
0.173126 0.943451 0.000000
0.325439 0.945007 0.001251
0.480743 0.946625 0.005402
0.629639 0.948181 0.009491
0.756592 0.949799 0.013763
0.865448 0.951477 0.017700
0.958405 0.953094 0.021515
0.000000 0.000000 0.126343
0.136719 0.000000 0.128998
0.290100 0.000000 0.131653
0.445190 0.000000 0.134308
0.598358 0.000000 0.136993
0.730103 0.000000 0.139648
0.842926 0.000000 0.142273
0.939423 0.000000 0.144958
0.000000 0.119049 0.131561
0.142090 0.121552 0.134216
0.295319 0.124084 0.136871
0.450439 0.126556 0.139557
0.603088 0.129089 0.142181
0.734039 0.131592 0.144836
0.846252 0.134125 0.147491
0.942200 0.136627 0.150146
0.000000 0.271179 0.136810
0.147522 0.273682 0.139465
0.300446 0.276215 0.142090
0.455688 0.278809 0.144745
0.607727 0.281311 0.147369
0.738037 0.283875 0.150024
0.849609 0.286438 0.152649
0.945007 0.289001 0.155273
0.000000 0.426910 0.142029
0.152832 0.429596 0.144684
0.305664 0.432312 0.147308
0.460907 0.434967 0.149933
0.612152 0.437622 0.152588
0.742004 0.440369 0.155212
0.852936 0.443024 0.157806
0.947876 0.445679 0.160553
0.000000 0.584839 0.147217
0.158447 0.587311 0.149841
0.310852 0.589813 0.152496
0.466217 0.592346 0.155121
0.616730 0.594849 0.157745
0.745850 0.597290 0.160339
0.856293 0.599792 0.163086
0.950684 0.602295 0.165588
0.000000 0.722931 0.152405
0.163757 0.725098 0.155060
0.316040 0.727264 0.157654
0.471405 0.729431 0.160278
0.621307 0.731567 0.162964
0.749756 0.733734 0.165527
0.859558 0.735840 0.168213
0.953461 0.738007 0.170929
0.000000 0.841217 0.157593
0.169037 0.843201 0.160156
0.321259 0.845062 0.162781
0.476685 0.846954 0.165405
0.625854 0.848785 0.168030
0.753632 0.850647 0.170715
0.862885 0.852478 0.173492
0.956268 0.854309 0.176117
0.005402 0.942535 0.162720
0.174255 0.944153 0.165283
0.326569 0.945740 0.167908
0.481934 0.947327 0.170532
0.630402 0.948914 0.173279
0.757446 0.950500 0.176025
0.866150 0.952057 0.178650
0.959045 0.953613 0.181244
0.000000 0.000000 0.276825
0.137665 0.000000 0.279449
0.291199 0.000000 0.282043
0.446106 0.000000 0.284637
0.599213 0.000000 0.287262
0.731018 0.000000 0.289917
0.843628 0.000000 0.292480
0.939972 0.000000 0.295105
0.000000 0.119934 0.281952
0.143158 0.122406 0.284576
0.296478 0.124969 0.287170
0.451324 0.127441 0.289795
0.603882 0.129974 0.292389
0.734924 0.132477 0.295013
0.847046 0.134979 0.297638
0.942810 0.137482 0.300232
0.000000 0.272003 0.287109
0.148682 0.274536 0.289673
0.301636 0.277130 0.292297
0.456573 0.279694 0.294891
0.608551 0.282227 0.297485
0.738708 0.284760 0.300171
0.850342 0.287323 0.302765
0.945679 0.289917 0.305389
0.000000 0.427856 0.292236
0.154083 0.430511 0.294800
0.306854 0.433197 0.297424
0.461853 0.435883 0.300049
0.613129 0.438599 0.302673
0.742676 0.441223 0.305298
0.853607 0.443939 0.307861
0.948395 0.446594 0.310516
0.000000 0.585693 0.297363
0.159363 0.588165 0.299927
0.312042 0.590729 0.302612
0.467102 0.593323 0.305176
0.617798 0.595947 0.307800
0.746521 0.598450 0.310425
0.856873 0.600922 0.313019
0.951172 0.603394 0.315613
0.000000 0.723663 0.302490
0.164673 0.725830 0.305084
0.317230 0.727997 0.307739
0.472351 0.730194 0.310333
0.622375 0.732330 0.312958
0.750427 0.734467 0.315521
0.860138 0.736572 0.318146
0.953949 0.738739 0.320770
0.000000 0.841980 0.307648
0.169922 0.843842 0.310211
0.322357 0.845703 0.312805
0.477600 0.847565 0.315430
0.626892 0.849426 0.318085
0.754303 0.851257 0.320648
0.863434 0.853119 0.323303
0.956757 0.854950 0.325897
0.007263 0.943085 0.312744
0.175171 0.944702 0.315369
0.327515 0.946259 0.317963
0.482849 0.947876 0.320587
0.631378 0.949463 0.323212
0.758118 0.951050 0.325836
0.866669 0.952576 0.328400
0.959503 0.954193 0.331055
0.000000 0.000000 0.429474
0.138947 0.000000 0.432159
0.292206 0.000000 0.434784
0.446991 0.000000 0.437469
0.600037 0.000000 0.440155
0.731720 0.000000 0.442841
0.844238 0.000000 0.445526
0.940491 0.000000 0.448181
0.000000 0.121033 0.434723
0.144257 0.123535 0.437378
0.297363 0.126099 0.440094
0.452271 0.128571 0.442780
0.604675 0.131073 0.445404
0.735657 0.133575 0.448090
0.847595 0.136108 0.450745
0.943359 0.138611 0.453430
0.000000 0.272858 0.440002
0.149658 0.275452 0.442657
0.302521 0.277985 0.445312
0.457520 0.280518 0.447998
0.609375 0.283112 0.450684
0.739624 0.285675 0.453369
0.850922 0.288177 0.456055
0.946167 0.290710 0.458710
0.000000 0.428711 0.445221
0.154968 0.431488 0.447876
0.307739 0.434265 0.450592
0.462738 0.436798 0.453278
0.613953 0.439575 0.455933
0.743561 0.442352 0.458618
0.854279 0.445129 0.461273
0.948975 0.447815 0.463959
0.000000 0.586792 0.450500
0.160278 0.589294 0.453186
0.312958 0.591827 0.455872
0.468048 0.594299 0.458557
0.618561 0.596771 0.461212
0.747437 0.599274 0.463928
0.857605 0.601776 0.466583
0.951813 0.604218 0.469238
0.000000 0.724426 0.455780
0.165588 0.726654 0.458466
0.318085 0.728973 0.461121
0.473206 0.731140 0.463806
0.623169 0.733246 0.466461
0.751312 0.735382 0.469177
0.860901 0.737518 0.471863
0.954590 0.739685 0.474518
0.000244 0.842651 0.461029
0.171112 0.844452 0.463715
0.323242 0.846405 0.466400
0.478485 0.848328 0.469116
0.627686 0.850159 0.471802
0.755188 0.852081 0.474457
0.864166 0.853912 0.477112
0.957397 0.855743 0.479828
0.008759 0.943604 0.466339
0.176331 0.945221 0.469025
0.328400 0.946808 0.471680
0.483795 0.948486 0.474365
0.632202 0.950134 0.477051
0.758759 0.951721 0.479767
0.867310 0.953308 0.482422
0.959991 0.954865 0.485107
0.000000 0.000000 0.582672
0.139862 0.000000 0.585114
0.293060 0.000000 0.587585
0.448181 0.000000 0.589996
0.601044 0.000000 0.592468
0.732391 0.000000 0.594910
0.845001 0.000000 0.597321
0.941132 0.000000 0.599792
0.000000 0.121887 0.587524
0.145203 0.124390 0.589966
0.298279 0.126923 0.592407
0.453461 0.129425 0.594849
0.605743 0.131927 0.597260
0.736359 0.134430 0.599701
0.848328 0.136963 0.602112
0.943909 0.139465 0.604523
0.000000 0.274017 0.592316
0.150726 0.276550 0.594757
0.303619 0.279144 0.597198
0.458710 0.281647 0.599609
0.610413 0.284210 0.602020
0.740326 0.286774 0.604462
0.851501 0.289368 0.606873
0.946655 0.291901 0.609283
0.000000 0.429962 0.597137
0.156189 0.432587 0.599518
0.308868 0.435303 0.601959
0.463928 0.438019 0.604340
0.615051 0.440643 0.606781
0.744232 0.443329 0.609192
0.854828 0.446045 0.611542
0.949493 0.448700 0.613953
0.000000 0.587646 0.601837
0.161469 0.590149 0.604248
0.314056 0.592651 0.606659
0.469177 0.595123 0.609070
0.619629 0.597656 0.611481
0.748108 0.600128 0.613861
0.858154 0.602692 0.616241
0.952271 0.605286 0.618652
0.000000 0.725403 0.606598
0.166748 0.727509 0.609009
0.319275 0.729706 0.611420
0.474457 0.731842 0.613770
0.624176 0.733978 0.616180
0.751953 0.736115 0.618561
0.861481 0.738251 0.620911
0.955078 0.740417 0.623260
0.001709 0.843506 0.611328
0.171997 0.845306 0.613739
0.324402 0.847168 0.616119
0.479675 0.849060 0.618500
0.628632 0.850861 0.620819
0.755859 0.852692 0.623199
0.864685 0.854523 0.625580
0.957825 0.856354 0.627899
0.010590 0.944366 0.616058
0.177216 0.945923 0.618378
0.329620 0.947510 0.620728
0.484955 0.949097 0.623138
0.633209 0.950684 0.625488
0.759644 0.952271 0.627838
0.867981 0.953857 0.630157
0.960632 0.955383 0.632477
0.000000 0.000000 0.716400
0.141083 0.000000 0.718597
0.294250 0.000000 0.720490
0.449097 0.000000 0.722656
0.601837 0.000000 0.724731
0.733276 0.000000 0.726868
0.845581 0.000000 0.729004
0.941589 0.000000 0.731110
0.000000 0.122803 0.720337
0.146423 0.125366 0.722504
0.299438 0.127869 0.724609
0.454346 0.130371 0.726776
0.606537 0.132874 0.728882
0.737244 0.135406 0.731018
0.848938 0.137939 0.733063
0.944458 0.140320 0.735138
0.000000 0.274902 0.724518
0.151794 0.277435 0.726624
0.304626 0.279999 0.728760
0.459625 0.282532 0.730835
0.611176 0.285095 0.732941
0.741150 0.287659 0.735077
0.852295 0.290192 0.737122
0.947296 0.292786 0.739075
0.000000 0.430847 0.728668
0.157104 0.433533 0.730713
0.309814 0.436188 0.732849
0.464874 0.438904 0.734955
0.615784 0.441589 0.737030
0.744904 0.444275 0.738892
0.855621 0.446960 0.741028
0.950104 0.449646 0.743134
0.000000 0.588745 0.732697
0.162415 0.591248 0.734802
0.314972 0.593781 0.736877
0.470093 0.596283 0.738800
0.620422 0.598724 0.740936
0.748749 0.601227 0.742981
0.858917 0.603699 0.745056
0.952850 0.606171 0.747101
0.000000 0.726135 0.736755
0.167694 0.728271 0.738739
0.320190 0.730469 0.740814
0.475342 0.732574 0.742859
0.624969 0.734863 0.744965
0.752655 0.737091 0.746979
0.862152 0.739166 0.749084
0.955536 0.741364 0.751129
0.003662 0.844086 0.740753
0.172943 0.845947 0.742767
0.325317 0.847809 0.744812
0.480621 0.849670 0.746857
0.629517 0.851501 0.748901
0.756470 0.853333 0.750916
0.865265 0.855225 0.753052
0.958313 0.857208 0.755066
0.012054 0.944916 0.744751
0.178375 0.946472 0.746735
0.330475 0.948059 0.748749
0.485840 0.949646 0.750824
0.634033 0.951202 0.752869
0.760284 0.952881 0.754944
0.868561 0.954529 0.756958
0.961060 0.956116 0.758820
0.000000 0.000000 0.831055
0.141968 0.000000 0.832825
0.295166 0.000000 0.834656
0.450317 0.000000 0.836487
0.602936 0.000000 0.838257
0.733978 0.000000 0.840027
0.846161 0.000000 0.841827
0.942108 0.000000 0.843628
0.000000 0.123871 0.834595
0.147339 0.126373 0.836395
0.300354 0.128906 0.838196
0.455536 0.131378 0.839966
0.607544 0.133911 0.841797
0.737915 0.136414 0.843536
0.849518 0.138947 0.845306
0.944946 0.141449 0.847046
0.000000 0.275940 0.838135
0.152710 0.278473 0.839935
0.305542 0.281097 0.841736
0.460785 0.283661 0.843506
0.611969 0.286224 0.845245
0.741882 0.288727 0.847046
0.852844 0.291351 0.848755
0.947754 0.293884 0.850525
0.000000 0.432068 0.841644
0.158234 0.434753 0.843445
0.310699 0.437408 0.845215
0.466034 0.440125 0.846954
0.616577 0.442810 0.848724
0.745789 0.445496 0.850433
0.856171 0.448151 0.852203
0.950623 0.450836 0.853973
0.000000 0.589661 0.845123
0.163574 0.592102 0.846924
0.315887 0.594635 0.848663
0.471252 0.597137 0.850403
0.621216 0.599579 0.852173
0.749634 0.602051 0.853882
0.859497 0.604523 0.855652
0.953400 0.607025 0.857361
0.000000 0.727051 0.848602
0.168884 0.729248 0.850342
0.321045 0.731354 0.852112
0.476532 0.733551 0.853851
0.625763 0.735657 0.855591
0.753540 0.737793 0.857300
0.862793 0.739960 0.859039
0.956207 0.742096 0.860809
0.005157 0.844879 0.852051
0.174103 0.846771 0.853790
0.326385 0.848633 0.855530
0.481812 0.850464 0.857239
0.630280 0.852325 0.859009
0.757355 0.854156 0.860718
0.865997 0.855957 0.862427
0.958954 0.857849 0.864166
0.013763 0.945526 0.855408
0.179321 0.947205 0.857208
0.331665 0.948761 0.858948
0.487030 0.950348 0.860687
0.634735 0.951935 0.862396
0.761108 0.953461 0.864105
0.869263 0.955048 0.865814
0.961578 0.956635 0.867493
0.000000 0.000000 0.929352
0.142944 0.000000 0.930878
0.296356 0.000000 0.932434
0.451263 0.000000 0.933990
0.603760 0.000000 0.935486
0.734741 0.000000 0.937012
0.846954 0.000000 0.938507
0.942780 0.000000 0.940063
0.000000 0.124695 0.932373
0.148560 0.127228 0.933929
0.301544 0.129761 0.935455
0.456451 0.132263 0.936951
0.608429 0.134766 0.938477
0.738617 0.137238 0.940002
0.850220 0.139771 0.941498
0.945557 0.142334 0.942993
0.000000 0.276886 0.935394
0.153900 0.279449 0.936920
0.306671 0.282013 0.938446
0.461700 0.284546 0.939941
0.613037 0.287109 0.941437
0.742523 0.289642 0.942932
0.853485 0.292236 0.944458
0.948273 0.294769 0.945953
0.000000 0.432953 0.938354
0.159210 0.435669 0.939880
0.311890 0.438324 0.941376
0.466949 0.441010 0.942902
0.617645 0.443665 0.944397
0.746460 0.446381 0.945892
0.856750 0.449066 0.947388
0.951080 0.451752 0.948853
0.000000 0.590454 0.941345
0.164520 0.592926 0.942871
0.317078 0.595551 0.944366
0.472260 0.598145 0.945831
0.622253 0.600739 0.947357
0.750305 0.603149 0.948822
0.860077 0.605652 0.950287
0.953857 0.608063 0.951782
0.000000 0.727783 0.944305
0.169769 0.729980 0.945801
0.322235 0.732117 0.947296
0.477448 0.734283 0.948761
0.626801 0.736420 0.950256
0.754181 0.738495 0.951752
0.863342 0.740692 0.953217
0.956665 0.742798 0.954681
0.007050 0.845551 0.947235
0.175018 0.847382 0.948700
0.327362 0.849274 0.950195
0.482697 0.851105 0.951721
0.631317 0.852936 0.953156
0.758026 0.854797 0.954651
0.866608 0.856567 0.956116
0.959412 0.858429 0.957581
0.015259 0.946136 0.950165
0.180237 0.947723 0.951630
0.332550 0.949310 0.953125
0.487976 0.950897 0.954620
0.635773 0.952484 0.956085
0.761841 0.954041 0.957489
0.869843 0.955597 0.958954
0.962158 0.957275 0.960449
