Final/public/luts/LUT2.CUBE
#Created by: Adobe Photoshop Export Color Lookup Plugin
TITLE "LUT.psd"
#LUT size
LUT_3D_SIZE 32
#data domain
DOMAIN_MIN 0.0 0.0 0.0
DOMAIN_MAX 1.0 1.0 1.0
#LUT data points
0.000000 0.000000 0.000000
0.002747 0.000000 0.000000
0.053833 0.000000 0.000000
0.095734 0.000000 0.000000
0.135803 0.000000 0.000000
0.174408 0.000000 0.000000
0.212524 0.000000 0.000000
0.250763 0.000000 0.000000
0.289185 0.000000 0.000000
0.327698 0.000000 0.000000
0.366089 0.000000 0.000000
0.404846 0.000000 0.000000
0.444031 0.000000 0.000000
0.483551 0.000000 0.000000
0.522888 0.000000 0.000000
0.560791 0.000000 0.000000
0.597260 0.000000 0.000000
0.632355 0.000000 0.000000
0.666016 0.000000 0.000000
0.698334 0.000000 0.000000
0.729401 0.000000 0.000000
0.759369 0.000000 0.000000
0.788116 0.000000 0.000000
0.815674 0.000000 0.000000
0.842255 0.000000 0.000000
0.867920 0.000000 0.000000
0.892609 0.000000 0.000000
0.916107 0.000000 0.000000
0.938812 0.000000 0.000000
0.960663 0.000000 0.000000
0.981628 0.000000 0.000000
1.000000 0.000000 0.000000
0.000000 0.000000 0.000000
0.004608 0.000000 0.000000
0.055511 0.000000 0.000000
0.096985 0.000000 0.000000
0.136993 0.000000 0.000000
0.175659 0.000000 0.000000
0.213928 0.000000 0.000000
0.252075 0.000000 0.000000
0.290344 0.000000 0.000000
0.329102 0.000000 0.000000
0.367493 0.000000 0.000000
0.406311 0.000000 0.000000
0.445435 0.000000 0.000000
0.484985 0.000000 0.000000
0.524323 0.000000 0.000000
0.562164 0.000000 0.000000
0.598602 0.000000 0.000000
0.633575 0.000000 0.000000
0.667236 0.000122 0.000000
0.699249 0.000977 0.000000
0.730316 0.001953 0.000000
0.760193 0.003052 0.000000
0.789001 0.003876 0.000000
0.816620 0.004730 0.000000
0.843201 0.005585 0.000000
0.868622 0.006805 0.000000
0.893280 0.007629 0.000000
0.916931 0.008514 0.000000
0.939606 0.009277 0.000000
0.961273 0.010559 0.000000
0.982239 0.011322 0.000000
1.000000 0.012146 0.000000
0.000000 0.038086 0.000000
0.007050 0.038696 0.000000
0.056824 0.039368 0.000000
0.098511 0.039948 0.000000
0.138489 0.040863 0.000000
0.177063 0.041534 0.000000
0.215088 0.042145 0.000000
0.253448 0.042786 0.000000
0.291779 0.043701 0.000000
0.330261 0.044312 0.000000
0.368683 0.044922 0.000000
0.407440 0.045532 0.000000
0.446594 0.046478 0.000000
0.486145 0.047089 0.000000
0.525452 0.047668 0.000000
0.563263 0.048340 0.000000
0.599609 0.049255 0.000000
0.634613 0.049866 0.000000
0.668182 0.050446 0.000000
0.700409 0.051056 0.000000
0.731384 0.051941 0.000000
0.761261 0.052521 0.000000
0.789886 0.053162 0.000000
0.817383 0.053772 0.000000
0.843933 0.054626 0.000000
0.869507 0.055298 0.000000
0.894135 0.055878 0.000000
0.917572 0.056488 0.000000
0.940247 0.057281 0.000000
0.962036 0.058014 0.000000
0.982849 0.058563 0.000000
1.000000 0.059174 0.000000
0.000000 0.079437 0.000000
0.009125 0.079987 0.000000
0.058563 0.080597 0.000000
0.099915 0.081177 0.000000
0.139679 0.082001 0.000000
0.178528 0.082581 0.000000
0.216583 0.083130 0.000000
0.254639 0.083710 0.000000
0.292938 0.084564 0.000000
0.331696 0.085144 0.000000
0.370117 0.085724 0.000000
0.408875 0.086304 0.000000
0.448029 0.087158 0.000000
0.487640 0.087738 0.000000
0.526917 0.088318 0.000000
0.564606 0.088867 0.000000
0.600952 0.089630 0.000000
0.635834 0.090271 0.000000
0.669403 0.090851 0.000000
0.701294 0.091431 0.000000
0.732269 0.092133 0.000000
0.762115 0.092865 0.000000
0.790863 0.093384 0.000000
0.818420 0.093964 0.000000
0.844849 0.094635 0.000000
0.870209 0.095428 0.000000
0.894775 0.095947 0.000000
0.918396 0.096497 0.000000
0.941010 0.097198 0.000000
0.962646 0.097961 0.000000
0.983551 0.098511 0.000000
1.000000 0.099091 0.000000
0.000000 0.118164 0.000000
0.011505 0.118774 0.000000
0.060303 0.119324 0.000000
0.101379 0.119873 0.000000
0.141174 0.120697 0.000000
0.179718 0.121246 0.000000
0.217773 0.121796 0.000000
0.256104 0.122345 0.000000
0.294342 0.123230 0.000000
0.332855 0.123749 0.000000
0.371338 0.124329 0.000000
0.410095 0.124878 0.000000
0.449219 0.125702 0.000000
0.488770 0.126312 0.000000
0.528015 0.126831 0.000000
0.565704 0.127380 0.000000
0.601990 0.128235 0.000000
0.636841 0.128815 0.000000
0.670319 0.129333 0.000000
0.702515 0.129913 0.000000
0.733368 0.130768 0.000000
0.763184 0.131287 0.000000
0.791718 0.131866 0.000000
0.819183 0.132416 0.000000
0.845642 0.133240 0.000000
0.871124 0.133820 0.000000
0.895660 0.134338 0.000000
0.919067 0.134918 0.000000
0.941650 0.135742 0.000000
0.963379 0.136353 0.000000
0.984131 0.136932 0.000000
1.000000 0.137482 0.000000
0.000000 0.156281 0.000000
0.013672 0.156830 0.000000
0.061646 0.157379 0.000000
0.102936 0.157990 0.000000
0.142395 0.158752 0.000000
0.181152 0.159302 0.000000
0.219177 0.159882 0.000000
0.257263 0.160553 0.000000
0.295532 0.161255 0.000000
0.334290 0.161835 0.000000
0.372772 0.162384 0.000000
0.411560 0.163025 0.000000
0.450684 0.163757 0.000000
0.490265 0.164307 0.000000
0.529419 0.164886 0.000000
0.567047 0.165436 0.000000
0.603302 0.166290 0.000000
0.638092 0.166809 0.000000
0.671570 0.167358 0.000000
0.703369 0.167938 0.000000
0.734283 0.168793 0.000000
0.764008 0.169342 0.000000
0.792664 0.169891 0.000000
0.820160 0.170441 0.000000
0.846497 0.171265 0.000000
0.871887 0.171814 0.000000
0.896332 0.172424 0.000000
0.919891 0.172943 0.000000
0.942383 0.173767 0.000000
0.964020 0.174347 0.000000
0.984863 0.174927 0.000000
1.000000 0.175446 0.000000
0.000000 0.194214 0.000000
0.015625 0.194733 0.000000
0.063263 0.195343 0.000000
0.104187 0.196136 0.000000
0.143890 0.196716 0.000000
0.182343 0.197235 0.000000
0.220337 0.197784 0.000000
0.258728 0.198608 0.000000
0.296997 0.199158 0.000000
0.335480 0.199738 0.000000
0.373871 0.200287 0.000000
0.412659 0.201141 0.000000
0.451874 0.201752 0.000000
0.491455 0.202271 0.000000
0.530579 0.202820 0.000000
0.568146 0.203644 0.000000
0.604309 0.204193 0.000000
0.639099 0.204773 0.000000
0.672485 0.205322 0.000000
0.704529 0.206177 0.000000
0.735382 0.206726 0.000000
0.765045 0.207275 0.000000
0.793549 0.207855 0.000000
0.820953 0.208649 0.000000
0.847321 0.209229 0.000000
0.872772 0.209778 0.000000
0.897186 0.210327 0.000000
0.920563 0.211182 0.000000
0.943085 0.211731 0.000000
0.964783 0.212280 0.000000
0.985413 0.212830 0.000000
1.000000 0.213654 0.000000
0.000000 0.232025 0.000000
0.017944 0.232605 0.000000
0.064636 0.233459 0.000000
0.105682 0.234039 0.000000
0.145111 0.234558 0.000000
0.183807 0.235107 0.000000
0.221802 0.235992 0.000000
0.259827 0.236511 0.000000
0.298157 0.237061 0.000000
0.336823 0.237640 0.000000
0.375366 0.238312 0.000000
0.414154 0.239014 0.000000
0.453339 0.239624 0.000000
0.492859 0.240173 0.000000
0.532013 0.240875 0.000000
0.569489 0.241577 0.000000
0.605591 0.242157 0.000000
0.640350 0.242676 0.000000
0.673615 0.243408 0.000000
0.705444 0.244080 0.000000
0.736237 0.244690 0.000000
0.765900 0.245239 0.000000
0.794495 0.246033 0.000000
0.821930 0.246613 0.000000
0.848175 0.247192 0.000000
0.873474 0.247772 0.000000
0.897919 0.248596 0.000000
0.921387 0.249146 0.000000
0.943756 0.249695 0.000000
0.965363 0.250275 0.000000
0.986176 0.251129 0.000000
1.000000 0.251648 0.000000
0.000000 0.269989 0.000000
0.019836 0.270599 0.000000
0.066284 0.271423 0.000000
0.106934 0.272003 0.000000
0.146545 0.272552 0.000000
0.184998 0.273102 0.000000
0.222992 0.273987 0.000000
0.261322 0.274536 0.000000
0.299561 0.275085 0.000000
0.338074 0.275696 0.000000
0.376526 0.276520 0.000000
0.415344 0.277069 0.000000
0.454498 0.277679 0.000000
0.494049 0.278351 0.000000
0.533112 0.279053 0.000000
0.570618 0.279663 0.000000
0.606659 0.280243 0.000000
0.641357 0.280975 0.000000
0.674652 0.281586 0.000000
0.706604 0.282196 0.000000
0.737366 0.282745 0.000000
0.766907 0.283600 0.000000
0.795319 0.284149 0.000000
0.822693 0.284729 0.000000
0.849060 0.285278 0.000000
0.874390 0.286163 0.000000
0.898682 0.286713 0.000000
0.922058 0.287292 0.000000
0.944550 0.287842 0.000000
0.966156 0.288605 0.000000
0.986755 0.289307 0.000000
1.000000 0.289856 0.000000
0.000000 0.308228 0.000000
0.022034 0.309082 0.000000
0.067719 0.309662 0.000000
0.108551 0.310211 0.000000
0.147766 0.310822 0.000000
0.186432 0.311646 0.000000
0.224426 0.312256 0.000000
0.262512 0.312775 0.000000
0.300812 0.313385 0.000000
0.339508 0.314209 0.000000
0.377960 0.314819 0.000000
0.416809 0.315369 0.000000
0.455994 0.315979 0.000000
0.495575 0.316803 0.000000
0.534576 0.317383 0.000000
0.572021 0.317932 0.000000
0.607971 0.318542 0.000000
0.642609 0.319397 0.000000
0.675842 0.319946 0.000000
0.707520 0.320557 0.000000
0.738251 0.321106 0.000000
0.767822 0.321960 0.000000
0.796326 0.322510 0.000000
0.823700 0.323151 0.000000
0.849762 0.323761 0.000000
0.875092 0.324554 0.000000
0.899475 0.325134 0.000000
0.922882 0.325714 0.000000
0.945160 0.326508 0.000000
0.966736 0.327148 0.000000
0.987488 0.327759 0.000000
1.000000 0.328278 0.000000
0.000000 0.347260 0.000000
0.023712 0.347839 0.000000
0.069275 0.348419 0.000000
0.109802 0.348999 0.000000
0.149292 0.349854 0.000000
0.187592 0.350433 0.000000
0.225677 0.351013 0.000000
0.263916 0.351685 0.000000
0.302216 0.352478 0.000000
0.340698 0.353027 0.000000
0.379089 0.353607 0.000000
0.417938 0.354340 0.000000
0.457184 0.355042 0.000000
0.496735 0.355652 0.000000
0.535645 0.356232 0.000000
0.573029 0.356995 0.000000
0.609009 0.357635 0.000000
0.643555 0.358246 0.000000
0.676788 0.358826 0.000000
0.708649 0.359711 0.000000
0.739319 0.360291 0.000000
0.768738 0.360870 0.000000
0.797119 0.361420 0.000000
0.824463 0.362152 0.000000
0.850708 0.362885 0.000000
0.876007 0.363464 0.000000
0.900146 0.364075 0.000000
0.923523 0.364899 0.000000
0.945953 0.365509 0.000000
0.967499 0.366089 0.000000
0.988037 0.366669 0.000000
1.000000 0.367554 0.000000
0.000000 0.386292 0.000000
0.025879 0.386902 0.000000
0.070526 0.387512 0.000000
0.111237 0.388336 0.000000
0.150482 0.388947 0.000000
0.189117 0.389496 0.000000
0.227020 0.390137 0.000000
0.265076 0.390991 0.000000
0.303406 0.391571 0.000000
0.342133 0.392181 0.000000
0.380615 0.392883 0.000000
0.419403 0.393616 0.000000
0.458588 0.394226 0.000000
0.498169 0.394836 0.000000
0.537109 0.395599 0.000000
0.574371 0.396271 0.000000
0.610291 0.396851 0.000000
0.644806 0.397461 0.000000
0.677734 0.398285 0.000000
0.709534 0.398865 0.000000
0.740234 0.399506 0.000000
0.769714 0.400055 0.000000
0.798157 0.400940 0.000000
0.825409 0.401581 0.000000
0.851440 0.402161 0.000000
0.876740 0.402771 0.000000
0.901001 0.403625 0.000000
0.924377 0.404236 0.000000
0.946594 0.404816 0.000000
0.968109 0.405365 0.000000
0.988800 0.406281 0.000000
1.000000 0.406860 0.000000
0.000000 0.425751 0.000000
0.027893 0.426514 0.000000
0.072205 0.427216 0.000000
0.112701 0.427826 0.000000
0.151917 0.428436 0.000000
0.190247 0.429199 0.000000
0.228485 0.429901 0.000000
0.266510 0.430511 0.000000
0.304749 0.431091 0.000000
0.343262 0.431946 0.000000
0.381775 0.432556 0.000000
0.420532 0.433167 0.000000
0.459717 0.433777 0.000000
0.499390 0.434631 0.000000
0.538239 0.435242 0.000000
0.575439 0.435791 0.000000
0.611298 0.436432 0.000000
0.645782 0.437195 0.000000
0.678925 0.437897 0.000000
0.710663 0.438507 0.000000
0.741302 0.439056 0.000000
0.770538 0.439972 0.000000
0.798950 0.440582 0.000000
0.826202 0.441193 0.000000
0.852356 0.441833 0.000000
0.877625 0.442719 0.000000
0.901672 0.443298 0.000000
0.925018 0.443878 0.000000
0.947357 0.444489 0.000000
0.968781 0.445374 0.000000
0.989349 0.446014 0.000000
1.000000 0.446564 0.000000
0.000000 0.465576 0.000000
0.029663 0.466431 0.000000
0.073822 0.467072 0.000000
0.114075 0.467682 0.000000
0.153290 0.468445 0.000000
0.191711 0.469147 0.000000
0.229645 0.469757 0.000000
0.267670 0.470367 0.000000
0.306152 0.471252 0.000000
0.344696 0.471893 0.000000
0.383209 0.472473 0.000000
0.422058 0.473083 0.000000
0.461243 0.473999 0.000000
0.500854 0.474579 0.000000
0.539642 0.475189 0.000000
0.576813 0.475800 0.000000
0.612640 0.476654 0.000000
0.647034 0.477264 0.000000
0.679871 0.477875 0.000000
0.711609 0.478455 0.000000
0.742188 0.479370 0.000000
0.771606 0.479980 0.000000
0.799927 0.480621 0.000000
0.827148 0.481323 0.000000
0.853119 0.482117 0.000000
0.878296 0.482727 0.000000
0.902557 0.483337 0.000000
0.925842 0.484192 0.000000
0.947998 0.484833 0.000000
0.969452 0.485443 0.000000
0.990082 0.486053 0.000000
1.000000 0.486969 0.000000
0.000000 0.506226 0.000000
0.031616 0.506836 0.000000
0.075134 0.507446 0.000000
0.115479 0.508331 0.000000
0.154633 0.508942 0.000000
0.192871 0.509521 0.000000
0.231110 0.510162 0.000000
0.269135 0.511047 0.000000
0.307373 0.511658 0.000000
0.345886 0.512268 0.000000
0.384338 0.513031 0.000000
0.423187 0.513763 0.000000
0.462402 0.514313 0.000000
0.502014 0.514923 0.000000
0.540710 0.515533 0.000000
0.577881 0.516418 0.000000
0.613647 0.516998 0.000000
0.647980 0.517609 0.000000
0.681061 0.518250 0.000000
0.712738 0.519104 0.000000
0.743225 0.519684 0.000000
0.772430 0.520294 0.000000
0.800751 0.521118 0.000000
0.827881 0.521790 0.000000
0.854065 0.522400 0.000000
0.879181 0.523010 0.000000
0.903229 0.523895 0.000000
0.926483 0.524506 0.000000
0.948792 0.525116 0.000000
0.970093 0.525665 0.000000
0.990662 0.526520 0.000000
1.000000 0.527130 0.000000
0.000000 0.545715 0.000000
0.033203 0.546326 0.000000
0.076691 0.547211 0.000000
0.116760 0.547729 0.000000
0.156097 0.548340 0.000000
0.194336 0.549072 0.000000
0.232208 0.549744 0.000000
0.270264 0.550354 0.000000
0.308746 0.550934 0.000000
0.347321 0.551819 0.000000
0.385773 0.552368 0.000000
0.424622 0.553009 0.000000
0.463867 0.553528 0.000000
0.503479 0.554413 0.000000
0.542145 0.554962 0.000000
0.579224 0.555542 0.000000
0.614929 0.556152 0.000000
0.649200 0.556976 0.000000
0.682007 0.557526 0.000000
0.713593 0.558105 0.000000
0.744110 0.558777 0.000000
0.773468 0.559570 0.000000
0.801758 0.560150 0.000000
0.828827 0.560699 0.000000
0.854736 0.561432 0.000000
0.879852 0.562103 0.000000
0.904083 0.562714 0.000000
0.927277 0.563324 0.000000
0.949402 0.563934 0.000000
0.970825 0.564758 0.000000
0.991364 0.565308 0.000000
1.000000 0.565887 0.000000
0.000000 0.583954 0.000000
0.035126 0.584503 0.000000
0.077972 0.585083 0.000000
0.118225 0.585693 0.000000
0.157257 0.586426 0.000000
0.195526 0.587006 0.000000
0.233673 0.587585 0.000000
0.271698 0.588135 0.000000
0.309937 0.588959 0.000000
0.348450 0.589539 0.000000
0.386932 0.590057 0.000000
0.425781 0.590637 0.000000
0.464996 0.591461 0.000000
0.504669 0.592041 0.000000
0.543304 0.592621 0.000000
0.580261 0.593292 0.000000
0.615936 0.593994 0.000000
0.650177 0.594513 0.000000
0.683197 0.595032 0.000000
0.714783 0.595825 0.000000
0.745117 0.596436 0.000000
0.774292 0.597015 0.000000
0.802551 0.597595 0.000000
0.829620 0.598389 0.000000
0.855713 0.598938 0.000000
0.880707 0.599487 0.000000
0.904755 0.600067 0.000000
0.927948 0.600891 0.000000
0.950165 0.601440 0.000000
0.971405 0.601990 0.000000
0.991943 0.602631 0.000000
1.000000 0.603363 0.000702
0.000000 0.620392 0.000000
0.036682 0.620911 0.000000
0.079620 0.621613 0.000000
0.119507 0.622253 0.000000
0.158691 0.622803 0.000000
0.196960 0.623322 0.000000
0.234833 0.624146 0.000000
0.272827 0.624695 0.000000
0.311127 0.625214 0.000000
0.349884 0.625793 0.000000
0.388367 0.626587 0.000000
0.427246 0.627075 0.000000
0.466431 0.627655 0.000000
0.506104 0.628204 0.000000
0.544647 0.628937 0.000000
0.581604 0.629486 0.000000
0.617157 0.630035 0.000000
0.651398 0.630615 0.000000
0.684143 0.631348 0.000000
0.715698 0.631897 0.000000
0.746063 0.632416 0.000000
0.775360 0.633118 0.000000
0.803558 0.633728 0.000000
0.830505 0.634308 0.000000
0.856445 0.634796 0.000000
0.881500 0.635437 0.000000
0.905579 0.636169 0.000000
0.928650 0.636688 0.000000
0.950806 0.637238 0.000000
0.972168 0.638000 0.000671
0.992615 0.638550 0.001617
1.000000 0.639099 0.002960
0.000000 0.655426 0.000000
0.038452 0.656189 0.000000
0.080933 0.656738 0.000000
0.121033 0.657257 0.000000
0.159943 0.657745 0.000000
0.198212 0.658539 0.000000
0.236298 0.659058 0.000000
0.274292 0.659607 0.000000
0.312531 0.660065 0.000000
0.351013 0.660889 0.000000
0.389496 0.661346 0.000000
0.428406 0.661926 0.000000
0.467651 0.662537 0.000000
0.507263 0.663208 0.000000
0.545746 0.663727 0.000000
0.582703 0.664246 0.000000
0.618195 0.664917 0.000000
0.652405 0.665497 0.000000
0.685303 0.666016 0.000000
0.716827 0.666534 0.000000
0.747040 0.667328 0.000000
0.776184 0.667816 0.000000
0.804321 0.668335 0.000000
0.831390 0.668854 0.000000
0.857330 0.669586 0.000000
0.882233 0.670135 0.000000
0.906281 0.670624 0.000000
0.929413 0.671265 0.000671
0.951569 0.671906 0.001556
0.972748 0.672394 0.002899
0.993256 0.672974 0.003876
1.000000 0.673615 0.004761
0.000000 0.689484 0.000000
0.039886 0.690002 0.000000
0.082458 0.690460 0.000000
0.122192 0.691223 0.000000
0.161377 0.691742 0.000000
0.199554 0.692200 0.000000
0.237427 0.692719 0.000000
0.275452 0.693481 0.000000
0.313843 0.693970 0.000000
0.352509 0.694489 0.000000
0.390961 0.695068 0.000000
0.429840 0.695740 0.000000
0.469116 0.696198 0.000000
0.508667 0.696716 0.000000
0.547180 0.697418 0.000000
0.583984 0.697968 0.000000
0.619476 0.698456 0.000000
0.653534 0.698944 0.000000
0.686218 0.699524 0.000000
0.717682 0.700195 0.000000
0.748016 0.700653 0.000000
0.777222 0.701141 0.000000
0.805359 0.701843 0.000000
0.832123 0.702423 0.000000
0.858124 0.702942 0.000000
0.883118 0.703400 0.000610
0.907135 0.704132 0.001526
0.930054 0.704590 0.002899
0.952179 0.705139 0.003815
0.973480 0.705627 0.004730
0.993835 0.706329 0.005798
1.000000 0.706818 0.007019
0.000000 0.721954 0.000000
0.041626 0.722504 0.000000
0.083710 0.723206 0.000000
0.123688 0.723633 0.000000
0.162567 0.724121 0.000000
0.200958 0.724823 0.000000
0.238861 0.725342 0.000000
0.276855 0.725800 0.000000
0.315155 0.726288 0.000000
0.353607 0.726990 0.000000
0.392120 0.727478 0.000000
0.431000 0.727997 0.000000
0.470306 0.728485 0.000000
0.509857 0.729187 0.000000
0.548248 0.729675 0.000000
0.585052 0.730133 0.000000
0.620514 0.730682 0.000000
0.654602 0.731323 0.000000
0.687408 0.731812 0.000000
0.718842 0.732269 0.000000
0.748901 0.732910 0.000000
0.778046 0.733429 0.000000
0.806152 0.733948 0.000000
0.833099 0.734436 0.000610
0.859009 0.735138 0.001526
0.883789 0.735596 0.002838
0.907806 0.736053 0.003754
0.930878 0.736572 0.004730
0.952942 0.737274 0.005707
0.974060 0.737732 0.006958
0.994507 0.738220 0.007935
1.000000 0.738708 0.008820
0.000000 0.753448 0.000000
0.043182 0.753906 0.000000
0.085297 0.754395 0.000000
0.124908 0.754944 0.000000
0.164001 0.755524 0.000000
0.202148 0.755981 0.000000
0.240021 0.756470 0.000000
0.278015 0.757141 0.000000
0.316467 0.757599 0.000000
0.355042 0.758087 0.000000
0.393585 0.758545 0.000000
0.432465 0.759186 0.000000
0.471710 0.759705 0.000000
0.511292 0.760162 0.000000
0.549652 0.760620 0.000000
0.586395 0.761322 0.000000
0.621796 0.761780 0.000000
0.655609 0.762238 0.000000
0.688324 0.762695 0.000000
0.719727 0.763336 0.000000
0.749939 0.763824 0.000000
0.779083 0.764313 0.000549
0.807129 0.764832 0.001465
0.833832 0.765442 0.002808
0.859741 0.765900 0.003754
0.884674 0.766388 0.004669
0.908661 0.766998 0.005585
0.931488 0.767487 0.006958
0.953613 0.767944 0.007843
0.974823 0.768433 0.008759
0.995056 0.769135 0.009918
1.000000 0.769562 0.010956
0.000000 0.783478 0.000000
0.044800 0.783936 0.000000
0.086853 0.784576 0.000000
0.126434 0.785034 0.000000
0.165161 0.785492 0.000000
0.203583 0.785950 0.000000
0.241455 0.786591 0.000000
0.279480 0.787048 0.000000
0.317749 0.787537 0.000000
0.356201 0.788086 0.000000
0.394745 0.788574 0.000000
0.433655 0.789062 0.000000
0.472900 0.789520 0.000000
0.512482 0.790192 0.000000
0.550751 0.790619 0.000000
0.587494 0.791077 0.000000
0.622864 0.791534 0.000000
0.656830 0.792145 0.000000
0.689514 0.792603 0.000000
0.720825 0.793060 0.000549
0.750824 0.793549 0.001465
0.779907 0.794159 0.002808
0.807922 0.794586 0.003723
0.834808 0.795044 0.004608
0.860687 0.795685 0.005585
0.885376 0.796143 0.006897
0.909363 0.796570 0.007812
0.932343 0.797028 0.008759
0.954346 0.797577 0.009918
0.975433 0.798157 0.010956
0.995819 0.798553 0.011841
1.000000 0.799042 0.012726
0.000000 0.812653 0.000000
0.046478 0.813080 0.000000
0.088165 0.813507 0.000000
0.127655 0.813934 0.000000
0.166656 0.814606 0.000000
0.204742 0.815033 0.000000
0.242615 0.815491 0.000000
0.280670 0.815887 0.000000
0.319122 0.816498 0.000000
0.357635 0.816986 0.000000
0.396179 0.817383 0.000000
0.435089 0.817902 0.000000
0.474335 0.818481 0.000000
0.513916 0.818878 0.000000
0.552124 0.819336 0.000000
0.588745 0.819916 0.000000
0.624054 0.820374 0.000000
0.657776 0.820862 0.000488
0.690399 0.821259 0.001434
0.721710 0.821869 0.002747
0.751862 0.822296 0.003662
0.780945 0.822723 0.004608
0.808929 0.823151 0.005554
0.835541 0.823792 0.006866
0.861389 0.824219 0.007812
0.886261 0.824677 0.008728
0.910187 0.825195 0.009796
0.932983 0.825684 0.010895
0.954987 0.826141 0.011780
0.976166 0.826538 0.012726
0.996368 0.827209 0.014008
1.000000 0.827606 0.014893
0.000000 0.840515 0.000000
0.047913 0.840942 0.000000
0.089478 0.841583 0.000000
0.129150 0.841980 0.000000
0.167816 0.842377 0.000000
0.206177 0.842773 0.000000
0.244019 0.843414 0.000000
0.282043 0.843811 0.000000
0.320312 0.844269 0.000000
0.358795 0.844757 0.000000
0.397339 0.845276 0.000000
0.436188 0.845673 0.000000
0.475494 0.846130 0.000000
0.515076 0.846710 0.000000
0.553223 0.847137 0.000000
0.589813 0.847534 0.000427
0.625092 0.847961 0.001343
0.658997 0.848572 0.002716
0.691589 0.848969 0.003662
0.722809 0.849396 0.004547
0.752716 0.849792 0.005493
0.781738 0.850403 0.006866
0.809692 0.850830 0.007721
0.836517 0.851257 0.008667
0.862305 0.851654 0.009796
0.886963 0.852264 0.010895
0.910858 0.852692 0.011780
0.933807 0.853088 0.012665
0.955658 0.853607 0.013947
0.976776 0.854065 0.014893
0.997070 0.854523 0.015747
1.000000 0.854919 0.016602
0.000000 0.867371 0.000000
0.049622 0.867859 0.000000
0.090973 0.868286 0.000000
0.130432 0.868713 0.000000
0.169250 0.869263 0.000000
0.207336 0.869720 0.000000
0.245209 0.870087 0.000000
0.283325 0.870483 0.000000
0.321686 0.871033 0.000000
0.360260 0.871460 0.000000
0.398743 0.871887 0.000000
0.437653 0.872375 0.000000
0.476959 0.872833 0.000000
0.516510 0.873260 0.000397
0.554596 0.873657 0.001343
0.591125 0.874237 0.002716
0.626251 0.874634 0.003601
0.659973 0.875000 0.004517
0.692505 0.875458 0.005493
0.723755 0.876007 0.006805
0.753784 0.876434 0.007690
0.782745 0.876801 0.008667
0.810669 0.877228 0.009705
0.837250 0.877808 0.010864
0.863037 0.878204 0.011749
0.887848 0.878571 0.012634
0.911652 0.879150 0.013947
0.934448 0.879578 0.014832
0.956421 0.879944 0.015686
0.977509 0.880341 0.016541
0.997650 0.880920 0.017792
1.000000 0.881317 0.018707
0.000000 0.893158 0.000000
0.050995 0.893585 0.000000
0.092499 0.894135 0.000000
0.131836 0.894531 0.000000
0.170441 0.894928 0.000000
0.208801 0.895294 0.000000
0.246643 0.895844 0.000000
0.284637 0.896271 0.000000
0.322906 0.896637 0.000000
0.361389 0.897125 0.000000
0.399902 0.897552 0.000000
0.438873 0.897980 0.000397
0.478149 0.898376 0.001312
0.517639 0.898926 0.002625
0.555695 0.899323 0.003540
0.592194 0.899689 0.004517
0.627350 0.900085 0.005432
0.661163 0.900574 0.006744
0.693695 0.900970 0.007690
0.724823 0.901398 0.008606
0.754669 0.901794 0.009583
0.783600 0.902344 0.010803
0.811432 0.902710 0.011749
0.838226 0.903107 0.012634
0.863892 0.903534 0.013855
0.888550 0.904083 0.014801
0.912354 0.904480 0.015686
0.935242 0.904816 0.016541
0.957001 0.905334 0.017792
0.978088 0.905731 0.018646
0.998352 0.906097 0.019501
1.000000 0.906494 0.020416
0.001526 0.918030 0.000000
0.052673 0.918427 0.000000
0.093781 0.918854 0.000000
0.133331 0.919220 0.000000
0.171906 0.919739 0.000000
0.209961 0.920105 0.000000
0.247803 0.920471 0.000000
0.286041 0.920868 0.000000
0.324310 0.921387 0.000000
0.362793 0.921753 0.000336
0.401367 0.922180 0.001312
0.440308 0.922607 0.002625
0.479553 0.923065 0.003540
0.519104 0.923401 0.004456
0.557098 0.923828 0.005402
0.593475 0.924316 0.006744
0.628540 0.924713 0.007629
0.662140 0.925079 0.008545
