Final/public/luts/Lut4.CUBE
#Created by: Adobe Photoshop Export Color Lookup Plugin
TITLE "LUT.psd"
#LUT size
LUT_3D_SIZE 8
#data domain
#LUT data points
DOMAIN_MIN 0.000000 0.000000 0.000000
DOMAIN_MAX 0.903226 0.903226 0.903226
0.000000 0.000000 0.000000
0.097809 0.000000 0.000000
0.204834 0.000000 0.000000
0.310516 0.000000 0.000000
0.418365 0.000000 0.000000
0.537170 0.000000 0.000000
0.660004 0.000000 0.000000
0.789215 0.000000 0.000000
0.000000 0.085327 0.000000
0.101593 0.087280 0.000000
0.208405 0.088959 0.000000
0.314026 0.090851 0.000000
0.422119 0.092529 0.000000
0.541199 0.094238 0.000000
0.664032 0.096100 0.000000
0.793610 0.097778 0.000000
0.000000 0.191803 0.000000
0.105438 0.193481 0.000000
0.212006 0.195343 0.000000
0.317627 0.197021 0.000000
0.425873 0.198883 0.000000
0.545227 0.200531 0.000000
0.668121 0.202393 0.000000
0.797943 0.204071 0.000000
0.000000 0.298004 0.000000
0.109253 0.299957 0.000000
0.215607 0.301666 0.000000
0.321167 0.303558 0.000000
0.429596 0.305267 0.000000
0.549225 0.307190 0.000000
0.672150 0.308929 0.000000
0.802307 0.310852 0.000000
0.000000 0.407837 0.000000
0.113037 0.409882 0.000000
0.219177 0.411713 0.000000
0.324554 0.413788 0.000000
0.433350 0.415619 0.000000
0.553192 0.417694 0.000000
0.676239 0.419586 0.000000
0.806824 0.421661 0.000000
0.000000 0.529785 0.000000
0.116791 0.532043 0.000000
0.222748 0.534119 0.000000
0.328064 0.536469 0.000000
0.437134 0.538483 0.000000
0.557190 0.540771 0.000000
0.680054 0.542816 0.001160
0.811340 0.545135 0.004364
0.000000 0.657837 0.000000
0.120514 0.660126 0.000000
0.226318 0.662292 0.000000
0.331604 0.664642 0.000000
0.440887 0.666718 0.001068
0.560944 0.669128 0.004242
0.684113 0.671234 0.007111
0.815979 0.673645 0.010162
0.002655 0.793915 0.000000
0.124268 0.796295 0.000000
0.229858 0.798920 0.000977
0.335114 0.801331 0.004150
0.444489 0.803986 0.006958
0.564972 0.806396 0.010101
0.688202 0.809082 0.012726
0.820526 0.811554 0.015717
0.000000 0.000000 0.091309
0.098694 0.000000 0.093079
0.205505 0.000000 0.095093
0.311157 0.000000 0.096893
0.419067 0.000000 0.098877
0.537933 0.000000 0.100677
0.660797 0.000000 0.102631
0.790070 0.000000 0.104462
0.000000 0.085999 0.095001
0.102539 0.087921 0.096832
0.209106 0.089600 0.098816
0.314728 0.091492 0.100616
0.422821 0.093140 0.102600
0.541931 0.095032 0.104370
0.664825 0.096741 0.106354
0.794495 0.098633 0.108124
0.000000 0.192474 0.098755
0.106384 0.194092 0.100555
0.212677 0.195984 0.102539
0.318237 0.197662 0.104309
0.426514 0.199493 0.106262
0.545990 0.201141 0.108063
0.668884 0.203033 0.110016
0.798920 0.204712 0.111786
0.000000 0.298859 0.102478
0.110168 0.300568 0.104248
0.216278 0.302521 0.106232
0.321777 0.304230 0.108002
0.430298 0.306152 0.109985
0.549988 0.307892 0.111725
0.672913 0.309753 0.113678
0.803436 0.311493 0.115448
0.000000 0.408539 0.106140
0.113953 0.410583 0.107910
0.219818 0.412415 0.109894
0.325348 0.414520 0.111633
0.434052 0.416382 0.113617
0.553894 0.418396 0.115356
0.677002 0.420258 0.117249
0.807648 0.422363 0.119049
0.000000 0.530823 0.109833
0.117706 0.532867 0.111603
0.223389 0.535004 0.113556
0.328918 0.537201 0.115326
0.437805 0.539368 0.117126
0.557983 0.541595 0.119019
0.681061 0.543793 0.120819
0.812164 0.545959 0.122742
0.000000 0.658844 0.113495
0.121429 0.660950 0.115234
0.226929 0.663269 0.117004
0.332458 0.665436 0.118927
0.441589 0.667847 0.120697
0.561981 0.669922 0.122650
0.684937 0.672363 0.124390
0.816742 0.674438 0.126312
0.004150 0.794830 0.116943
0.125153 0.797211 0.118866
0.230499 0.799866 0.120605
0.335785 0.802246 0.122559
0.445404 0.804901 0.124329
0.565918 0.807343 0.126251
0.688995 0.809998 0.127991
0.821381 0.812469 0.129913
0.000000 0.000000 0.196411
0.099396 0.000000 0.198120
0.206390 0.000000 0.200012
0.311798 0.000000 0.201721
0.419769 0.000000 0.203613
0.538696 0.000000 0.205383
0.661469 0.000000 0.207275
0.790833 0.000000 0.208954
0.000000 0.086700 0.199921
0.103241 0.088562 0.201691
0.209961 0.090240 0.203552
0.315338 0.092133 0.205292
0.423492 0.093811 0.207184
0.542664 0.095703 0.208862
0.665527 0.097382 0.210785
0.795258 0.099274 0.212463
0.000000 0.193085 0.203491
0.107056 0.194794 0.205200
0.213531 0.196625 0.207092
0.318909 0.198273 0.208801
0.427216 0.200165 0.210693
0.546692 0.201813 0.212433
0.669556 0.203674 0.214325
0.799774 0.205383 0.216034
0.000000 0.299530 0.207031
0.110870 0.301239 0.208740
0.217041 0.303192 0.210663
0.322449 0.304901 0.212372
0.430969 0.306824 0.214264
0.550690 0.308502 0.216003
0.673645 0.310455 0.217865
0.804291 0.312134 0.219604
0.000000 0.409454 0.210602
0.114655 0.411285 0.212280
0.220581 0.413361 0.214203
0.326019 0.415192 0.215912
0.434753 0.417267 0.217804
0.554688 0.419128 0.219513
0.677734 0.421204 0.221405
0.808746 0.423096 0.223083
0.000000 0.531616 0.214142
0.118378 0.533630 0.215851
0.224030 0.535919 0.217743
0.329559 0.537994 0.219452
0.438507 0.540314 0.221344
0.558716 0.542358 0.223053
0.681793 0.544617 0.224976
0.813232 0.546722 0.226624
0.000000 0.659637 0.217682
0.122131 0.661774 0.219360
0.227600 0.664154 0.221252
0.333130 0.666260 0.222961
0.442322 0.668640 0.224884
0.562683 0.670746 0.226562
0.685852 0.673126 0.228516
0.817566 0.675262 0.230164
0.005310 0.795715 0.221222
0.125824 0.798370 0.222931
0.231171 0.800751 0.224823
0.336639 0.803436 0.226532
0.446075 0.805878 0.228424
0.566681 0.808533 0.230103
0.689941 0.810913 0.231995
0.822205 0.813690 0.233704
0.000000 0.000000 0.300476
0.100128 0.000000 0.302338
0.207001 0.000000 0.304108
0.312439 0.000000 0.305969
0.420563 0.000000 0.307739
0.539642 0.000000 0.309509
0.662231 0.000000 0.311401
0.791656 0.000000 0.313110
0.000000 0.087524 0.304047
0.103943 0.089203 0.305817
0.210602 0.091095 0.307709
0.316040 0.092773 0.309418
0.424164 0.094666 0.311310
0.543427 0.096344 0.313049
0.666290 0.098053 0.314911
0.796143 0.099915 0.316620
0.000000 0.193726 0.307648
0.107788 0.195587 0.309357
0.214172 0.197266 0.311249
0.319550 0.199127 0.312958
0.427917 0.200775 0.314880
0.547394 0.202606 0.316559
0.670319 0.204315 0.318512
0.800568 0.206146 0.320221
0.000000 0.300201 0.311188
0.111511 0.301910 0.312897
0.217743 0.303802 0.314819
0.323090 0.305542 0.316498
0.431641 0.307465 0.318420
0.551422 0.309174 0.320160
0.674377 0.311096 0.322052
0.805084 0.312836 0.323792
0.000000 0.410156 0.314758
0.115326 0.412018 0.316437
0.221344 0.414093 0.318359
0.326660 0.415924 0.320099
0.435425 0.417999 0.321991
0.555450 0.419861 0.323761
0.678497 0.421906 0.325653
0.809570 0.423798 0.327332
0.000000 0.532410 0.318329
0.119049 0.534454 0.320038
0.224884 0.536774 0.321930
0.330170 0.538818 0.323669
0.439209 0.541077 0.325562
0.559418 0.543121 0.327271
0.682556 0.545410 0.329224
0.814087 0.547455 0.330902
0.000183 0.660461 0.321869
0.122803 0.662659 0.323608
0.228455 0.664917 0.325531
0.333771 0.667236 0.327209
0.442993 0.669434 0.329163
0.563416 0.671814 0.330841
0.686615 0.673920 0.332764
0.818726 0.676331 0.334473
0.006439 0.796600 0.325470
0.126495 0.799316 0.327179
0.231995 0.801666 0.329102
0.337280 0.804321 0.330811
0.446808 0.806763 0.332733
0.567383 0.809448 0.334442
0.690674 0.811859 0.336334
0.823059 0.814606 0.338043
0.000000 0.000000 0.407013
0.100830 0.000000 0.408997
0.207672 0.000000 0.410797
0.313110 0.000000 0.412720
0.421356 0.000000 0.414612
0.540375 0.000000 0.416473
0.663208 0.000000 0.418427
0.792480 0.000000 0.420258
0.000000 0.088135 0.410736
0.104645 0.089844 0.412628
0.211273 0.091705 0.414551
0.316650 0.093414 0.416382
0.425079 0.095306 0.418365
0.544403 0.096985 0.420197
0.667236 0.098877 0.422211
0.796906 0.100555 0.424042
0.000000 0.194336 0.414490
0.108459 0.196198 0.416321
0.214844 0.197876 0.418304
0.320221 0.199738 0.420135
0.428741 0.201416 0.422150
0.548431 0.203308 0.423981
0.671082 0.204956 0.426025
0.801361 0.206818 0.427856
0.000000 0.300842 0.418243
0.112274 0.302734 0.420044
0.218414 0.304443 0.422089
0.323761 0.306396 0.423889
0.432373 0.308105 0.425964
0.552155 0.309998 0.427765
0.675110 0.311737 0.429810
0.805908 0.313660 0.431641
0.000000 0.410828 0.421997
0.115997 0.412903 0.423828
0.221985 0.414764 0.425873
0.327271 0.416809 0.427704
0.436127 0.418701 0.429749
0.556152 0.420776 0.431549
0.679230 0.422638 0.433624
0.810425 0.424683 0.435486
0.000000 0.533173 0.425812
0.119751 0.535431 0.427643
0.225555 0.537476 0.429688
0.330841 0.539795 0.431488
0.439911 0.541870 0.433563
0.560120 0.544159 0.435425
0.683289 0.546234 0.437469
0.814941 0.548523 0.439331
0.001343 0.661285 0.429626
0.123444 0.663605 0.431458
0.229095 0.665771 0.433502
0.334381 0.668121 0.435364
0.443665 0.670197 0.437378
0.564148 0.672607 0.439240
0.687317 0.674713 0.441345
0.819550 0.677124 0.443176
0.007538 0.797577 0.433472
0.127167 0.800171 0.435303
0.232666 0.802551 0.437317
0.337921 0.805237 0.439178
0.447510 0.807648 0.441284
0.568085 0.810364 0.443146
0.691437 0.812897 0.445160
0.824158 0.815491 0.447052
0.000000 0.000000 0.524231
0.101532 0.000000 0.526428
0.208344 0.000000 0.528412
0.313965 0.000000 0.530518
0.421997 0.000000 0.532562
0.541107 0.000000 0.534576
0.663971 0.000000 0.536804
0.793549 0.000000 0.538788
0.000000 0.088776 0.528320
0.105347 0.090576 0.530304
0.211945 0.092377 0.532532
0.317535 0.094055 0.534485
0.425751 0.095947 0.536682
0.545105 0.097595 0.538696
0.668030 0.099518 0.540863
0.797729 0.101166 0.542816
0.000000 0.195190 0.532471
0.109161 0.196838 0.534424
0.215515 0.198700 0.536652
0.320953 0.200378 0.538574
0.429504 0.202118 0.540802
0.549103 0.203918 0.542755
0.672089 0.205566 0.544952
0.802185 0.207458 0.546936
0.000000 0.301483 0.536591
0.112946 0.303375 0.538513
0.219086 0.305145 0.540741
0.324402 0.307068 0.542694
0.433228 0.308746 0.544891
0.553101 0.310699 0.546844
0.676117 0.312408 0.549072
0.806671 0.314362 0.551086
0.000000 0.411560 0.540649
0.116699 0.413605 0.542633
0.222626 0.415466 0.544769
0.327942 0.417542 0.546783
0.437042 0.419403 0.549011
0.557068 0.421509 0.550964
0.679932 0.423309 0.553192
0.811249 0.425415 0.555145
0.000000 0.533936 0.544739
0.120422 0.536224 0.546722
0.226196 0.538300 0.548950
0.331482 0.540588 0.550903
0.440674 0.542633 0.553131
0.560883 0.544922 0.555084
0.684021 0.546997 0.557251
0.815796 0.549286 0.559265
0.002502 0.662048 0.548889
0.124176 0.664429 0.550812
0.229767 0.666534 0.553040
0.335022 0.668945 0.555023
0.444397 0.671082 0.557190
0.564819 0.673370 0.559174
0.688049 0.675568 0.561279
0.820374 0.677948 0.563324
0.008789 0.798767 0.552979
0.127838 0.801086 0.554932
0.233307 0.803772 0.557068
0.338531 0.806183 0.559113
0.448181 0.808868 0.561127
0.568817 0.811249 0.563293
0.692169 0.814026 0.565216
0.824951 0.816467 0.567444
0.000000 0.000000 0.646698
0.102448 0.000000 0.648651
0.209015 0.000000 0.650940
0.314636 0.000000 0.652954
0.422729 0.000000 0.655212
0.541870 0.000000 0.657166
0.664703 0.000000 0.659454
0.794403 0.000000 0.661438
0.000000 0.089417 0.650879
0.106232 0.091339 0.652863
0.212616 0.092987 0.655090
0.318146 0.094910 0.657104
0.426422 0.096588 0.659393
0.545837 0.098389 0.661346
0.668732 0.100128 0.663605
0.798798 0.101807 0.665588
0.000000 0.195831 0.655029
0.110077 0.197479 0.657013
0.216156 0.199341 0.659302
0.321686 0.200989 0.661285
0.430176 0.202911 0.663513
0.549835 0.204529 0.665527
0.672760 0.206421 0.667816
0.803223 0.208069 0.669800
0.000000 0.302246 0.659210
0.113831 0.304077 0.661224
0.219727 0.305847 0.663452
0.325256 0.307709 0.665466
0.433929 0.309448 0.667755
0.553833 0.311371 0.669678
0.676849 0.313080 0.671936
0.807556 0.314972 0.674011
0.000000 0.412262 0.663361
0.117584 0.414307 0.665405
0.223297 0.416168 0.667664
0.328796 0.418243 0.669647
0.437714 0.420105 0.671906
0.557861 0.422180 0.673889
0.680969 0.424042 0.676147
0.812042 0.426147 0.678192
0.000000 0.534729 0.667542
0.121338 0.537018 0.669556
0.226868 0.539032 0.671844
0.332336 0.541382 0.673859
0.441498 0.543427 0.675964
0.561859 0.545746 0.678101
0.684753 0.547760 0.680115
0.816650 0.550079 0.682404
0.003967 0.663116 0.671783
0.125031 0.665222 0.673798
0.230408 0.667633 0.675842
0.335693 0.669708 0.678070
0.445282 0.672119 0.680054
0.565826 0.674225 0.682281
0.688812 0.676605 0.684296
0.821198 0.678772 0.686615
0.010101 0.799652 0.675659
0.128693 0.802032 0.677979
0.233978 0.804657 0.679962
0.339233 0.807098 0.682251
0.448853 0.809784 0.684265
0.569519 0.812164 0.686523
0.692902 0.814911 0.688538
0.825806 0.817352 0.690796
0.000000 0.000000 0.774872
0.103149 0.000000 0.777039
0.209839 0.000000 0.779480
0.315247 0.000000 0.781708
0.423370 0.000000 0.784119
0.542603 0.000000 0.786346
0.665436 0.000000 0.788727
0.795227 0.000000 0.790985
0.000000 0.090088 0.779388
0.106964 0.091949 0.781616
0.213409 0.093658 0.784027
0.318817 0.095520 0.786255
0.427124 0.097229 0.788696
0.546600 0.099091 0.790894
0.669495 0.100769 0.793335
0.799652 0.102692 0.795593
0.000000 0.196472 0.783966
0.110748 0.198120 0.786163
0.216858 0.199982 0.788605
0.322357 0.201630 0.790802
0.430878 0.203491 0.793304
0.550568 0.205200 0.795471
0.673553 0.207031 0.797729
0.804108 0.208710 0.800201
0.000000 0.303009 0.788513
0.114532 0.304718 0.790710
0.220398 0.306641 0.793213
0.325928 0.308350 0.795410
0.434631 0.310272 0.797699
0.554626 0.312012 0.800110
0.677612 0.313934 0.802338
0.808624 0.315643 0.804871
0.000000 0.413177 0.793091
0.118286 0.415009 0.795349
0.223938 0.417114 0.797577
0.329468 0.418945 0.800018
0.438416 0.421051 0.802307
0.558563 0.422913 0.804840
0.681671 0.424988 0.807007
0.813019 0.426849 0.809570
0.000000 0.535736 0.797455
0.122009 0.537811 0.799988
0.227509 0.540100 0.802185
0.333008 0.542175 0.804657
0.442200 0.544464 0.806946
0.562592 0.546509 0.809509
0.685760 0.548828 0.811737
0.817444 0.550842 0.814270
0.005157 0.663940 0.802124
0.125702 0.666046 0.804626
0.231079 0.668396 0.806854
0.336548 0.670532 0.809418
0.445984 0.672882 0.811646
0.566589 0.675079 0.814240
0.689758 0.677399 0.816528
0.822021 0.679596 0.819061
0.011200 0.800537 0.806824
0.129364 0.803070 0.809326
0.234589 0.805634 0.811584
0.340088 0.808319 0.814148
0.449799 0.810760 0.816437
0.570526 0.813477 0.818939
0.693634 0.815887 0.821198
0.826630 0.818604 0.823883
