Final/public/luts/Lut4.CUBE
#Created by: Adobe Photoshop Export Color Lookup Plugin
TITLE "LUT.psd"
#LUT size
LUT_3D_SIZE 32
#data domain
DOMAIN_MIN 0.0 0.0 0.0
DOMAIN_MAX 1.0 1.0 1.0
#LUT data points
0.000000 0.000000 0.000000
0.001801 0.000000 0.000000
0.039490 0.000000 0.000000
0.069458 0.000000 0.000000
0.097809 0.000000 0.000000
0.125244 0.000000 0.000000
0.151947 0.000000 0.000000
0.178406 0.000000 0.000000
0.204834 0.000000 0.000000
0.231262 0.000000 0.000000
0.257690 0.000000 0.000000
0.284058 0.000000 0.000000
0.310516 0.000000 0.000000
0.337128 0.000000 0.000000
0.363739 0.000000 0.000000
0.390686 0.000000 0.000000
0.418365 0.000000 0.000000
0.446930 0.000000 0.000000
0.476318 0.000000 0.000000
0.506622 0.000000 0.000000
0.537170 0.000000 0.000000
0.567780 0.000000 0.000000
0.598419 0.000000 0.000000
0.629120 0.000000 0.000000
0.660004 0.000000 0.000000
0.691315 0.000000 0.000000
0.723175 0.000000 0.000000
0.755737 0.000000 0.000000
0.789215 0.000000 0.000000
0.824219 0.000000 0.000000
0.861450 0.000000 0.000000
0.902161 0.000000 0.000000
0.000000 0.000000 0.000000
0.003571 0.000000 0.000000
0.040497 0.000000 0.000000
0.070374 0.000000 0.000000
0.098907 0.000000 0.000000
0.126129 0.000000 0.000000
0.152740 0.000000 0.000000
0.179230 0.000000 0.000000
0.205658 0.000000 0.000000
0.232330 0.000000 0.000000
0.258514 0.000000 0.000000
0.284882 0.000000 0.000000
0.311340 0.000000 0.000000
0.337952 0.000000 0.000000
0.364594 0.000000 0.000000
0.391541 0.000000 0.000000
0.419250 0.000000 0.000000
0.447815 0.000000 0.000000
0.477264 0.000092 0.000000
0.507599 0.000763 0.000000
0.538147 0.001404 0.000000
0.568695 0.002045 0.000000
0.599365 0.002655 0.000000
0.630035 0.003662 0.000000
0.660950 0.004333 0.000000
0.692261 0.004913 0.000000
0.724182 0.005585 0.000000
0.756714 0.006256 0.000000
0.790283 0.006866 0.000000
0.825348 0.007507 0.000000
0.862640 0.008087 0.000000
0.903473 0.008942 0.000000
0.000000 0.027771 0.000000
0.005157 0.028290 0.000000
0.041534 0.028809 0.000000
0.071564 0.029266 0.000000
0.099823 0.029846 0.000000
0.127045 0.030487 0.000000
0.153625 0.030945 0.000000
0.180267 0.031433 0.000000
0.206726 0.031891 0.000000
0.233154 0.032349 0.000000
0.259338 0.032837 0.000000
0.285675 0.033325 0.000000
0.312134 0.033813 0.000000
0.338776 0.034485 0.000000
0.365417 0.034943 0.000000
0.392395 0.035461 0.000000
0.420135 0.035919 0.000000
0.448700 0.036407 0.000000
0.478241 0.036865 0.000000
0.508606 0.037292 0.000000
0.539062 0.037781 0.000000
0.569641 0.038239 0.000000
0.600311 0.038879 0.000000
0.630951 0.039429 0.000000
0.661865 0.039886 0.000000
0.693207 0.040344 0.000000
0.725128 0.040802 0.000000
0.757721 0.041260 0.000000
0.791321 0.041748 0.000000
0.826416 0.042206 0.000000
0.863770 0.042633 0.000000
0.904816 0.043335 0.000000
0.000000 0.057678 0.000000
0.006714 0.058136 0.000000
0.042633 0.058563 0.000000
0.072479 0.058990 0.000000
0.100708 0.059631 0.000000
0.127899 0.060059 0.000000
0.154694 0.060516 0.000000
0.181152 0.060944 0.000000
0.207581 0.061371 0.000000
0.233978 0.061829 0.000000
0.260223 0.062256 0.000000
0.286530 0.062683 0.000000
0.312988 0.063141 0.000000
0.339752 0.063782 0.000000
0.366486 0.064209 0.000000
0.393463 0.064667 0.000000
0.421234 0.065094 0.000000
0.449860 0.065521 0.000000
0.479340 0.065948 0.000000
0.509705 0.066406 0.000000
0.540253 0.066833 0.000000
0.570831 0.067352 0.000000
0.601532 0.067841 0.000000
0.632172 0.068298 0.000000
0.663116 0.068726 0.000000
0.694397 0.069214 0.000000
0.726349 0.069611 0.000000
0.758698 0.070038 0.000000
0.792358 0.070465 0.000000
0.827515 0.070892 0.000000
0.864990 0.071564 0.000000
0.906158 0.071960 0.000000
0.000000 0.085327 0.000000
0.008240 0.085785 0.000000
0.043976 0.086212 0.000000
0.073486 0.086670 0.000000
0.101593 0.087280 0.000000
0.128998 0.087677 0.000000
0.155579 0.088074 0.000000
0.182007 0.088501 0.000000
0.208405 0.088959 0.000000
0.234833 0.089355 0.000000
0.261078 0.089783 0.000000
0.287567 0.090210 0.000000
0.314026 0.090851 0.000000
0.340668 0.091278 0.000000
0.367310 0.091675 0.000000
0.394287 0.092072 0.000000
0.422119 0.092529 0.000000
0.450714 0.092926 0.000000
0.480255 0.093353 0.000000
0.510681 0.093781 0.000000
0.541199 0.094238 0.000000
0.571808 0.094849 0.000000
0.602448 0.095245 0.000000
0.633118 0.095673 0.000000
0.664032 0.096100 0.000000
0.695404 0.096497 0.000000
0.727325 0.096924 0.000000
0.759979 0.097321 0.000000
0.793610 0.097778 0.000000
0.828857 0.098267 0.000000
0.866211 0.098846 0.000000
0.907440 0.099274 0.000000
0.000000 0.112335 0.000000
0.010040 0.112732 0.000000
0.045013 0.113220 0.000000
0.074463 0.113770 0.000000
0.102753 0.114197 0.000000
0.129883 0.114594 0.000000
0.156433 0.115021 0.000000
0.182892 0.115448 0.000000
0.209290 0.115845 0.000000
0.235870 0.116272 0.000000
0.262115 0.116669 0.000000
0.288422 0.117188 0.000000
0.314880 0.117706 0.000000
0.341522 0.118134 0.000000
0.368134 0.118561 0.000000
0.395142 0.118988 0.000000
0.423004 0.119385 0.000000
0.451660 0.119781 0.000000
0.481201 0.120209 0.000000
0.511597 0.120636 0.000000
0.542175 0.121277 0.000000
0.572723 0.121674 0.000000
0.603394 0.122070 0.000000
0.634064 0.122467 0.000000
0.665009 0.122925 0.000000
0.696381 0.123322 0.000000
0.728302 0.123749 0.000000
0.760956 0.124176 0.000000
0.794708 0.124695 0.000000
0.829987 0.125183 0.000000
0.867645 0.125610 0.000000
0.909180 0.126038 0.000000
0.000000 0.138947 0.000000
0.011444 0.139374 0.000000
0.046021 0.139984 0.000000
0.075623 0.140411 0.000000
0.103668 0.140808 0.000000
0.130737 0.141235 0.000000
0.157288 0.141632 0.000000
0.183929 0.142029 0.000000
0.210327 0.142426 0.000000
0.236725 0.142853 0.000000
0.262909 0.143463 0.000000
0.289246 0.143890 0.000000
0.315735 0.144348 0.000000
0.342346 0.144745 0.000000
0.368988 0.145142 0.000000
0.395996 0.145538 0.000000
0.423889 0.145966 0.000000
0.452545 0.146362 0.000000
0.482147 0.146912 0.000000
0.512543 0.147430 0.000000
0.543091 0.147858 0.000000
0.573669 0.148224 0.000000
0.604340 0.148682 0.000000
0.634979 0.149048 0.000000
0.665985 0.149475 0.000000
0.697357 0.149902 0.000000
0.729309 0.150299 0.000000
0.761993 0.150940 0.000000
0.795715 0.151337 0.000000
0.831085 0.151733 0.000000
0.868805 0.152161 0.000000
0.910461 0.152557 0.000000
0.000000 0.165497 0.000000
0.012939 0.165924 0.000000
0.047180 0.166351 0.000000
0.076538 0.166779 0.000000
0.104553 0.167175 0.000000
0.131653 0.167603 0.000000
0.158356 0.167999 0.000000
0.184784 0.168427 0.000000
0.211182 0.168884 0.000000
0.237579 0.169434 0.000000
0.263794 0.169891 0.000000
0.290100 0.170258 0.000000
0.316528 0.170685 0.000000
0.343170 0.171112 0.000000
0.369812 0.171509 0.000000
0.397064 0.171967 0.000000
0.424957 0.172363 0.000000
0.453705 0.172882 0.000000
0.483276 0.173370 0.000000
0.513702 0.173798 0.000000
0.544312 0.174255 0.000000
0.574829 0.174622 0.000000
0.605499 0.175049 0.000000
0.636200 0.175415 0.000000
0.667023 0.175873 0.000000
0.698303 0.176331 0.000000
0.730286 0.176880 0.000000
0.763000 0.177307 0.000000
0.796783 0.177704 0.000000
0.832184 0.178131 0.000000
0.870056 0.178528 0.000000
0.911835 0.178955 0.000000
0.000000 0.191803 0.000000
0.014374 0.192261 0.000000
0.048309 0.192657 0.000000
0.077515 0.193085 0.000000
0.105438 0.193481 0.000000
0.132721 0.193848 0.000000
0.159241 0.194336 0.000000
0.185638 0.194794 0.000000
0.212006 0.195343 0.000000
0.238403 0.195709 0.000000
0.264618 0.196198 0.000000
0.291138 0.196564 0.000000
0.317627 0.197021 0.000000
0.344238 0.197418 0.000000
0.370911 0.197845 0.000000
0.397980 0.198242 0.000000
0.425873 0.198883 0.000000
0.454590 0.199280 0.000000
0.484222 0.199707 0.000000
0.514709 0.200134 0.000000
0.545227 0.200531 0.000000
0.575775 0.200958 0.000000
0.606445 0.201355 0.000000
0.637115 0.201813 0.000000
0.668121 0.202393 0.000000
0.699524 0.202820 0.000000
0.731506 0.203217 0.000000
0.764313 0.203644 0.000000
0.797943 0.204071 0.000000
0.833344 0.204498 0.000000
0.871246 0.204895 0.000000
0.913208 0.205322 0.000000
0.000000 0.218140 0.000000
0.016083 0.218536 0.000000
0.049408 0.218964 0.000000
0.078491 0.219360 0.000000
0.106567 0.219818 0.000000
0.133606 0.220215 0.000000
0.160126 0.220825 0.000000
0.186523 0.221252 0.000000
0.212891 0.221680 0.000000
0.239471 0.222076 0.000000
0.265656 0.222504 0.000000
0.292023 0.222931 0.000000
0.318451 0.223358 0.000000
0.345123 0.223755 0.000000
0.371765 0.224182 0.000000
0.398865 0.224792 0.000000
0.426758 0.225220 0.000000
0.455505 0.225616 0.000000
0.485168 0.226044 0.000000
0.515656 0.226501 0.000000
0.546234 0.226898 0.000000
0.576752 0.227325 0.000000
0.607391 0.227722 0.000000
0.638123 0.228363 0.000000
0.669098 0.228760 0.000000
0.700500 0.229218 0.000000
0.732513 0.229645 0.000000
0.765320 0.230042 0.000000
0.799225 0.230469 0.000000
0.834717 0.230865 0.000000
0.872742 0.231293 0.000000
0.914612 0.231873 0.000000
0.000000 0.244659 0.000000
0.017395 0.245056 0.000000
0.050354 0.245514 0.000000
0.079651 0.245911 0.000000
0.107483 0.246338 0.000000
0.134460 0.246979 0.000000
0.160950 0.247375 0.000000
0.187378 0.247833 0.000000
0.213928 0.248199 0.000000
0.240295 0.248627 0.000000
0.266479 0.249054 0.000000
0.292847 0.249512 0.000000
0.319305 0.249908 0.000000
0.345947 0.250519 0.000000
0.372559 0.250977 0.000000
0.399689 0.251373 0.000000
0.427643 0.251801 0.000000
0.456421 0.252197 0.000000
0.486115 0.252625 0.000000
0.516571 0.253052 0.000000
0.547089 0.253479 0.000000
0.577667 0.254120 0.000000
0.608307 0.254517 0.000000
0.639069 0.254944 0.000000
0.670044 0.255371 0.000000
0.701477 0.255798 0.000000
0.733490 0.256226 0.000000
0.766296 0.256653 0.000000
0.800232 0.257050 0.000000
0.835815 0.257690 0.000000
0.873932 0.258087 0.000000
0.916290 0.258545 0.000000
0.000000 0.271301 0.000000
0.018768 0.271698 0.000000
0.051605 0.272125 0.000000
0.080536 0.272736 0.000000
0.108368 0.273163 0.000000
0.135345 0.273590 0.000000
0.162048 0.274017 0.000000
0.188385 0.274475 0.000000
0.214752 0.274872 0.000000
0.241119 0.275299 0.000000
0.267334 0.275726 0.000000
0.293671 0.276337 0.000000
0.320129 0.276764 0.000000
0.346771 0.277191 0.000000
0.373444 0.277618 0.000000
0.400543 0.278046 0.000000
0.428497 0.278442 0.000000
0.457550 0.278900 0.000000
0.487274 0.279327 0.000000
0.517700 0.279755 0.000000
0.548309 0.280396 0.000000
0.578674 0.280792 0.000000
0.609375 0.281219 0.000000
0.639984 0.281647 0.000000
0.670990 0.282074 0.000000
0.702454 0.282501 0.000000
0.734497 0.282928 0.000000
0.767365 0.283386 0.000000
0.801300 0.284027 0.000000
0.836914 0.284424 0.000000
0.875153 0.284851 0.000000
0.917603 0.285278 0.000000
0.000000 0.298004 0.000000
0.020355 0.298553 0.000000
0.052612 0.299072 0.000000
0.081482 0.299500 0.000000
0.109253 0.299957 0.000000
0.136444 0.300354 0.000000
0.162903 0.300781 0.000000
0.189240 0.301239 0.000000
0.215607 0.301666 0.000000
0.241974 0.302094 0.000000
0.268188 0.302734 0.000000
0.294525 0.303162 0.000000
0.321167 0.303558 0.000000
0.347809 0.303986 0.000000
0.374481 0.304413 0.000000
0.401642 0.304840 0.000000
0.429596 0.305267 0.000000
0.458435 0.305695 0.000000
0.488190 0.306305 0.000000
0.518738 0.306763 0.000000
0.549225 0.307190 0.000000
0.579773 0.307617 0.000000
0.610443 0.308044 0.000000
0.641205 0.308472 0.000000
0.672150 0.308929 0.000000
0.703644 0.309387 0.000000
0.735687 0.309998 0.000000
0.768402 0.310425 0.000000
0.802307 0.310852 0.000000
0.838074 0.311279 0.000000
0.876343 0.311707 0.000000
0.919006 0.312134 0.000000
0.000000 0.325104 0.000000
0.021759 0.325531 0.000000
0.053680 0.325989 0.000000
0.082458 0.326416 0.000000
0.110352 0.326843 0.000000
0.137329 0.327240 0.000000
0.163757 0.327698 0.000000
0.190125 0.328156 0.000000
0.216461 0.328796 0.000000
0.242950 0.329254 0.000000
0.269226 0.329620 0.000000
0.295563 0.330078 0.000000
0.322021 0.330505 0.000000
0.348633 0.330963 0.000000
0.375336 0.331390 0.000000
0.402527 0.331818 0.000000
0.430511 0.332428 0.000000
0.459381 0.332886 0.000000
0.489136 0.333313 0.000000
0.519623 0.333740 0.000000
0.550171 0.334167 0.000000
0.580719 0.334595 0.000000
0.611359 0.335022 0.000000
0.642120 0.335480 0.000000
0.673126 0.336029 0.000000
0.704620 0.336548 0.000000
0.736694 0.336975 0.000000
0.769623 0.337433 0.000000
0.803680 0.337830 0.000000
0.839447 0.338287 0.000000
0.877563 0.338715 0.000000
0.920349 0.339172 0.000000
0.000000 0.352264 0.000000
0.022949 0.352722 0.000000
0.054626 0.353149 0.000000
0.083618 0.353607 0.000000
0.111267 0.354034 0.000000
0.138153 0.354431 0.000000
0.164642 0.355103 0.000000
0.190979 0.355560 0.000000
0.217529 0.355988 0.000000
0.243835 0.356445 0.000000
0.270050 0.356873 0.000000
0.296356 0.357300 0.000000
0.322876 0.357727 0.000000
0.349518 0.358185 0.000000
0.376160 0.358826 0.000000
0.403351 0.359253 0.000000
0.431366 0.359680 0.000000
0.460266 0.360138 0.000000
0.490082 0.360535 0.000000
0.520599 0.360962 0.000000
0.551147 0.361420 0.000000
0.581665 0.361847 0.000000
0.612305 0.362427 0.000000
0.643036 0.362946 0.000000
0.674072 0.363403 0.000000
0.705566 0.363831 0.000000
0.737701 0.364288 0.000000
0.770660 0.364746 0.000000
0.804749 0.365173 0.000000
0.840607 0.365570 0.000000
0.879059 0.366150 0.000000
0.922150 0.366669 0.000000
0.000000 0.379730 0.000000
0.024200 0.380157 0.000000
0.055817 0.380646 0.000000
0.084503 0.381042 0.000000
0.112183 0.381714 0.000000
0.139038 0.382141 0.000000
0.165619 0.382599 0.000000
0.191986 0.383057 0.000000
0.218353 0.383514 0.000000
0.244720 0.383942 0.000000
0.270874 0.384369 0.000000
0.297180 0.384857 0.000000
0.323700 0.385498 0.000000
0.350342 0.385956 0.000000
0.376984 0.386383 0.000000
0.404236 0.386841 0.000000
0.432281 0.387299 0.000000
0.461182 0.387695 0.000000
0.491028 0.388153 0.000000
0.521515 0.388611 0.000000
0.552032 0.389130 0.000000
0.582581 0.389740 0.000000
0.613281 0.390167 0.000000
0.644012 0.390625 0.000000
0.675018 0.391022 0.000000
0.706482 0.391510 0.000000
0.738678 0.391968 0.000000
0.771667 0.392456 0.000000
0.805786 0.392914 0.000000
0.841736 0.393555 0.000000
0.880310 0.393982 0.000000
0.923523 0.394440 0.000000
0.000000 0.407837 0.000000
0.025726 0.408325 0.000000
0.056824 0.408966 0.000000
0.085419 0.409454 0.000000
0.113037 0.409882 0.000000
0.140137 0.410339 0.000000
0.166534 0.410797 0.000000
0.192841 0.411285 0.000000
0.219177 0.411713 0.000000
0.245544 0.412170 0.000000
0.271729 0.412811 0.000000
0.298035 0.413330 0.000000
0.324554 0.413788 0.000000
0.351349 0.414246 0.000000
0.378082 0.414734 0.000000
0.405304 0.415192 0.000000
0.433350 0.415619 0.000000
0.462311 0.416077 0.000000
0.492249 0.416718 0.000000
0.522736 0.417236 0.000000
0.553192 0.417694 0.000000
0.583771 0.418182 0.000000
0.614441 0.418640 0.000000
0.645203 0.419098 0.000000
0.676239 0.419586 0.000000
0.707489 0.420013 0.000000
0.739685 0.420654 0.000000
0.772644 0.421173 0.000000
0.806824 0.421661 0.000000
0.842834 0.422119 0.000000
0.881531 0.422607 0.000000
0.924957 0.423065 0.000549
0.000000 0.437012 0.000000
0.026947 0.437469 0.000000
0.057831 0.437958 0.000000
0.086334 0.438416 0.000000
0.114136 0.438904 0.000000
0.140991 0.439392 0.000000
0.167389 0.439880 0.000000
0.193695 0.440338 0.000000
0.220001 0.441040 0.000000
0.246399 0.441528 0.000000
0.272766 0.442017 0.000000
0.299103 0.442474 0.000000
0.325531 0.442963 0.000000
0.352203 0.443420 0.000000
0.378906 0.443909 0.000000
0.406158 0.444366 0.000000
0.434235 0.445099 0.000000
0.463226 0.445557 0.000000
0.493164 0.446014 0.000000
0.523682 0.446533 0.000000
0.554138 0.446991 0.000000
0.584747 0.447479 0.000000
0.615387 0.447937 0.000000
0.646149 0.448425 0.000000
0.677185 0.448944 0.000000
0.708710 0.449646 0.000000
0.740906 0.450134 0.000000
0.773956 0.450592 0.000000
0.808014 0.451080 0.000000
0.843964 0.451599 0.000519
0.882751 0.452057 0.001251
0.926453 0.452545 0.001953
0.000000 0.466949 0.000000
0.028107 0.467438 0.000000
0.058838 0.467957 0.000000
0.087524 0.468414 0.000000
0.115051 0.468933 0.000000
0.141876 0.469452 0.000000
0.168243 0.470032 0.000000
0.194550 0.470642 0.000000
0.221069 0.471130 0.000000
0.247375 0.471649 0.000000
0.273590 0.472107 0.000000
0.299927 0.472626 0.000000
0.326385 0.473145 0.000000
0.353058 0.473633 0.000000
0.379761 0.474304 0.000000
0.407043 0.474854 0.000000
0.435150 0.475342 0.000000
0.464142 0.475830 0.000000
0.494110 0.476318 0.000000
0.524628 0.476837 0.000000
0.555145 0.477356 0.000000
0.585663 0.477814 0.000000
0.616302 0.478516 0.000000
0.647095 0.479065 0.000000
0.678162 0.479553 0.000000
0.709686 0.480072 0.000000
0.741882 0.480560 0.000000
0.774994 0.481079 0.000519
0.809235 0.481567 0.001221
0.845337 0.482056 0.001923
0.884338 0.482788 0.002655
0.928070 0.483276 0.003693
0.000000 0.498077 0.000000
0.029205 0.498596 0.000000
0.059998 0.499084 0.000000
0.088409 0.499603 0.000000
0.115936 0.500366 0.000000
0.142700 0.500854 0.000000
0.169312 0.501373 0.000000
0.195587 0.501862 0.000000
0.221924 0.502411 0.000000
0.248230 0.502930 0.000000
0.274445 0.503479 0.000000
0.300720 0.503998 0.000000
0.327209 0.504700 0.000000
0.353851 0.505219 0.000000
0.380615 0.505707 0.000000
0.407867 0.506256 0.000000
0.436035 0.506744 0.000000
0.465027 0.507294 0.000000
0.494995 0.507782 0.000000
0.525543 0.508301 0.000000
0.556061 0.509033 0.000000
0.586639 0.509521 0.000000
0.617249 0.510040 0.000000
0.648071 0.510559 0.000000
0.679108 0.511108 0.000000
0.710693 0.511627 0.000458
0.742889 0.512146 0.001160
0.775940 0.512634 0.001923
0.810242 0.513367 0.002625
0.846466 0.513885 0.003662
0.885590 0.514435 0.004395
0.929657 0.514923 0.005096
0.000000 0.529785 0.000000
0.030548 0.530304 0.000000
0.060944 0.531097 0.000000
0.089325 0.531555 0.000000
0.116791 0.532043 0.000000
0.143799 0.532593 0.000000
0.170166 0.533112 0.000000
0.196442 0.533600 0.000000
0.222748 0.534119 0.000000
0.249054 0.534668 0.000000
0.275238 0.535400 0.000000
0.301575 0.535919 0.000000
0.328064 0.536469 0.000000
0.354706 0.536957 0.000000
0.381653 0.537445 0.000000
0.408905 0.537964 0.000000
0.437134 0.538483 0.000000
0.466187 0.539001 0.000000
0.496216 0.539764 0.000000
0.526703 0.540253 0.000000
0.557190 0.540771 0.000000
0.587799 0.541260 0.000000
0.618317 0.541809 0.000000
0.649017 0.542328 0.000458
0.680054 0.542816 0.001160
0.711670 0.543365 0.001862
0.743896 0.544098 0.002594
0.777039 0.544617 0.003662
0.811340 0.545135 0.004364
0.847595 0.545685 0.005066
0.886780 0.546204 0.005798
0.931061 0.546692 0.006500
0.000000 0.561768 0.000000
0.031647 0.562286 0.000000
0.061951 0.562775 0.000000
0.090210 0.563293 0.000000
0.117889 0.563751 0.000000
0.144653 0.564270 0.000000
0.170990 0.564819 0.000000
0.197296 0.565369 0.000000
0.223572 0.566101 0.000000
0.249908 0.566650 0.000000
0.276337 0.567139 0.000000
0.302643 0.567657 0.000000
0.329132 0.568146 0.000000
0.355774 0.568665 0.000000
0.382507 0.569183 0.000000
0.409851 0.569763 0.000000
0.438049 0.570465 0.000000
0.467133 0.570984 0.000000
0.497131 0.571503 0.000000
0.527679 0.571960 0.000000
0.558197 0.572510 0.000000
0.588715 0.573029 0.000427
0.619385 0.573547 0.001129
0.650177 0.574066 0.001831
0.681274 0.574829 0.002594
0.712891 0.575348 0.003632
0.745178 0.575867 0.004333
0.778046 0.576355 0.005066
0.812408 0.576874 0.005768
0.848724 0.577393 0.006439
0.888062 0.577942 0.007141
0.932556 0.578430 0.007812
0.000000 0.593475 0.000000
0.032745 0.594025 0.000000
0.062927 0.594482 0.000000
0.091400 0.595001 0.000000
0.118774 0.595520 0.000000
0.145477 0.596069 0.000000
0.171875 0.596832 0.000000
0.198151 0.597351 0.000000
0.224640 0.597900 0.000000
0.250946 0.598419 0.000000
0.277130 0.598877 0.000000
0.303467 0.599426 0.000000
0.329956 0.599945 0.000000
0.356567 0.600525 0.000000
0.383331 0.601257 0.000000
0.410706 0.601776 0.000000
0.438934 0.602295 0.000000
0.468048 0.602753 0.000000
0.498108 0.603302 0.000000
0.528656 0.603790 0.000427
0.559113 0.604340 0.001129
0.589691 0.604919 0.001831
0.620300 0.605621 0.002533
0.651123 0.606110 0.003571
0.682251 0.606628 0.004333
0.713867 0.607147 0.005005
0.746155 0.607697 0.005737
0.779358 0.608215 0.006439
0.813812 0.608765 0.007141
0.850098 0.609375 0.007812
0.889282 0.610016 0.008514
0.933990 0.610535 0.009521
0.000000 0.625488 0.000000
0.033813 0.626038 0.000000
0.064087 0.626526 0.000000
0.092316 0.627289 0.000000
0.119659 0.627838 0.000000
0.146362 0.628357 0.000000
0.172791 0.628876 0.000000
0.199188 0.629364 0.000000
0.225433 0.629883 0.000000
0.251801 0.630463 0.000000
0.277954 0.630951 0.000000
0.304291 0.631744 0.000000
0.330780 0.632263 0.000000
0.357422 0.632782 0.000000
0.384186 0.633301 0.000000
0.411560 0.633820 0.000000
0.439819 0.634338 0.000000
0.468964 0.634857 0.000366
0.499023 0.635406 0.001099
0.529541 0.636169 0.001801
0.560028 0.636688 0.002502
0.590607 0.637146 0.003571
0.621277 0.637726 0.004303
0.652039 0.638245 0.004944
0.683167 0.638794 0.005737
0.714813 0.639313 0.006409
0.747192 0.639832 0.007111
0.780396 0.640533 0.007782
0.814850 0.641113 0.008484
0.851318 0.641632 0.009521
0.890869 0.642181 0.010193
0.935913 0.642700 0.010834
0.000000 0.657837 0.000000
0.035156 0.658569 0.000000
0.065033 0.659149 0.000000
0.093201 0.659637 0.000000
0.120514 0.660126 0.000000
0.147430 0.660675 0.000000
0.173767 0.661194 0.000000
0.200012 0.661713 0.000000
0.226318 0.662292 0.000000
0.252594 0.663025 0.000000
0.278809 0.663574 0.000000
0.305145 0.664093 0.000000
0.331604 0.664642 0.000000
0.358276 0.665161 0.000000
0.385101 0.665741 0.000000
0.412415 0.666168 0.000336
0.440887 0.666718 0.001068
0.470001 0.667511 0.001770
0.500153 0.668030 0.002502
0.530670 0.668610 0.003540
0.560944 0.669128 0.004242
0.591553 0.669647 0.004944
0.622192 0.670166 0.005676
0.652985 0.670715 0.006378
0.684113 0.671234 0.007111
0.715790 0.672058 0.007782
0.748138 0.672607 0.008484
0.781403 0.673096 0.009460
0.815979 0.673645 0.010162
0.852509 0.674133 0.010834
0.892120 0.674683 0.011536
0.937378 0.675232 0.012207
0.000000 0.690704 0.000000
0.036224 0.691254 0.000000
0.066040 0.691864 0.000000
0.094086 0.692352 0.000000
0.121613 0.692902 0.000000
0.148285 0.693451 0.000000
0.174622 0.694153 0.000000
0.200867 0.694763 0.000000
0.227112 0.695282 0.000000
0.253448 0.695801 0.000000
0.279633 0.696381 0.000000
0.306183 0.696960 0.000000
0.332672 0.697449 0.000000
0.359314 0.697998 0.000305
0.386078 0.698730 0.001068
0.413513 0.699310 0.001770
0.441803 0.699829 0.002441
0.471008 0.700409 0.003510
0.501160 0.700958 0.004242
0.531677 0.701477 0.004913
0.562134 0.702026 0.005646
0.592651 0.702576 0.006378
0.623352 0.703339 0.007080
0.654175 0.703918 0.007721
0.685272 0.704468 0.008423
0.716858 0.705017 0.009430
0.749115 0.705536 0.010162
0.782410 0.706085 0.010803
0.817017 0.706604 0.011475
0.853607 0.707153 0.012146
0.893402 0.707764 0.012848
0.938843 0.708466 0.013519
0.000000 0.724030 0.000000
0.037262 0.724548 0.000000
0.067017 0.725128 0.000000
0.095245 0.725677 0.000000
0.122467 0.726501 0.000000
0.149170 0.727051 0.000000
0.175446 0.727570 0.000000
0.201721 0.728149 0.000000
0.228088 0.728699 0.000000
0.254486 0.729248 0.000000
0.280670 0.729797 0.000000
0.307037 0.730408 0.000305
0.333496 0.731171 0.001038
0.360168 0.731750 0.001709
0.386932 0.732330 0.002411
0.414398 0.732819 0.003510
0.442688 0.733398 0.004211
0.471893 0.733917 0.004883
0.502136 0.734467 0.005646
0.532593 0.735016 0.006317
0.563080 0.735870 0.007019
0.593597 0.736450 0.007690
0.624298 0.736969 0.008423
0.655151 0.737518 0.009430
0.686310 0.738129 0.010132
0.718018 0.738678 0.010773
0.750336 0.739227 0.011475
0.783752 0.739746 0.012146
0.818329 0.740570 0.012848
0.854767 0.741089 0.013489
0.894653 0.741669 0.014130
0.940430 0.742188 0.015137
0.001160 0.758240 0.000000
0.038330 0.758759 0.000000
0.068146 0.759644 0.000000
0.096161 0.760162 0.000000
0.123383 0.760773 0.000000
0.150024 0.761322 0.000000
0.176361 0.761871 0.000000
0.202759 0.762451 0.000000
0.229034 0.763062 0.000000
0.255310 0.763672 0.000244
0.281525 0.764465 0.001038
0.307861 0.765015 0.001709
0.334320 0.765594 0.002411
0.360962 0.766144 0.003448
0.387787 0.766754 0.004150
0.415253 0.767303 0.004883
0.443604 0.767883 0.005585
0.472839 0.768616 0.006287
