Final/public/luts/Lut4.CUBE
#Created by: Adobe Photoshop Export Color Lookup Plugin
TITLE "LUT.psd"
#LUT size
LUT_3D_SIZE 5
#data domain
#LUT data points
DOMAIN_MIN 0.000000 0.000000 0.000000
DOMAIN_MAX 0.903226 0.903226 0.903226
0.000000 0.000000 0.000000
0.178406 0.000000 0.000000
0.363739 0.000000 0.000000
0.567780 0.000000 0.000000
0.789215 0.000000 0.000000
0.000000 0.165497 0.000000
0.184784 0.168427 0.000000
0.369812 0.171509 0.000000
0.574829 0.174622 0.000000
0.796783 0.177704 0.000000
0.000000 0.352264 0.000000
0.190979 0.355560 0.000000
0.376160 0.358826 0.000000
0.581665 0.361847 0.000000
0.804749 0.365173 0.000000
0.000000 0.561768 0.000000
0.197296 0.565369 0.000000
0.382507 0.569183 0.000000
0.588715 0.573029 0.000427
0.812408 0.576874 0.005768
0.002655 0.793915 0.000000
0.203583 0.798309 0.000244
0.388641 0.802521 0.005554
0.595490 0.807007 0.010742
0.820526 0.811554 0.015717
0.000000 0.000000 0.170441
0.179535 0.000000 0.173615
0.364899 0.000000 0.176819
0.569061 0.000000 0.179810
0.790649 0.000000 0.183014
0.000000 0.166626 0.176697
0.185913 0.169769 0.179688
0.371185 0.172638 0.182892
0.576080 0.175720 0.186096
0.798462 0.178833 0.189240
0.000000 0.353455 0.182770
0.192322 0.356720 0.185974
0.377319 0.360016 0.189178
0.583038 0.363281 0.192352
0.806183 0.366547 0.195526
0.000000 0.563080 0.189026
0.198517 0.566956 0.192261
0.383606 0.570770 0.195435
0.589996 0.574615 0.198425
0.814148 0.578247 0.201569
0.005005 0.795502 0.195282
0.204712 0.799927 0.198273
0.389984 0.804413 0.201447
0.597046 0.808899 0.204620
0.821930 0.813477 0.207794
0.000000 0.000000 0.353149
0.180939 0.000000 0.356415
0.366211 0.000000 0.359619
0.570587 0.000000 0.362823
0.792084 0.000000 0.365875
0.000000 0.167755 0.359528
0.187103 0.170807 0.362732
0.372345 0.173920 0.365753
0.577393 0.177032 0.368988
0.799927 0.179962 0.372192
0.000000 0.354584 0.365631
0.193481 0.357880 0.368866
0.378632 0.361145 0.372101
0.584473 0.364380 0.375336
0.807556 0.367706 0.378601
0.000000 0.564484 0.372009
0.199768 0.568329 0.375244
0.384766 0.572144 0.378479
0.591278 0.576019 0.381744
0.815643 0.579865 0.384796
0.007019 0.797119 0.378387
0.205902 0.801514 0.381622
0.391113 0.806000 0.384674
0.598297 0.810516 0.387970
0.823700 0.815063 0.391235
0.000000 0.000000 0.554749
0.182098 0.000000 0.558441
0.367401 0.000000 0.562134
0.571869 0.000000 0.565796
0.793732 0.000000 0.569244
0.000000 0.168884 0.562012
0.188446 0.171967 0.565552
0.373505 0.175049 0.569092
0.578827 0.178131 0.572784
0.801361 0.181274 0.576508
0.000000 0.355988 0.568970
0.194611 0.359253 0.572662
0.379761 0.362427 0.576355
0.585754 0.365570 0.580048
0.809326 0.368866 0.583710
0.000000 0.566101 0.576263
0.200928 0.569763 0.579895
0.386139 0.573547 0.583618
0.592743 0.577393 0.587036
0.817108 0.581268 0.590729
0.009247 0.798981 0.583466
0.207214 0.803406 0.586914
0.392242 0.807617 0.590607
0.599548 0.812134 0.594299
0.825165 0.816650 0.597961
0.000000 0.000000 0.774872
0.183319 0.000000 0.778961
0.368530 0.000000 0.782776
0.573151 0.000000 0.786865
0.795227 0.000000 0.790985
0.000000 0.170166 0.782623
0.189575 0.173248 0.786743
0.374817 0.176147 0.790833
0.580170 0.179260 0.794922
0.802765 0.182373 0.799103
0.000000 0.357147 0.790680
0.195984 0.360443 0.794769
0.380951 0.363708 0.799011
0.587036 0.366974 0.802979
0.810760 0.370270 0.807007
0.000336 0.567474 0.798798
0.202179 0.571320 0.802734
0.387299 0.575165 0.806946
0.594055 0.579010 0.811188
0.818817 0.582611 0.815399
0.011200 0.800537 0.806824
0.208344 0.805023 0.811005
0.393677 0.809509 0.815247
0.601105 0.814056 0.819550
0.826630 0.818604 0.823883
