Final/public/luts/Lut5.CUBE
#Created by: Adobe Photoshop Export Color Lookup Plugin
TITLE "LUT.psd"
#LUT size
LUT_3D_SIZE 5
#data domain
#LUT data points
DOMAIN_MIN 0.000000 0.000000 0.000000
DOMAIN_MAX 0.903226 0.903226 0.903226
0.000000 0.000000 0.000000
0.128357 0.000000 0.000000
0.255798 0.000000 0.000000
0.406036 0.000000 0.000000
0.646606 0.000000 0.000000
0.000000 0.119263 0.000000
0.132782 0.121338 0.000000
0.259918 0.123535 0.000000
0.412109 0.125702 0.000000
0.656494 0.127869 0.000000
0.000000 0.248016 0.000000
0.137115 0.250244 0.000000
0.264221 0.252472 0.000000
0.418091 0.254517 0.000000
0.666992 0.256744 0.000000
0.000000 0.400879 0.000000
0.141541 0.403961 0.000000
0.268494 0.407227 0.000000
0.424377 0.410553 0.000305
0.677277 0.413910 0.004272
0.001984 0.652710 0.000000
0.145905 0.658478 0.000183
0.272705 0.664062 0.004120
0.430542 0.670074 0.007965
0.688324 0.676147 0.011658
0.000000 0.000000 0.122742
0.129150 0.000000 0.125000
0.256561 0.000000 0.127228
0.407104 0.000000 0.129333
0.648468 0.000000 0.131561
0.000000 0.120056 0.127136
0.133606 0.122284 0.129242
0.260834 0.124298 0.131470
0.413208 0.126465 0.133728
0.658691 0.128632 0.135925
0.000000 0.248810 0.131409
0.138062 0.251038 0.133636
0.264984 0.253265 0.135895
0.419312 0.255463 0.138092
0.668945 0.257690 0.140289
0.000000 0.402008 0.135773
0.142395 0.405334 0.138031
0.269257 0.408569 0.140228
0.425537 0.411926 0.142303
0.679626 0.415100 0.144501
0.003723 0.654816 0.140137
0.146729 0.660614 0.142212
0.273651 0.666565 0.144440
0.431946 0.672577 0.146637
0.690247 0.678711 0.148865
0.000000 0.000000 0.248596
0.130127 0.000000 0.250824
0.257446 0.000000 0.252991
0.408447 0.000000 0.255188
0.650299 0.000000 0.257263
0.000000 0.120850 0.252960
0.134430 0.123016 0.255127
0.261597 0.125183 0.257172
0.414337 0.127380 0.259338
0.660614 0.129425 0.261505
0.000000 0.249603 0.257080
0.138885 0.251831 0.259247
0.265900 0.254028 0.261444
0.420593 0.256256 0.263641
0.670776 0.258453 0.265869
0.000000 0.403198 0.261414
0.143280 0.406494 0.263580
0.270081 0.409790 0.265778
0.426697 0.413147 0.268005
0.681610 0.416504 0.270111
0.005219 0.656921 0.265717
0.147552 0.662689 0.267914
0.274414 0.668671 0.270020
0.433105 0.674744 0.272247
0.692688 0.680878 0.274506
0.000000 0.000000 0.395020
0.130951 0.000000 0.398071
0.258270 0.000000 0.401215
0.409515 0.000000 0.404297
0.652496 0.000000 0.407288
0.000000 0.121674 0.401093
0.135376 0.123810 0.404114
0.262390 0.125977 0.407135
0.415619 0.128143 0.410370
0.662537 0.130341 0.413574
0.000000 0.250549 0.407043
0.139679 0.252777 0.410248
0.266663 0.254913 0.413452
0.421722 0.257050 0.416656
0.673157 0.259247 0.419922
0.000000 0.404572 0.413361
0.144073 0.407715 0.416534
0.271027 0.411011 0.419830
0.428040 0.414337 0.422882
0.683655 0.417755 0.426208
0.006897 0.659363 0.419708
0.148438 0.665222 0.422760
0.275208 0.670837 0.426086
0.434265 0.676880 0.429443
0.694702 0.683014 0.432800
0.000000 0.000000 0.628235
0.131744 0.000000 0.633423
0.259064 0.000000 0.638306
0.410645 0.000000 0.643555
0.654449 0.000000 0.648895
0.000000 0.122528 0.638123
0.136169 0.124725 0.643402
0.263275 0.126740 0.648743
0.416779 0.128937 0.654053
0.664398 0.131104 0.659546
0.000000 0.251343 0.648529
0.140625 0.253571 0.653839
0.267487 0.255768 0.659424
0.422882 0.257996 0.664673
0.675079 0.260223 0.670074
0.000244 0.405762 0.659149
0.144928 0.409058 0.664337
0.271790 0.412415 0.669952
0.429230 0.415771 0.675659
0.685974 0.418945 0.681335
0.008301 0.661438 0.669800
0.149231 0.667389 0.675415
0.276184 0.673370 0.681122
0.435699 0.679504 0.686981
0.696747 0.685699 0.692932
