Final/public/luts/Lut5.CUBE
#Created by: Adobe Photoshop Export Color Lookup Plugin
TITLE "LUT.psd"
#LUT size
LUT_3D_SIZE 8
#data domain
#LUT data points
DOMAIN_MIN 0.000000 0.000000 0.000000
DOMAIN_MAX 0.903226 0.903226 0.903226
0.000000 0.000000 0.000000
0.071289 0.000000 0.000000
0.146820 0.000000 0.000000
0.219604 0.000000 0.000000
0.293304 0.000000 0.000000
0.380676 0.000000 0.000000
0.494324 0.000000 0.000000
0.646606 0.000000 0.000000
0.000000 0.062347 0.000000
0.074005 0.063721 0.000000
0.149292 0.064941 0.000000
0.222015 0.066284 0.000000
0.295929 0.067505 0.000000
0.383911 0.068726 0.000000
0.498657 0.070068 0.000000
0.652344 0.071259 0.000000
0.000000 0.137695 0.000000
0.076752 0.138885 0.000000
0.151794 0.140167 0.000000
0.224457 0.141357 0.000000
0.298553 0.142639 0.000000
0.387177 0.143799 0.000000
0.503113 0.145111 0.000000
0.658020 0.146271 0.000000
0.000000 0.211090 0.000000
0.079468 0.212402 0.000000
0.154266 0.213562 0.000000
0.226868 0.214874 0.000000
0.301178 0.216034 0.000000
0.390442 0.217346 0.000000
0.507507 0.218536 0.000000
0.663788 0.219849 0.000000
0.000000 0.285950 0.000000
0.082184 0.287384 0.000000
0.156769 0.288635 0.000000
0.229187 0.290100 0.000000
0.303833 0.291382 0.000000
0.393738 0.292816 0.000000
0.512024 0.294128 0.000000
0.669800 0.295593 0.000000
0.000000 0.374786 0.000000
0.084839 0.376587 0.000000
0.159241 0.378235 0.000000
0.231598 0.380096 0.000000
0.306519 0.381714 0.000000
0.397064 0.383575 0.000000
0.516205 0.385223 0.000885
0.675873 0.387085 0.003235
0.000000 0.492035 0.000000
0.087494 0.494476 0.000000
0.161713 0.496765 0.000000
0.233978 0.499329 0.000000
0.309174 0.501587 0.000793
0.400208 0.504211 0.003143
0.520721 0.506500 0.005249
0.682098 0.509155 0.007538
0.001984 0.652710 0.000000
0.090149 0.655853 0.000000
0.164185 0.659302 0.000732
0.236389 0.662476 0.003082
0.311707 0.665985 0.005188
0.403595 0.669220 0.007477
0.525269 0.672821 0.009460
0.688324 0.676147 0.011658
0.000000 0.000000 0.066650
0.071930 0.000000 0.067902
0.147247 0.000000 0.069366
0.220062 0.000000 0.070618
0.293793 0.000000 0.072052
0.381287 0.000000 0.073334
0.495148 0.000000 0.074768
0.647736 0.000000 0.076050
0.000000 0.062836 0.069305
0.074677 0.064178 0.070557
0.149750 0.065369 0.071991
0.222504 0.066742 0.073303
0.296387 0.067932 0.074707
0.384491 0.069305 0.075989
0.499512 0.070526 0.077393
0.653473 0.071869 0.078674
0.000000 0.138153 0.071960
0.077423 0.139313 0.073242
0.152252 0.140625 0.074677
0.224884 0.141785 0.075928
0.299011 0.143066 0.077332
0.387787 0.144226 0.078613
0.503937 0.145538 0.080017
0.659302 0.146698 0.081268
0.000000 0.211670 0.074646
0.080109 0.212830 0.075897
0.154755 0.214172 0.077301
0.227295 0.215332 0.078552
0.301666 0.216614 0.079987
0.391083 0.217834 0.081238
0.508362 0.219116 0.082642
0.665283 0.220306 0.083862
0.000000 0.286438 0.077271
0.082825 0.287872 0.078522
0.157227 0.289124 0.079926
0.229736 0.290588 0.081177
0.304321 0.291901 0.082581
0.394318 0.293304 0.083801
0.512848 0.294617 0.085144
0.670898 0.296112 0.086456
0.000000 0.375610 0.079895
0.085480 0.377228 0.081146
0.159698 0.378937 0.082550
0.232147 0.380707 0.083771
0.306976 0.382446 0.085083
0.397705 0.384216 0.086426
0.517334 0.385986 0.087677
0.676941 0.387756 0.089050
0.000000 0.493103 0.082489
0.088135 0.495331 0.083710
0.162140 0.497864 0.084991
0.234558 0.500183 0.086365
0.309662 0.502777 0.087585
0.401062 0.505066 0.088989
0.521637 0.507721 0.090240
0.683136 0.510010 0.091614
0.003082 0.653900 0.084930
0.090759 0.657013 0.086334
0.164612 0.660553 0.087555
0.236847 0.663696 0.088928
0.312378 0.667206 0.090179
0.404419 0.670502 0.091553
0.526154 0.674042 0.092804
0.689514 0.677338 0.094147
0.000000 0.000000 0.140930
0.072449 0.000000 0.142120
0.147888 0.000000 0.143433
0.220490 0.000000 0.144623
0.294281 0.000000 0.145935
0.381866 0.000000 0.147156
0.495880 0.000000 0.148468
0.648743 0.000000 0.149658
0.000000 0.063324 0.143402
0.075165 0.064667 0.144592
0.150391 0.065887 0.145905
0.222931 0.067230 0.147095
0.296875 0.068451 0.148438
0.385101 0.069763 0.149628
0.500275 0.070984 0.150940
0.654510 0.072327 0.152130
0.000000 0.138611 0.145874
0.077881 0.139771 0.147064
0.152863 0.141083 0.148376
0.225342 0.142212 0.149567
0.299500 0.143524 0.150879
0.388367 0.144714 0.152100
0.504669 0.145996 0.153412
0.660400 0.147156 0.154572
0.000000 0.212128 0.148346
0.080627 0.213257 0.149536
0.155304 0.214600 0.150848
0.227753 0.215790 0.152039
0.302155 0.217072 0.153351
0.391663 0.218262 0.154541
0.509155 0.219574 0.155853
0.666382 0.220734 0.157074
0.000000 0.287079 0.150818
0.083313 0.288361 0.151978
0.157745 0.289795 0.153320
0.230164 0.291077 0.154510
0.304810 0.292542 0.155792
0.394958 0.293854 0.157013
0.513641 0.295288 0.158325
0.672363 0.296600 0.159485
0.000000 0.376221 0.153290
0.085968 0.377869 0.154449
0.160156 0.379669 0.155762
0.232605 0.381348 0.156952
0.307465 0.383179 0.158295
0.398315 0.384857 0.159454
0.518127 0.386688 0.160797
0.678375 0.388397 0.161957
0.000000 0.493927 0.155731
0.088623 0.496216 0.156891
0.162628 0.498779 0.158203
0.235016 0.501068 0.159393
0.310181 0.503662 0.160736
0.401672 0.505981 0.161896
0.522644 0.508575 0.163239
0.684296 0.510925 0.164398
0.003937 0.655090 0.158173
0.091248 0.658600 0.159363
0.165070 0.661713 0.160675
0.237427 0.665283 0.161865
0.312866 0.668488 0.163177
0.405060 0.672058 0.164368
0.527222 0.675293 0.165649
0.690613 0.678986 0.166840
0.000000 0.000000 0.212769
0.072937 0.000000 0.214050
0.148315 0.000000 0.215240
0.220917 0.000000 0.216522
0.294830 0.000000 0.217743
0.382660 0.000000 0.218933
0.496704 0.000000 0.220215
0.649780 0.000000 0.221375
0.000000 0.063904 0.215179
0.075684 0.065125 0.216400
0.150818 0.066467 0.217712
0.223389 0.067688 0.218872
0.297363 0.069031 0.220154
0.385712 0.070251 0.221344
0.501129 0.071442 0.222626
0.655640 0.072784 0.223785
0.000000 0.139069 0.217651
0.078400 0.140350 0.218811
0.153290 0.141541 0.220123
0.225769 0.142822 0.221283
0.300018 0.143982 0.222595
0.388947 0.145264 0.223755
0.505524 0.146423 0.225067
0.661499 0.147675 0.226227
0.000000 0.212555 0.220062
0.081116 0.213745 0.221252
0.155762 0.215027 0.222565
0.228180 0.216217 0.223724
0.302612 0.217529 0.225006
0.392273 0.218719 0.226196
0.509949 0.220032 0.227509
0.667450 0.221222 0.228668
0.000000 0.287567 0.222534
0.083771 0.288879 0.223663
0.158295 0.290314 0.224976
0.230621 0.291565 0.226166
0.305298 0.293030 0.227448
0.395569 0.294342 0.228638
0.514465 0.295776 0.229950
0.673492 0.297089 0.231079
0.000000 0.376862 0.224945
0.086456 0.378510 0.226105
0.160736 0.380310 0.227417
0.233032 0.381989 0.228577
0.307983 0.383789 0.229889
0.398926 0.385468 0.231049
0.518982 0.387299 0.232361
0.679565 0.389008 0.233521
0.000122 0.494812 0.227356
0.089111 0.497192 0.228546
0.163177 0.499634 0.229858
0.235443 0.502136 0.231018
0.310669 0.504517 0.232330
0.402313 0.507141 0.233490
0.523499 0.509460 0.234772
0.685852 0.512085 0.235931
0.004791 0.656281 0.229797
0.091736 0.659790 0.230988
0.165649 0.662903 0.232269
0.237854 0.666443 0.233459
0.313385 0.669739 0.234741
0.405670 0.673309 0.235901
0.528046 0.676544 0.237213
0.691803 0.680237 0.238373
0.000000 0.000000 0.285370
0.073456 0.000000 0.286774
0.148773 0.000000 0.288025
0.221375 0.000000 0.289368
0.295380 0.000000 0.290680
0.383240 0.000000 0.291962
0.497772 0.000000 0.293335
0.650848 0.000000 0.294617
0.000000 0.064362 0.287994
0.076172 0.065582 0.289307
0.151276 0.066925 0.290619
0.223816 0.068146 0.291901
0.298004 0.069489 0.293304
0.386475 0.070679 0.294586
0.502136 0.072052 0.295990
0.656647 0.073242 0.297272
0.000000 0.139496 0.290588
0.078888 0.140778 0.291870
0.153748 0.141968 0.293243
0.226227 0.143250 0.294556
0.300568 0.144409 0.295959
0.389771 0.145721 0.297241
0.506348 0.146912 0.298676
0.662537 0.148193 0.299957
0.000000 0.213013 0.293213
0.081604 0.214325 0.294464
0.156219 0.215485 0.295898
0.228638 0.216797 0.297180
0.303131 0.217957 0.298615
0.392853 0.219269 0.299896
0.510773 0.220459 0.301331
0.668549 0.221771 0.302612
0.000000 0.288055 0.295837
0.084259 0.289490 0.297119
0.158722 0.290771 0.298553
0.231049 0.292206 0.299835
0.305786 0.293518 0.301300
0.396179 0.294952 0.302551
0.515289 0.296265 0.304016
0.674622 0.297699 0.305328
0.000000 0.377472 0.298523
0.086945 0.379272 0.299805
0.161194 0.380920 0.301239
0.233490 0.382751 0.302521
0.308472 0.384430 0.303986
0.399506 0.386292 0.305298
0.519775 0.387970 0.306763
0.680695 0.389862 0.308075
0.001007 0.495697 0.301208
0.089569 0.498199 0.302490
0.163666 0.500549 0.303955
0.235870 0.503113 0.305237
0.311127 0.505402 0.306702
0.402924 0.507996 0.307983
0.524292 0.510315 0.309479
0.686981 0.512970 0.310791
0.005615 0.657501 0.303925
0.092194 0.660950 0.305206
0.166107 0.664124 0.306641
0.238281 0.667664 0.307953
0.313873 0.670898 0.309448
0.406281 0.674561 0.310760
0.528931 0.677917 0.312195
0.693298 0.681458 0.313538
0.000000 0.000000 0.370422
0.073944 0.000000 0.372162
0.149231 0.000000 0.373688
0.221985 0.000000 0.375397
0.295837 0.000000 0.376984
0.383820 0.000000 0.378601
0.498566 0.000000 0.380341
0.652222 0.000000 0.381958
0.000000 0.064819 0.373657
0.076660 0.066101 0.375214
0.151733 0.067413 0.376953
0.224396 0.068573 0.378540
0.298462 0.069946 0.380280
0.387085 0.071136 0.381866
0.502991 0.072510 0.383636
0.657745 0.073700 0.385223
0.000000 0.140076 0.376892
0.079376 0.141235 0.378479
0.154205 0.142548 0.380249
0.226715 0.143677 0.381805
0.301117 0.144897 0.383575
0.390381 0.146179 0.385162
0.507446 0.147308 0.386963
0.663635 0.148590 0.388580
0.000000 0.213440 0.380188
0.082092 0.214752 0.381744
0.156708 0.215942 0.383545
0.229065 0.217255 0.385101
0.303741 0.218414 0.386902
0.393646 0.219727 0.388489
0.511841 0.220917 0.390350
0.669617 0.222229 0.391968
0.000000 0.288544 0.383453
0.084778 0.289978 0.385071
0.159149 0.291260 0.386841
0.231506 0.292725 0.388428
0.306427 0.294006 0.390289
0.396942 0.295502 0.391876
0.516083 0.296753 0.393738
0.675751 0.298248 0.395355
0.000000 0.378113 0.386810
0.087402 0.379883 0.388397
0.161652 0.381592 0.390228
0.233917 0.383392 0.391815
0.309021 0.385071 0.393677
0.400146 0.386932 0.395325
0.520630 0.388611 0.397125
0.681854 0.390503 0.398773
0.001862 0.496521 0.390167
0.090088 0.499084 0.391754
0.164093 0.501373 0.393585
0.236328 0.503998 0.395264
0.311646 0.506348 0.397064
0.403503 0.508850 0.398712
0.525116 0.511261 0.400482
0.688080 0.513855 0.402222
0.006531 0.659088 0.393524
0.092682 0.662140 0.395172
0.166565 0.665710 0.396942
0.238708 0.668945 0.398651
0.314331 0.672516 0.400360
0.406891 0.675751 0.402191
0.529724 0.679443 0.403809
0.694397 0.682800 0.405731
0.000000 0.000000 0.480316
0.074615 0.000000 0.482330
0.149689 0.000000 0.484711
0.222443 0.000000 0.486847
0.296326 0.000000 0.489197
0.384430 0.000000 0.491302
0.499420 0.000000 0.493744
0.653351 0.000000 0.495850
0.000000 0.065277 0.484650
0.077332 0.066650 0.486755
0.152191 0.067841 0.489075
0.224823 0.069214 0.491211
0.298950 0.070404 0.493652
0.387665 0.071686 0.495758
0.503784 0.072937 0.498199
0.659149 0.074158 0.500336
0.000000 0.140533 0.489014
0.080048 0.141663 0.491150
0.154663 0.142975 0.493591
0.227234 0.144104 0.495697
0.301575 0.145447 0.498108
0.390961 0.146606 0.500275
0.508209 0.147919 0.502747
0.665009 0.149048 0.504913
0.000000 0.213959 0.493469
0.082733 0.215210 0.495636
0.157166 0.216431 0.498047
0.229645 0.217712 0.500214
0.304230 0.218872 0.502686
0.394257 0.220215 0.504791
0.512665 0.221344 0.507294
0.670776 0.222656 0.509552
0.000000 0.289032 0.497925
0.085419 0.290466 0.500122
0.159637 0.291748 0.502594
0.232056 0.293213 0.504761
0.306915 0.294525 0.507263
0.397614 0.295959 0.509399
0.517212 0.297272 0.511902
0.676758 0.298737 0.514160
0.000000 0.378723 0.502472
0.088043 0.380524 0.504669
0.162079 0.382172 0.507172
0.234497 0.384033 0.509369
0.309601 0.385712 0.511688
0.400970 0.387573 0.514038
0.521423 0.389252 0.516266
0.683014 0.391144 0.518829
0.002960 0.497650 0.507080
0.090698 0.499939 0.509308
0.164551 0.502563 0.511566
0.236786 0.504822 0.514008
0.312286 0.507477 0.516205
0.404327 0.509796 0.518677
0.525970 0.512390 0.520905
0.689270 0.514801 0.523499
0.007477 0.660217 0.511383
0.093292 0.663422 0.513916
0.167023 0.666870 0.516113
0.239197 0.670166 0.518646
0.314850 0.673767 0.520874
0.407532 0.676941 0.523376
0.530548 0.680664 0.525635
0.695618 0.683990 0.528168
0.000000 0.000000 0.628235
0.075104 0.000000 0.630981
0.150299 0.000000 0.634094
0.222870 0.000000 0.636902
0.296783 0.000000 0.640015
0.385040 0.000000 0.642883
0.500183 0.000000 0.645996
0.654449 0.000000 0.648895
0.000000 0.065735 0.634003
0.077820 0.067078 0.636810
0.152771 0.068329 0.639923
0.225281 0.069641 0.642792
0.299438 0.070862 0.645935
0.388275 0.072205 0.648804
0.504608 0.073425 0.651978
0.660217 0.074799 0.654938
0.000000 0.140961 0.639801
0.080536 0.142120 0.642700
0.155151 0.143433 0.645844
0.227692 0.144562 0.648682
0.302094 0.145874 0.651917
0.391541 0.147034 0.654785
0.509064 0.148346 0.657745
0.666168 0.149506 0.660980
0.000000 0.214478 0.645721
0.083252 0.215668 0.648590
0.157593 0.216980 0.651794
0.230103 0.218140 0.654724
0.304718 0.219452 0.657684
0.394897 0.220642 0.660889
0.513519 0.221954 0.663849
0.672180 0.223114 0.667145
0.000000 0.289673 0.651642
0.085907 0.290955 0.654602
0.160065 0.292389 0.657501
0.232544 0.293732 0.660767
0.307404 0.295166 0.663788
0.398193 0.296448 0.667114
0.518005 0.297943 0.670074
0.678070 0.299255 0.673492
0.000000 0.379517 0.657349
0.088531 0.381165 0.660706
0.162567 0.382996 0.663635
0.234924 0.384674 0.666870
0.310089 0.386536 0.669952
0.401581 0.388184 0.673370
0.522522 0.390106 0.676361
0.684113 0.391754 0.679779
0.003815 0.498535 0.663513
0.091156 0.500854 0.666809
0.165009 0.503418 0.669830
0.237366 0.505737 0.673279
0.312805 0.508301 0.676239
0.404968 0.510742 0.679749
0.527008 0.513275 0.682861
0.690369 0.515686 0.686310
0.008301 0.661438 0.669800
0.093781 0.664795 0.673157
0.167450 0.668152 0.676208
0.239777 0.671783 0.679626
0.315491 0.675079 0.682739
0.408386 0.678711 0.686157
0.531372 0.681976 0.689270
0.696747 0.685699 0.692932
