Final/public/luts/Lut5.CUBE
#Created by: Adobe Photoshop Export Color Lookup Plugin
TITLE "LUT.psd"
#LUT size
LUT_3D_SIZE 32
#data domain
DOMAIN_MIN 0.0 0.0 0.0
DOMAIN_MAX 1.0 1.0 1.0
#LUT data points
0.000000 0.000000 0.000000
0.001343 0.000000 0.000000
0.029114 0.000000 0.000000
0.050873 0.000000 0.000000
0.071289 0.000000 0.000000
0.090851 0.000000 0.000000
0.109741 0.000000 0.000000
0.128357 0.000000 0.000000
0.146820 0.000000 0.000000
0.165131 0.000000 0.000000
0.183411 0.000000 0.000000
0.201508 0.000000 0.000000
0.219604 0.000000 0.000000
0.237732 0.000000 0.000000
0.255798 0.000000 0.000000
0.274109 0.000000 0.000000
0.293304 0.000000 0.000000
0.313477 0.000000 0.000000
0.334625 0.000000 0.000000
0.356964 0.000000 0.000000
0.380676 0.000000 0.000000
0.406036 0.000000 0.000000
0.433197 0.000000 0.000000
0.462494 0.000000 0.000000
0.494324 0.000000 0.000000
0.528778 0.000000 0.000000
0.565308 0.000000 0.000000
0.604370 0.000000 0.000000
0.646606 0.000000 0.000000
0.693390 0.000000 0.000000
0.746735 0.000000 0.000000
0.810333 0.000000 0.000000
0.000000 0.000000 0.000000
0.002655 0.000000 0.000000
0.029846 0.000000 0.000000
0.051575 0.000000 0.000000
0.072083 0.000000 0.000000
0.091461 0.000000 0.000000
0.110321 0.000000 0.000000
0.128937 0.000000 0.000000
0.147369 0.000000 0.000000
0.165863 0.000000 0.000000
0.183960 0.000000 0.000000
0.202087 0.000000 0.000000
0.220184 0.000000 0.000000
0.238312 0.000000 0.000000
0.256378 0.000000 0.000000
0.274719 0.000000 0.000000
0.293915 0.000000 0.000000
0.314087 0.000000 0.000000
0.335327 0.000061 0.000000
0.357697 0.000580 0.000000
0.381439 0.001068 0.000000
0.406830 0.001526 0.000000
0.434082 0.001984 0.000000
0.463409 0.002716 0.000000
0.495331 0.003204 0.000000
0.529816 0.003662 0.000000
0.566467 0.004150 0.000000
0.605560 0.004639 0.000000
0.647980 0.005096 0.000000
0.694946 0.005585 0.000000
0.748474 0.006012 0.000000
0.812531 0.006653 0.000000
0.000000 0.020538 0.000000
0.003815 0.020905 0.000000
0.030609 0.021271 0.000000
0.052399 0.021606 0.000000
0.072693 0.022034 0.000000
0.092102 0.022522 0.000000
0.110931 0.022858 0.000000
0.129639 0.023224 0.000000
0.148132 0.023560 0.000000
0.166443 0.023895 0.000000
0.184540 0.024231 0.000000
0.202637 0.024597 0.000000
0.220734 0.024963 0.000000
0.238861 0.025452 0.000000
0.256927 0.025787 0.000000
0.275299 0.026184 0.000000
0.294556 0.026520 0.000000
0.314728 0.026825 0.000000
0.336029 0.027161 0.000000
0.358429 0.027527 0.000000
0.382202 0.027863 0.000000
0.407593 0.028198 0.000000
0.434937 0.028656 0.000000
0.464325 0.029053 0.000000
0.496338 0.029419 0.000000
0.530884 0.029755 0.000000
0.567596 0.030090 0.000000
0.606812 0.030426 0.000000
0.649353 0.030762 0.000000
0.696442 0.031067 0.000000
0.750153 0.031403 0.000000
0.814697 0.031921 0.000000
0.000000 0.042358 0.000000
0.005005 0.042664 0.000000
0.031403 0.042999 0.000000
0.053070 0.043335 0.000000
0.073364 0.043762 0.000000
0.092743 0.044098 0.000000
0.111694 0.044403 0.000000
0.130280 0.044739 0.000000
0.148712 0.045044 0.000000
0.167023 0.045349 0.000000
0.185120 0.045685 0.000000
0.203217 0.045990 0.000000
0.221313 0.046326 0.000000
0.239532 0.046783 0.000000
0.257629 0.047089 0.000000
0.276031 0.047394 0.000000
0.295288 0.047729 0.000000
0.315552 0.048035 0.000000
0.336853 0.048340 0.000000
0.359283 0.048676 0.000000
0.383118 0.048981 0.000000
0.408630 0.049377 0.000000
0.436066 0.049713 0.000000
0.465546 0.050049 0.000000
0.497650 0.050354 0.000000
0.532257 0.050720 0.000000
0.569031 0.050995 0.000000
0.608032 0.051300 0.000000
0.650696 0.051605 0.000000
0.697937 0.051941 0.000000
0.751953 0.052399 0.000000
0.817017 0.052704 0.000000
0.000000 0.062347 0.000000
0.006134 0.062653 0.000000
0.032379 0.062958 0.000000
0.053802 0.063293 0.000000
0.074005 0.063721 0.000000
0.093506 0.064026 0.000000
0.112335 0.064331 0.000000
0.130859 0.064606 0.000000
0.149292 0.064941 0.000000
0.167603 0.065216 0.000000
0.185730 0.065521 0.000000
0.203918 0.065826 0.000000
0.222015 0.066284 0.000000
0.240143 0.066620 0.000000
0.258240 0.066864 0.000000
0.276611 0.067169 0.000000
0.295929 0.067505 0.000000
0.316162 0.067780 0.000000
0.337524 0.068085 0.000000
0.360016 0.068420 0.000000
0.383911 0.068726 0.000000
0.409454 0.069153 0.000000
0.436951 0.069458 0.000000
0.466492 0.069733 0.000000
0.498657 0.070068 0.000000
0.533356 0.070374 0.000000
0.570190 0.070648 0.000000
0.609619 0.070953 0.000000
0.652344 0.071259 0.000000
0.699829 0.071594 0.000000
0.753815 0.072021 0.000000
0.819153 0.072327 0.000000
0.000000 0.081635 0.000000
0.007446 0.081940 0.000000
0.033142 0.082275 0.000000
0.054504 0.082703 0.000000
0.074829 0.082977 0.000000
0.094116 0.083282 0.000000
0.112885 0.083588 0.000000
0.131470 0.083862 0.000000
0.149902 0.084167 0.000000
0.168335 0.084442 0.000000
0.186432 0.084747 0.000000
0.204498 0.085114 0.000000
0.222595 0.085480 0.000000
0.240723 0.085785 0.000000
0.258759 0.086090 0.000000
0.277191 0.086395 0.000000
0.296539 0.086700 0.000000
0.316803 0.086975 0.000000
0.338196 0.087280 0.000000
0.360748 0.087555 0.000000
0.384674 0.088013 0.000000
0.410309 0.088287 0.000000
0.437805 0.088593 0.000000
0.467438 0.088867 0.000000
0.499725 0.089172 0.000000
0.534485 0.089478 0.000000
0.571350 0.089783 0.000000
0.610809 0.090088 0.000000
0.653717 0.090454 0.000000
0.701385 0.090790 0.000000
0.755951 0.091095 0.000000
0.822021 0.091400 0.000000
0.000000 0.100555 0.000000
0.008484 0.100861 0.000000
0.033875 0.101288 0.000000
0.055359 0.101562 0.000000
0.075470 0.101898 0.000000
0.094757 0.102173 0.000000
0.113525 0.102448 0.000000
0.132202 0.102753 0.000000
0.150604 0.103027 0.000000
0.168945 0.103302 0.000000
0.186981 0.103760 0.000000
0.205078 0.104065 0.000000
0.223175 0.104370 0.000000
0.241302 0.104645 0.000000
0.259338 0.104950 0.000000
0.277771 0.105225 0.000000
0.297150 0.105530 0.000000
0.317474 0.105835 0.000000
0.338898 0.106201 0.000000
0.361450 0.106537 0.000000
0.385437 0.106842 0.000000
0.411102 0.107147 0.000000
0.438690 0.107422 0.000000
0.468353 0.107697 0.000000
0.500763 0.108002 0.000000
0.535553 0.108276 0.000000
0.572510 0.108582 0.000000
0.612091 0.109039 0.000000
0.655090 0.109314 0.000000
0.702911 0.109589 0.000000
0.757751 0.109894 0.000000
0.824219 0.110168 0.000000
0.000000 0.119263 0.000000
0.009583 0.119598 0.000000
0.034729 0.119904 0.000000
0.056000 0.120178 0.000000
0.076141 0.120483 0.000000
0.095367 0.120758 0.000000
0.114288 0.121033 0.000000
0.132782 0.121338 0.000000
0.151215 0.121674 0.000000
0.169495 0.122070 0.000000
0.187592 0.122345 0.000000
0.205658 0.122620 0.000000
0.223724 0.122955 0.000000
0.241852 0.123230 0.000000
0.259918 0.123535 0.000000
0.278503 0.123810 0.000000
0.297913 0.124084 0.000000
0.318298 0.124481 0.000000
0.339722 0.124817 0.000000
0.362335 0.125122 0.000000
0.386414 0.125397 0.000000
0.412109 0.125702 0.000000
0.439789 0.125977 0.000000
0.469604 0.126251 0.000000
0.501923 0.126556 0.000000
0.536652 0.126892 0.000000
0.573669 0.127289 0.000000
0.613373 0.127594 0.000000
0.656494 0.127869 0.000000
0.704437 0.128143 0.000000
0.759644 0.128448 0.000000
0.826508 0.128723 0.000000
0.000000 0.137695 0.000000
0.010651 0.138031 0.000000
0.035553 0.138306 0.000000
0.056702 0.138611 0.000000
0.076752 0.138885 0.000000
0.096161 0.139160 0.000000
0.114868 0.139465 0.000000
0.133392 0.139771 0.000000
0.151794 0.140167 0.000000
0.170074 0.140442 0.000000
0.188141 0.140747 0.000000
0.206360 0.141052 0.000000
0.224457 0.141357 0.000000
0.242584 0.141632 0.000000
0.260651 0.141937 0.000000
0.279144 0.142212 0.000000
0.298553 0.142639 0.000000
0.318939 0.142944 0.000000
0.340393 0.143219 0.000000
0.363068 0.143524 0.000000
0.387177 0.143799 0.000000
0.412933 0.144073 0.000000
0.440674 0.144379 0.000000
0.470520 0.144684 0.000000
0.503113 0.145111 0.000000
0.538025 0.145386 0.000000
0.575165 0.145691 0.000000
0.614960 0.145966 0.000000
0.658020 0.146271 0.000000
0.706116 0.146576 0.000000
0.761444 0.146851 0.000000
0.828827 0.147125 0.000000
0.000000 0.156036 0.000000
0.011932 0.156311 0.000000
0.036346 0.156616 0.000000
0.057404 0.156891 0.000000
0.077576 0.157196 0.000000
0.096771 0.157501 0.000000
0.115509 0.157928 0.000000
0.134003 0.158203 0.000000
0.152405 0.158478 0.000000
0.170807 0.158783 0.000000
0.188904 0.159088 0.000000
0.206970 0.159363 0.000000
0.225037 0.159668 0.000000
0.243164 0.159943 0.000000
0.261230 0.160248 0.000000
0.279755 0.160645 0.000000
0.299194 0.160950 0.000000
0.319580 0.161255 0.000000
0.341095 0.161560 0.000000
0.363831 0.161865 0.000000
0.387970 0.162109 0.000000
0.413788 0.162415 0.000000
0.441528 0.162689 0.000000
0.471527 0.163116 0.000000
0.504181 0.163422 0.000000
0.539154 0.163727 0.000000
0.576324 0.164032 0.000000
0.616241 0.164307 0.000000
0.659698 0.164581 0.000000
0.708008 0.164856 0.000000
0.763733 0.165161 0.000000
0.831238 0.165558 0.000000
0.000000 0.174408 0.000000
0.012909 0.174683 0.000000
0.037048 0.174988 0.000000
0.058258 0.175262 0.000000
0.078217 0.175598 0.000000
0.097382 0.175995 0.000000
0.116089 0.176300 0.000000
0.134583 0.176605 0.000000
0.153137 0.176880 0.000000
0.171387 0.177155 0.000000
0.189453 0.177429 0.000000
0.207520 0.177765 0.000000
0.225616 0.178040 0.000000
0.243713 0.178467 0.000000
0.261749 0.178772 0.000000
0.280304 0.179047 0.000000
0.299805 0.179321 0.000000
0.320251 0.179626 0.000000
0.341797 0.179901 0.000000
0.364502 0.180206 0.000000
0.388702 0.180481 0.000000
0.414581 0.180939 0.000000
0.442413 0.181213 0.000000
0.472473 0.181519 0.000000
0.505188 0.181793 0.000000
0.540253 0.182098 0.000000
0.577515 0.182404 0.000000
0.617462 0.182709 0.000000
0.661041 0.182983 0.000000
0.709564 0.183411 0.000000
0.765564 0.183685 0.000000
0.834076 0.183990 0.000000
0.000000 0.192749 0.000000
0.013885 0.193054 0.000000
0.037933 0.193329 0.000000
0.058899 0.193756 0.000000
0.078827 0.194031 0.000000
0.098022 0.194336 0.000000
0.116821 0.194641 0.000000
0.135345 0.194916 0.000000
0.153717 0.195190 0.000000
0.171967 0.195496 0.000000
0.190033 0.195801 0.000000
0.208099 0.196228 0.000000
0.226166 0.196533 0.000000
0.244263 0.196808 0.000000
0.262360 0.197083 0.000000
0.280914 0.197388 0.000000
0.300385 0.197662 0.000000
0.321045 0.197968 0.000000
0.342651 0.198242 0.000000
0.365387 0.198578 0.000000
0.389709 0.199005 0.000000
0.415466 0.199280 0.000000
0.443420 0.199554 0.000000
0.473419 0.199860 0.000000
0.506256 0.200165 0.000000
0.541382 0.200439 0.000000
0.578674 0.200775 0.000000
0.618805 0.201050 0.000000
0.662415 0.201477 0.000000
0.711121 0.201782 0.000000
0.767395 0.202057 0.000000
0.836365 0.202332 0.000000
0.000000 0.211090 0.000000
0.015045 0.211456 0.000000
0.038696 0.211792 0.000000
0.059570 0.212097 0.000000
0.079468 0.212402 0.000000
0.098785 0.212677 0.000000
0.117462 0.212982 0.000000
0.135925 0.213257 0.000000
0.154266 0.213562 0.000000
0.172577 0.213867 0.000000
0.190643 0.214294 0.000000
0.208679 0.214600 0.000000
0.226868 0.214874 0.000000
0.244995 0.215149 0.000000
0.263062 0.215454 0.000000
0.281677 0.215759 0.000000
0.301178 0.216034 0.000000
0.321716 0.216309 0.000000
0.343323 0.216736 0.000000
0.366150 0.217041 0.000000
0.390442 0.217346 0.000000
0.416412 0.217651 0.000000
0.444427 0.217926 0.000000
0.474640 0.218231 0.000000
0.507507 0.218536 0.000000
0.542725 0.218842 0.000000
0.580078 0.219269 0.000000
0.620087 0.219543 0.000000
0.663788 0.219849 0.000000
0.712738 0.220154 0.000000
0.769287 0.220428 0.000000
0.838776 0.220734 0.000000
0.000000 0.229584 0.000000
0.016083 0.229858 0.000000
0.039429 0.230164 0.000000
0.060242 0.230438 0.000000
0.080261 0.230743 0.000000
0.099426 0.231018 0.000000
0.118073 0.231323 0.000000
0.136536 0.231628 0.000000
0.154877 0.232056 0.000000
0.173218 0.232391 0.000000
0.191315 0.232635 0.000000
0.209412 0.232971 0.000000
0.227478 0.233246 0.000000
0.245544 0.233551 0.000000
0.263641 0.233826 0.000000
0.282288 0.234131 0.000000
0.301819 0.234558 0.000000
0.322357 0.234833 0.000000
0.344025 0.235138 0.000000
0.366852 0.235413 0.000000
0.391235 0.235718 0.000000
0.417267 0.236023 0.000000
0.445312 0.236328 0.000000
0.475586 0.236633 0.000000
0.508575 0.237000 0.000000
0.543823 0.237366 0.000000
0.581329 0.237640 0.000000
0.621643 0.237976 0.000000
0.665619 0.238220 0.000000
0.714691 0.238556 0.000000
0.771149 0.238831 0.000000
0.841125 0.239136 0.000000
0.000000 0.248016 0.000000
0.016968 0.248322 0.000000
0.040161 0.248596 0.000000
0.061096 0.248932 0.000000
0.080933 0.249207 0.000000
0.100006 0.249481 0.000000
0.118652 0.249939 0.000000
0.137115 0.250244 0.000000
0.155609 0.250549 0.000000
0.173859 0.250854 0.000000
0.191895 0.251160 0.000000
0.209961 0.251434 0.000000
0.228027 0.251709 0.000000
0.246155 0.252045 0.000000
0.264221 0.252472 0.000000
0.282837 0.252777 0.000000
0.302429 0.253021 0.000000
0.322998 0.253357 0.000000
0.344696 0.253632 0.000000
0.367615 0.253906 0.000000
0.391998 0.254211 0.000000
0.418091 0.254517 0.000000
0.446198 0.254913 0.000000
0.476501 0.255280 0.000000
0.509613 0.255554 0.000000
0.544922 0.255859 0.000000
0.582520 0.256165 0.000000
0.622925 0.256439 0.000000
0.666992 0.256744 0.000000
0.716370 0.257050 0.000000
0.773499 0.257416 0.000000
0.844269 0.257782 0.000000
0.000000 0.266632 0.000000
0.017914 0.266937 0.000000
0.041016 0.267273 0.000000
0.061737 0.267548 0.000000
0.081543 0.267975 0.000000
0.100616 0.268250 0.000000
0.119385 0.268555 0.000000
0.137848 0.268890 0.000000
0.156189 0.269196 0.000000
0.174438 0.269501 0.000000
0.192474 0.269775 0.000000
0.210510 0.270142 0.000000
0.228607 0.270569 0.000000
0.246704 0.270874 0.000000
0.264771 0.271179 0.000000
0.283447 0.271484 0.000000
0.303070 0.271790 0.000000
0.323669 0.272095 0.000000
0.345398 0.272400 0.000000
0.368317 0.272705 0.000000
0.392761 0.273041 0.000000
0.418915 0.273468 0.000000
0.447113 0.273773 0.000000
0.477539 0.274078 0.000000
0.510651 0.274353 0.000000
0.545990 0.274689 0.000000
0.583710 0.274994 0.000000
0.624176 0.275360 0.000000
0.668396 0.275665 0.000000
0.717957 0.276093 0.000000
0.775391 0.276367 0.000000
0.846649 0.276703 0.000000
0.000000 0.285950 0.000000
0.019012 0.286285 0.000000
0.041718 0.286774 0.000000
0.062378 0.287079 0.000000
0.082184 0.287384 0.000000
0.101379 0.287689 0.000000
0.119995 0.288025 0.000000
0.138458 0.288361 0.000000
0.156769 0.288635 0.000000
0.175018 0.288971 0.000000
0.193054 0.289429 0.000000
0.211090 0.289795 0.000000
0.229187 0.290100 0.000000
0.247406 0.290436 0.000000
0.265503 0.290771 0.000000
0.284210 0.291077 0.000000
0.303833 0.291382 0.000000
0.324493 0.291687 0.000000
0.346283 0.292145 0.000000
0.369263 0.292480 0.000000
0.393738 0.292816 0.000000
0.419983 0.293152 0.000000
0.448242 0.293488 0.000000
0.478760 0.293823 0.000000
0.512024 0.294128 0.000000
0.547119 0.294464 0.000000
0.584900 0.294861 0.000000
0.625427 0.295258 0.000000
0.669800 0.295593 0.000000
0.719543 0.295929 0.000000
0.777313 0.296265 0.000000
0.849182 0.296600 0.000427
0.000000 0.306427 0.000000
0.019928 0.306763 0.000000
0.042480 0.307098 0.000000
0.063049 0.307404 0.000000
0.082947 0.307739 0.000000
0.102020 0.308105 0.000000
0.120605 0.308441 0.000000
0.139038 0.308746 0.000000
0.157318 0.309265 0.000000
0.175629 0.309631 0.000000
0.193756 0.309967 0.000000
0.211823 0.310303 0.000000
0.229858 0.310638 0.000000
0.247986 0.310974 0.000000
0.266083 0.311310 0.000000
0.284790 0.311615 0.000000
0.304474 0.312164 0.000000
0.325134 0.312500 0.000000
0.346954 0.312836 0.000000
0.370026 0.313171 0.000000
0.394501 0.313507 0.000000
0.420837 0.313843 0.000000
0.449127 0.314178 0.000000
0.479736 0.314514 0.000000
0.513031 0.314911 0.000000
0.548523 0.315399 0.000000
0.586365 0.315765 0.000000
0.627106 0.316071 0.000000
0.671417 0.316437 0.000000
0.721130 0.316772 0.000397
0.779205 0.317108 0.000946
0.851807 0.317474 0.001465
0.000000 0.327820 0.000000
0.020752 0.328186 0.000000
0.043182 0.328552 0.000000
0.063904 0.328888 0.000000
0.083618 0.329285 0.000000
0.102631 0.329651 0.000000
0.121216 0.330078 0.000000
0.139618 0.330505 0.000000
0.158081 0.330872 0.000000
0.176300 0.331238 0.000000
0.194336 0.331573 0.000000
0.212372 0.331970 0.000000
0.230438 0.332336 0.000000
0.248535 0.332672 0.000000
0.266663 0.333160 0.000000
0.285400 0.333557 0.000000
0.305084 0.333923 0.000000
0.325806 0.334290 0.000000
0.347687 0.334625 0.000000
0.370728 0.335022 0.000000
0.395355 0.335388 0.000000
0.421661 0.335724 0.000000
0.450012 0.336243 0.000000
0.480713 0.336639 0.000000
0.514130 0.336975 0.000000
0.549652 0.337372 0.000000
0.587555 0.337708 0.000000
0.628387 0.338104 0.000397
0.673035 0.338470 0.000916
0.723145 0.338806 0.001434
0.781708 0.339355 0.001984
0.854706 0.339722 0.002747
0.000000 0.350586 0.000000
0.021545 0.350983 0.000000
0.044037 0.351349 0.000000
0.064545 0.351746 0.000000
0.084229 0.352295 0.000000
0.103210 0.352661 0.000000
0.121979 0.353027 0.000000
0.140350 0.353424 0.000000
0.158661 0.353821 0.000000
0.176880 0.354218 0.000000
0.194916 0.354614 0.000000
0.212921 0.354980 0.000000
0.231018 0.355530 0.000000
0.249115 0.355927 0.000000
0.267242 0.356293 0.000000
0.285980 0.356689 0.000000
0.305725 0.357056 0.000000
0.326447 0.357452 0.000000
0.348328 0.357849 0.000000
0.371460 0.358215 0.000000
0.396088 0.358795 0.000000
0.422516 0.359161 0.000000
0.450928 0.359558 0.000000
0.481720 0.359955 0.000000
0.515137 0.360352 0.000000
0.550781 0.360779 0.000336
0.588745 0.361145 0.000885
0.629608 0.361511 0.001434
0.674377 0.362061 0.001953
0.724762 0.362457 0.002716
0.783661 0.362854 0.003265
0.857513 0.363251 0.003784
0.000000 0.374786 0.000000
0.022583 0.375214 0.000000
0.044739 0.375793 0.000000
0.065186 0.376190 0.000000
0.084839 0.376587 0.000000
0.104004 0.377014 0.000000
0.122528 0.377411 0.000000
0.140930 0.377838 0.000000
0.159241 0.378235 0.000000
0.177429 0.378662 0.000000
0.195465 0.379242 0.000000
0.213501 0.379669 0.000000
0.231598 0.380096 0.000000
0.249695 0.380493 0.000000
0.267944 0.380890 0.000000
0.286713 0.381317 0.000000
0.306519 0.381714 0.000000
0.327271 0.382141 0.000000
0.349213 0.382721 0.000000
0.372375 0.383118 0.000000
0.397064 0.383575 0.000000
0.423553 0.383972 0.000000
0.451965 0.384399 0.000000
0.482727 0.384827 0.000336
0.516205 0.385223 0.000885
0.551910 0.385651 0.001404
0.589966 0.386230 0.001923
0.630981 0.386688 0.002716
0.675873 0.387085 0.003235
0.726379 0.387512 0.003754
0.785553 0.387970 0.004303
0.860046 0.388367 0.004822
0.000000 0.400879 0.000000
0.023376 0.401337 0.000000
0.045471 0.401764 0.000000
0.065857 0.402191 0.000000
0.085632 0.402588 0.000000
0.104584 0.403046 0.000000
0.123138 0.403503 0.000000
0.141541 0.403961 0.000000
0.159821 0.404572 0.000000
0.178040 0.405029 0.000000
0.196228 0.405457 0.000000
0.214264 0.405914 0.000000
0.232300 0.406342 0.000000
0.250397 0.406799 0.000000
0.268494 0.407227 0.000000
0.287354 0.407715 0.000000
0.307159 0.408325 0.000000
0.327942 0.408752 0.000000
0.349915 0.409210 0.000000
0.373138 0.409607 0.000000
0.397888 0.410126 0.000000
0.424377 0.410553 0.000305
0.452972 0.411011 0.000854
0.483948 0.411438 0.001373
0.517548 0.412109 0.001923
0.553314 0.412537 0.002686
0.591492 0.412994 0.003204
0.632263 0.413452 0.003754
0.677277 0.413910 0.004272
0.728027 0.414337 0.004791
0.787537 0.414825 0.005280
0.862701 0.415253 0.005829
0.000000 0.428680 0.000000
0.024170 0.429199 0.000000
0.046173 0.429626 0.000000
0.066681 0.430115 0.000000
0.086243 0.430573 0.000000
0.105194 0.431061 0.000000
0.123749 0.431732 0.000000
0.142120 0.432220 0.000000
0.160553 0.432739 0.000000
0.178741 0.433197 0.000000
0.196777 0.433655 0.000000
0.214813 0.434143 0.000000
0.232880 0.434631 0.000000
0.250946 0.435150 0.000000
0.269073 0.435822 0.000000
0.287964 0.436310 0.000000
0.307770 0.436798 0.000000
0.328613 0.437225 0.000000
0.350616 0.437744 0.000000
0.373901 0.438202 0.000305
0.398651 0.438690 0.000854
0.425262 0.439240 0.001373
0.453888 0.439880 0.001892
0.484894 0.440369 0.002655
0.518646 0.440857 0.003204
0.554443 0.441345 0.003723
0.592682 0.441833 0.004242
0.633942 0.442322 0.004791
0.679169 0.442841 0.005280
0.730011 0.443420 0.005829
0.789520 0.444000 0.006317
0.865295 0.444519 0.007050
0.000000 0.458954 0.000000
0.024963 0.459473 0.000000
0.046997 0.459961 0.000000
0.067352 0.460693 0.000000
0.086884 0.461243 0.000000
0.105804 0.461761 0.000000
0.124390 0.462250 0.000000
0.142883 0.462738 0.000000
0.161102 0.463287 0.000000
0.179321 0.463837 0.000000
0.197357 0.464325 0.000000
0.215393 0.465118 0.000000
0.233429 0.465637 0.000000
0.251495 0.466125 0.000000
0.269653 0.466675 0.000000
0.288544 0.467194 0.000000
0.308411 0.467712 0.000000
0.329315 0.468231 0.000275
0.351318 0.468781 0.000824
0.374603 0.469574 0.001343
0.399445 0.470062 0.001862
0.426086 0.470551 0.002655
0.454803 0.471130 0.003174
0.485870 0.471649 0.003693
0.519653 0.472198 0.004242
0.555573 0.472748 0.004761
0.593903 0.473236 0.005249
0.635254 0.473999 0.005768
0.680603 0.474579 0.006287
0.731781 0.475098 0.007050
0.792053 0.475647 0.007568
0.868805 0.476196 0.008057
0.000000 0.492035 0.000000
0.025940 0.492798 0.000000
0.047699 0.493408 0.000000
0.067963 0.493927 0.000000
0.087494 0.494476 0.000000
0.106537 0.495026 0.000000
0.125092 0.495605 0.000000
0.143433 0.496155 0.000000
0.161713 0.496765 0.000000
0.179901 0.497589 0.000000
0.197937 0.498169 0.000000
0.215942 0.498718 0.000000
0.233978 0.499329 0.000000
0.252106 0.499878 0.000000
0.270325 0.500488 0.000000
0.289124 0.501007 0.000244
0.309174 0.501587 0.000793
0.330048 0.502441 0.001312
0.352142 0.502991 0.001862
0.375519 0.503632 0.002625
0.400208 0.504211 0.003143
0.426941 0.504761 0.003693
0.455719 0.505371 0.004211
0.486877 0.505920 0.004730
0.520721 0.506500 0.005249
0.556702 0.507416 0.005768
0.595093 0.507996 0.006287
0.636566 0.508545 0.007019
0.682098 0.509155 0.007538
0.733521 0.509705 0.008057
0.794067 0.510284 0.008545
0.871460 0.510895 0.009033
0.000000 0.528076 0.000000
0.026703 0.528717 0.000000
0.048401 0.529358 0.000000
0.068604 0.529938 0.000000
0.088257 0.530548 0.000000
0.107178 0.531158 0.000000
0.125671 0.531952 0.000000
0.144012 0.532623 0.000000
0.162292 0.533234 0.000000
0.180481 0.533813 0.000000
0.198486 0.534485 0.000000
0.216644 0.535095 0.000000
0.234680 0.535675 0.000000
0.252808 0.536316 0.000214
0.270966 0.537140 0.000793
0.289917 0.537781 0.001312
0.309784 0.538391 0.001831
0.330780 0.539032 0.002594
0.352905 0.539673 0.003143
0.376251 0.540253 0.003662
0.401215 0.540894 0.004181
0.427948 0.541504 0.004730
0.456848 0.542389 0.005249
0.488129 0.543030 0.005737
0.522003 0.543640 0.006256
0.557922 0.544281 0.006989
0.596313 0.544861 0.007538
0.637848 0.545532 0.008026
0.683533 0.546112 0.008514
0.735138 0.546753 0.009033
0.796112 0.547424 0.009521
0.874146 0.548248 0.010010
0.000000 0.566284 0.000000
0.027496 0.566956 0.000000
0.049133 0.567596 0.000000
0.069427 0.568237 0.000000
0.088867 0.569214 0.000000
0.107788 0.569885 0.000000
0.126282 0.570496 0.000000
0.144623 0.571167 0.000000
0.162964 0.571777 0.000000
0.181183 0.572479 0.000000
0.199188 0.573090 0.000000
0.217224 0.573822 0.000214
0.235260 0.574738 0.000763
0.253357 0.575439 0.001251
0.271576 0.576080 0.001801
0.290527 0.576691 0.002594
0.310455 0.577362 0.003113
0.331421 0.578003 0.003632
0.353607 0.578613 0.004181
0.377014 0.579315 0.004700
0.402008 0.580322 0.005219
0.428802 0.580994 0.005707
0.457764 0.581635 0.006256
0.489136 0.582275 0.006989
0.523163 0.583008 0.007507
0.559265 0.583710 0.007996
0.597778 0.584351 0.008514
0.639557 0.584991 0.009033
0.685303 0.585938 0.009521
0.736786 0.586578 0.009979
0.798096 0.587280 0.010468
0.877106 0.587921 0.011230
0.000885 0.607422 0.000000
0.028290 0.608124 0.000000
0.049957 0.609192 0.000000
0.070099 0.609863 0.000000
0.089508 0.610565 0.000000
0.108398 0.611267 0.000000
0.126923 0.611938 0.000000
0.145355 0.612671 0.000000
0.163605 0.613403 0.000000
0.181763 0.614166 0.000183
0.199799 0.615173 0.000763
0.217804 0.615875 0.001251
0.235809 0.616577 0.001801
0.253906 0.617279 0.002563
0.272156 0.618011 0.003082
0.291107 0.618713 0.003632
0.311096 0.619446 0.004150
0.332123 0.620331 0.004669
