Final/public/luts/lut6.CUBE
#Created by: Adobe Photoshop Export Color Lookup Plugin
TITLE "LUT.psd"
#LUT size
LUT_3D_SIZE 8
#data domain
#LUT data points
DOMAIN_MIN 0.000000 0.000000 0.000000
DOMAIN_MAX 0.903226 0.903226 0.903226
0.007233 0.004456 0.006104
0.064240 0.005066 0.006805
0.138977 0.005646 0.007568
0.228760 0.006287 0.008331
0.333344 0.006897 0.009094
0.454254 0.007538 0.009888
0.595856 0.008240 0.010681
0.748901 0.008881 0.011475
0.008881 0.056854 0.007538
0.066559 0.057892 0.008301
0.141754 0.058960 0.009064
0.231964 0.059998 0.009857
0.337097 0.061035 0.010651
0.458618 0.062103 0.011475
0.600616 0.063171 0.012299
0.754120 0.064240 0.013092
0.010590 0.128845 0.009033
0.068939 0.130188 0.009827
0.144562 0.131531 0.010651
0.235260 0.132874 0.011414
0.340790 0.134216 0.012238
0.462982 0.135590 0.013062
0.605377 0.136932 0.013885
0.759399 0.138336 0.014740
0.012299 0.217529 0.010620
0.071320 0.219147 0.011383
0.147430 0.220795 0.012238
0.238525 0.222443 0.013031
0.344513 0.224091 0.013855
0.467346 0.225708 0.014709
0.610138 0.227417 0.015533
0.764679 0.229065 0.016388
0.014038 0.322937 0.012177
0.073700 0.324829 0.013000
0.150299 0.326782 0.013824
0.241821 0.328735 0.014709
0.348236 0.330688 0.015503
0.471741 0.332642 0.016357
0.614868 0.334625 0.017212
0.769989 0.336578 0.018097
0.015778 0.446411 0.013794
0.076111 0.448730 0.014648
0.153137 0.451050 0.015472
0.245178 0.453430 0.016327
0.352020 0.455750 0.017212
0.476135 0.458099 0.018066
0.619690 0.460480 0.018951
0.775360 0.462891 0.019836
0.017609 0.593414 0.015442
0.078491 0.596069 0.016296
0.156036 0.598663 0.017151
0.248444 0.601318 0.018036
0.355835 0.604004 0.018890
0.480621 0.606628 0.019806
0.624420 0.609253 0.020691
0.780762 0.611908 0.021576
0.019409 0.754456 0.017120
0.080933 0.757446 0.018005
0.158875 0.760406 0.018860
0.251770 0.763458 0.019745
0.359589 0.766418 0.020660
0.485168 0.769470 0.021545
0.629181 0.772491 0.022430
0.786163 0.775635 0.023315
0.007538 0.004700 0.060242
0.064667 0.005280 0.061401
0.139526 0.005890 0.062531
0.229370 0.006531 0.063690
0.334076 0.007172 0.064819
0.455109 0.007812 0.065979
0.596802 0.008484 0.067108
0.749939 0.009125 0.068268
0.009216 0.057220 0.062469
0.067017 0.058289 0.063599
0.142365 0.059326 0.064758
0.232635 0.060394 0.065918
0.337799 0.061432 0.067047
0.459442 0.062500 0.068237
0.601562 0.063568 0.069397
0.755188 0.064636 0.070557
0.010864 0.129364 0.064728
0.069397 0.130676 0.065887
0.145111 0.132019 0.067017
0.235870 0.133392 0.068176
0.341522 0.134735 0.069336
0.463806 0.136108 0.070496
0.606262 0.137482 0.071686
0.760406 0.138824 0.072845
0.012604 0.218140 0.066986
0.071747 0.219788 0.068146
0.147980 0.221405 0.069305
0.239166 0.223053 0.070465
0.345245 0.224731 0.071655
0.468231 0.226379 0.072815
0.611084 0.228058 0.073975
0.765717 0.229675 0.075165
0.014374 0.323669 0.069275
0.074158 0.325592 0.070435
0.150848 0.327545 0.071594
0.242462 0.329498 0.072754
0.348969 0.331451 0.073944
0.472626 0.333374 0.075134
0.615784 0.335358 0.076324
0.771057 0.337311 0.077515
0.016144 0.447266 0.071564
0.076569 0.449615 0.072754
0.153687 0.451904 0.073914
0.245789 0.454285 0.075073
0.352753 0.456665 0.076263
0.477051 0.459015 0.077484
0.620544 0.461395 0.078674
0.776398 0.463776 0.079865
0.017914 0.594360 0.073883
0.078979 0.597046 0.075043
0.156555 0.599701 0.076202
0.249115 0.602295 0.077423
0.356506 0.605011 0.078613
0.481537 0.607635 0.079803
0.625397 0.610291 0.081024
0.781799 0.612976 0.082214
0.019745 0.755585 0.076202
0.081390 0.758545 0.077362
0.159454 0.761566 0.078583
0.252411 0.764587 0.079742
0.360321 0.767609 0.080994
0.486023 0.770660 0.082184
0.630188 0.773682 0.083405
0.787262 0.776733 0.084595
0.007874 0.004913 0.132385
0.065155 0.005493 0.133789
0.140045 0.006134 0.135193
0.229980 0.006744 0.136566
0.334808 0.007416 0.138000
0.455963 0.008057 0.139374
0.597687 0.008759 0.140808
0.750916 0.009399 0.142212
0.009521 0.057648 0.135132
0.067474 0.058685 0.136505
0.142914 0.059723 0.137939
0.233276 0.060791 0.139343
0.338501 0.061859 0.140747
0.460297 0.062927 0.142181
0.602448 0.063965 0.143555
0.756165 0.065063 0.144989
0.011230 0.129822 0.137878
0.069855 0.131195 0.139282
0.145691 0.132538 0.140686
0.236511 0.133881 0.142120
0.342224 0.135284 0.143494
0.464661 0.136658 0.144928
0.607208 0.138031 0.146362
0.761475 0.139374 0.147797
0.012970 0.218750 0.140656
0.072235 0.220398 0.142059
0.148499 0.222046 0.143463
0.239777 0.223694 0.144897
0.345978 0.225372 0.146301
0.469055 0.226990 0.147766
0.611938 0.228699 0.149170
0.766754 0.230347 0.150635
0.014709 0.324371 0.143433
0.074646 0.326324 0.144836
0.151398 0.328278 0.146271
0.243103 0.330231 0.147675
0.349731 0.332184 0.149139
0.473480 0.334137 0.150574
0.616730 0.336121 0.152008
0.772095 0.338104 0.153442
0.016479 0.448212 0.146210
0.077026 0.450500 0.147644
0.154297 0.452820 0.149078
0.246429 0.455170 0.150543
0.353485 0.457581 0.151947
0.477905 0.459900 0.153381
0.621552 0.462280 0.154877
0.777435 0.464691 0.156311
0.018280 0.595398 0.149017
0.079407 0.598053 0.150452
0.157135 0.600708 0.151917
0.249725 0.603363 0.153320
0.357239 0.605957 0.154816
0.482361 0.608643 0.156250
0.626282 0.611328 0.157745
0.782837 0.613953 0.159180
0.020111 0.756714 0.151855
0.081848 0.759735 0.153290
0.160034 0.762726 0.154755
0.253052 0.765717 0.156189
0.361023 0.768768 0.157654
0.486908 0.771851 0.159119
0.631073 0.774780 0.160583
0.788269 0.777863 0.162048
0.008209 0.005127 0.219666
0.065613 0.005737 0.221313
0.140625 0.006348 0.222961
0.230621 0.006989 0.224640
0.335541 0.007629 0.226257
0.456818 0.008301 0.227936
0.598633 0.009003 0.229584
0.751953 0.009674 0.231262
0.009857 0.058044 0.222900
0.067963 0.059082 0.224548
0.143433 0.060150 0.226196
0.233887 0.061188 0.227875
0.339203 0.062225 0.229492
0.461151 0.063324 0.231201
0.603424 0.064392 0.232849
0.757233 0.065460 0.234497
0.011566 0.130371 0.226166
0.070343 0.131744 0.227814
0.146240 0.133087 0.229431
0.237152 0.134399 0.231110
0.342957 0.135803 0.232819
0.465485 0.137146 0.234436
0.608093 0.138550 0.236115
0.762512 0.139893 0.237793
0.013275 0.219391 0.229401
0.072693 0.221008 0.231049
0.149078 0.222687 0.232727
0.240417 0.224335 0.234406
0.346680 0.225983 0.236053
0.469910 0.227661 0.237732
0.612885 0.229309 0.239410
0.767792 0.230988 0.241119
0.015045 0.325134 0.232666
0.075073 0.327057 0.234314
0.151947 0.329010 0.235992
0.243774 0.330963 0.237701
0.350433 0.332916 0.239380
0.474396 0.334869 0.241058
0.617645 0.336853 0.242737
0.773163 0.338867 0.244415
0.016846 0.449066 0.235931
0.077515 0.451385 0.237610
0.154816 0.453766 0.239319
0.247070 0.456085 0.240997
0.354218 0.458435 0.242676
0.478790 0.460846 0.244385
0.622467 0.463196 0.246063
0.778473 0.465607 0.247772
0.018646 0.596436 0.239258
0.079926 0.599030 0.240906
0.157684 0.601685 0.242615
0.250397 0.604309 0.244293
0.357971 0.607025 0.246033
0.483276 0.609619 0.247711
0.627228 0.612305 0.249390
0.783905 0.614929 0.251160
0.020477 0.757843 0.242584
0.082336 0.760834 0.244232
0.160583 0.763855 0.245941
0.253693 0.766876 0.247681
0.361786 0.769928 0.249359
0.487762 0.772980 0.251099
0.631958 0.776001 0.252747
0.789337 0.779083 0.254486
0.008545 0.005341 0.322021
0.066040 0.006012 0.323914
0.141174 0.006592 0.325806
0.231262 0.007263 0.327698
0.336273 0.007904 0.329590
0.457642 0.008575 0.331512
0.599579 0.009247 0.333405
0.752991 0.009949 0.335358
0.010193 0.058441 0.325745
0.068390 0.059479 0.327637
0.143982 0.060547 0.329559
0.234528 0.061584 0.331451
0.339966 0.062653 0.333344
0.462006 0.063721 0.335297
0.604309 0.064789 0.337189
0.758240 0.065887 0.339081
0.011902 0.130859 0.329468
0.070770 0.132233 0.331390
0.146790 0.133606 0.333282
0.237793 0.134949 0.335236
0.343719 0.136292 0.337097
0.466400 0.137695 0.339050
0.609039 0.139038 0.340973
0.763489 0.140442 0.342896
0.013641 0.220032 0.333191
0.073151 0.221649 0.335144
0.149658 0.223297 0.337067
0.241058 0.224976 0.338959
0.347412 0.226593 0.340881
0.470734 0.228271 0.342834
0.613800 0.229919 0.344757
0.768829 0.231628 0.346680
0.015381 0.325836 0.336975
0.075562 0.327820 0.338867
0.152496 0.329773 0.340790
0.244385 0.331726 0.342743
0.351166 0.333679 0.344696
0.475220 0.335632 0.346619
0.618591 0.337585 0.348572
0.774200 0.339569 0.350494
0.017151 0.449951 0.340729
0.077972 0.452301 0.342682
0.155396 0.454620 0.344604
0.247711 0.457001 0.346558
0.354950 0.459320 0.348511
0.479614 0.461731 0.350433
0.623383 0.464081 0.352386
0.779541 0.466492 0.354340
0.018982 0.597443 0.344543
0.080383 0.600067 0.346497
0.158234 0.602692 0.348450
0.251038 0.605377 0.350372
0.358704 0.608002 0.352295
0.484131 0.610657 0.354248
0.628113 0.613312 0.356232
0.784943 0.615936 0.358185
0.020813 0.759033 0.348358
0.082794 0.761993 0.350281
0.161163 0.765015 0.352234
0.254395 0.768005 0.354187
0.362518 0.771057 0.356140
0.488647 0.774109 0.358124
0.632935 0.777191 0.360077
0.790405 0.780243 0.362030
0.008850 0.005585 0.440399
0.066528 0.006226 0.442627
0.141724 0.006836 0.444824
0.231903 0.007507 0.447083
0.336975 0.008179 0.449310
0.458466 0.008850 0.451538
0.600494 0.009521 0.453796
0.753967 0.010223 0.456055
0.010529 0.058807 0.444763
0.068878 0.059875 0.446960
0.144531 0.060944 0.449188
0.235138 0.062012 0.451477
0.340668 0.063049 0.453705
0.462830 0.064117 0.455963
0.605255 0.065216 0.458191
0.759277 0.066315 0.460480
0.012238 0.131409 0.449127
0.071259 0.132751 0.451355
0.147339 0.134125 0.453644
0.238434 0.135468 0.455872
0.344421 0.136841 0.458130
0.467255 0.138214 0.460419
0.609985 0.139557 0.462646
0.764526 0.140961 0.464966
0.013977 0.220642 0.453552
0.073639 0.222290 0.455780
0.150208 0.223938 0.458069
0.241730 0.225616 0.460358
0.348145 0.227234 0.462585
0.471588 0.228912 0.464844
0.614777 0.230591 0.467163
0.769806 0.232269 0.469513
0.015747 0.326599 0.457947
0.076050 0.328522 0.460236
0.153046 0.330505 0.462494
0.245026 0.332458 0.464783
0.351929 0.334442 0.467102
0.476044 0.336426 0.469360
0.619507 0.338348 0.471710
0.775208 0.340332 0.474030
0.017517 0.450836 0.462402
0.078400 0.453156 0.464722
0.155945 0.455566 0.467041
0.248352 0.457886 0.469299
0.355682 0.460266 0.471619
0.480530 0.462616 0.473938
0.624329 0.465027 0.476288
0.780579 0.467407 0.478607
0.019348 0.598419 0.466949
0.080841 0.601044 0.469208
0.158813 0.603760 0.471527
0.251678 0.606384 0.473877
0.359467 0.609039 0.476135
0.484985 0.611633 0.478485
0.629028 0.614319 0.480865
0.785980 0.617004 0.483185
0.021179 0.760193 0.471466
0.083282 0.763123 0.473755
0.161713 0.766113 0.476044
0.255005 0.769165 0.478424
0.363251 0.772217 0.480713
0.489502 0.775238 0.483124
0.633850 0.778320 0.485474
0.791412 0.781403 0.487823
0.009155 0.005829 0.580261
0.066956 0.006439 0.582672
0.142273 0.007080 0.585205
0.232544 0.007721 0.587677
0.337708 0.008423 0.590179
0.459320 0.009064 0.592651
0.601379 0.009766 0.595154
0.755035 0.010498 0.597626
0.010834 0.059235 0.585144
0.069305 0.060272 0.587585
0.145081 0.061310 0.590027
0.235779 0.062378 0.592529
0.341431 0.063477 0.595062
0.463684 0.064545 0.597534
0.606140 0.065613 0.600067
0.760254 0.066711 0.602478
0.012573 0.131897 0.589966
0.071716 0.133240 0.592468
0.147888 0.134613 0.594940
0.239075 0.135986 0.597443
0.345123 0.137360 0.599976
0.468079 0.138702 0.602448
0.610870 0.140106 0.604980
0.765564 0.141510 0.607483
0.014313 0.221252 0.594849
0.074066 0.222931 0.597382
0.150757 0.224579 0.599884
0.242371 0.226227 0.602325
0.348877 0.227905 0.604889
0.472473 0.229553 0.607361
0.615662 0.231232 0.609863
0.770905 0.232910 0.612366
0.016083 0.327362 0.599762
0.076477 0.329285 0.602264
0.153625 0.331238 0.604767
0.245667 0.333191 0.607269
0.352631 0.335205 0.609772
0.476929 0.337128 0.612274
0.620422 0.339081 0.614807
0.776215 0.341095 0.617310
0.017883 0.451721 0.604645
0.078918 0.454041 0.607208
0.156494 0.456390 0.609680
0.248993 0.458771 0.612152
0.356415 0.461151 0.614716
0.481415 0.463531 0.617218
0.625244 0.465973 0.619751
0.781677 0.468353 0.622253
0.019714 0.599457 0.609589
0.081329 0.602051 0.612091
0.159393 0.604736 0.614594
0.252350 0.607422 0.617096
0.360168 0.610016 0.619690
0.485870 0.612671 0.622162
0.629974 0.615356 0.624664
0.787079 0.618011 0.627228
0.021545 0.761292 0.614502
0.083771 0.764313 0.617035
0.162292 0.767303 0.619537
0.255676 0.770355 0.622070
0.363953 0.773407 0.624603
0.490387 0.776398 0.627075
0.634735 0.779510 0.629639
0.792480 0.782562 0.632141
0.009491 0.006073 0.731842
0.067413 0.006683 0.734558
0.142822 0.007355 0.737274
0.233185 0.007996 0.740051
0.338409 0.008698 0.742767
0.460175 0.009369 0.745575
0.602295 0.010040 0.748291
0.756073 0.010712 0.751099
0.011169 0.059601 0.737213
0.069763 0.060669 0.739990
0.145630 0.061737 0.742676
0.236450 0.062836 0.745422
0.342163 0.063873 0.748199
0.464569 0.064941 0.750977
0.607086 0.066040 0.753723
0.761322 0.067139 0.756561
0.012909 0.132416 0.742615
0.072144 0.133789 0.745361
0.148438 0.135162 0.748138
0.239685 0.136475 0.750824
0.345886 0.137878 0.753632
0.468933 0.139252 0.756378
0.611816 0.140656 0.759277
0.766571 0.142029 0.762024
0.014648 0.221893 0.748016
0.074585 0.223541 0.750763
0.151306 0.225189 0.753540
0.242981 0.226837 0.756317
0.349609 0.228516 0.759155
0.473358 0.230194 0.761932
0.616638 0.231873 0.764740
0.771912 0.233551 0.767548
0.016449 0.328064 0.753448
0.076965 0.330017 0.756256
0.154205 0.332001 0.759033
0.246338 0.333984 0.761810
0.353363 0.335938 0.764648
0.477783 0.337891 0.767456
0.621368 0.339874 0.770264
0.777283 0.341827 0.773132
0.018219 0.452637 0.758911
0.079376 0.454956 0.761780
0.157074 0.457336 0.764526
0.249634 0.459686 0.767303
0.357147 0.462067 0.770142
0.482269 0.464478 0.773010
0.626129 0.466858 0.775818
0.782654 0.469238 0.778656
0.020050 0.600464 0.764374
0.081757 0.603088 0.767181
0.159943 0.605713 0.770081
0.252960 0.608368 0.772949
0.360931 0.611053 0.775757
0.486755 0.613708 0.778595
0.630920 0.616364 0.781494
0.788116 0.619080 0.784363
0.021912 0.762451 0.769989
0.084229 0.765472 0.772797
0.162842 0.768463 0.775665
0.256317 0.771515 0.778503
0.364716 0.774628 0.781372
0.491272 0.777618 0.784210
0.635681 0.780640 0.787079
0.793518 0.783783 0.790009
