Final/public/luts/lut6.CUBE
#Created by: Adobe Photoshop Export Color Lookup Plugin
TITLE "LUT.psd"
#LUT size
LUT_3D_SIZE 5
#data domain
#LUT data points
DOMAIN_MIN 0.000000 0.000000 0.000000
DOMAIN_MAX 0.903226 0.903226 0.903226
0.007233 0.004456 0.006104
0.118805 0.005493 0.007385
0.279205 0.006592 0.008728
0.488220 0.007721 0.010101
0.748901 0.008881 0.011475
0.010132 0.109283 0.008698
0.123505 0.111511 0.010040
0.285339 0.113739 0.011414
0.496216 0.115997 0.012878
0.758026 0.118256 0.014313
0.013153 0.268036 0.011383
0.128296 0.271179 0.012817
0.291443 0.274353 0.014252
0.504272 0.277466 0.015747
0.767395 0.280670 0.017242
0.016235 0.481262 0.014221
0.133118 0.485596 0.015656
0.297638 0.489929 0.017181
0.512329 0.494293 0.018707
0.776703 0.498718 0.020264
0.019409 0.754456 0.017120
0.137939 0.759705 0.018677
0.303864 0.764923 0.020203
0.520416 0.770264 0.021759
0.786163 0.775635 0.023315
0.007782 0.004852 0.112885
0.119720 0.005920 0.115204
0.280396 0.007019 0.117554
0.489807 0.008179 0.119934
0.750671 0.009338 0.122253
0.010712 0.110138 0.117462
0.124420 0.112335 0.119812
0.286469 0.114594 0.122131
0.497742 0.116852 0.124573
0.759857 0.119110 0.126923
0.013733 0.269226 0.122070
0.129211 0.272369 0.124451
0.292664 0.275543 0.126862
0.505859 0.278687 0.129242
0.769165 0.281891 0.131683
0.016846 0.482880 0.126770
0.134033 0.487274 0.129150
0.298828 0.491577 0.131592
0.513977 0.496002 0.133972
0.778503 0.500427 0.136414
0.020020 0.756470 0.131470
0.138855 0.761688 0.133881
0.305054 0.766937 0.136322
0.522034 0.772247 0.138763
0.787994 0.777618 0.141235
0.008362 0.005249 0.268951
0.120636 0.006317 0.272064
0.281586 0.007446 0.275146
0.491333 0.008636 0.278259
0.752472 0.009796 0.281433
0.011322 0.110962 0.275024
0.125366 0.113220 0.278168
0.287659 0.115448 0.281281
0.499329 0.117706 0.284424
0.761688 0.119995 0.287537
0.014343 0.270447 0.281128
0.130188 0.273560 0.284271
0.293823 0.276733 0.287445
0.507446 0.279877 0.290588
0.770966 0.283081 0.293793
0.017456 0.484589 0.287354
0.134949 0.488953 0.290497
0.300018 0.493256 0.293671
0.515503 0.497681 0.296844
0.780334 0.502075 0.300018
0.020660 0.758453 0.293579
0.139832 0.763641 0.296722
0.306274 0.768951 0.299927
0.523590 0.774292 0.303162
0.789886 0.779633 0.306366
0.008942 0.005646 0.473541
0.121552 0.006744 0.477570
0.282776 0.007874 0.481750
0.492889 0.009064 0.485840
0.754211 0.010284 0.489990
0.011871 0.111816 0.481567
0.126282 0.114075 0.485687
0.288910 0.116302 0.489838
0.500946 0.118591 0.494019
0.763489 0.120880 0.498260
0.014954 0.271637 0.489655
0.131073 0.274780 0.493866
0.295013 0.277954 0.498077
0.508972 0.281097 0.502289
0.772797 0.284271 0.506531
0.018066 0.486176 0.497955
0.135925 0.490540 0.502136
0.301270 0.494934 0.506378
0.517059 0.499329 0.510559
0.782196 0.503784 0.514832
0.021271 0.760437 0.506226
0.140747 0.765686 0.510437
0.307404 0.771027 0.514648
0.525116 0.776276 0.518982
0.791687 0.781708 0.523193
0.009491 0.006073 0.731842
0.122498 0.007202 0.736603
0.283966 0.008331 0.741394
0.494476 0.009521 0.746277
0.756073 0.010712 0.751099
0.012451 0.112671 0.741241
0.127228 0.114929 0.746094
0.290070 0.117188 0.750885
0.502472 0.119476 0.755737
0.765259 0.121796 0.760620
0.015533 0.272858 0.750702
0.132019 0.276001 0.755524
0.296265 0.279175 0.760498
0.510559 0.282349 0.765381
0.774628 0.285553 0.770264
0.018677 0.487854 0.760284
0.136841 0.492218 0.765228
0.302429 0.496643 0.770142
0.518646 0.501038 0.775146
0.784058 0.505463 0.780090
0.021912 0.762451 0.769989
0.141724 0.767731 0.774933
0.308685 0.773010 0.779938
0.526764 0.778381 0.784943
0.793518 0.783783 0.790009
