Final/public/luts/lut6.CUBE
#Created by: Adobe Photoshop Export Color Lookup Plugin
TITLE "LUT.psd"
#LUT size
LUT_3D_SIZE 32
#data domain
DOMAIN_MIN 0.0 0.0 0.0
DOMAIN_MAX 1.0 1.0 1.0
#LUT data points
0.007233 0.004456 0.006104
0.019135 0.004608 0.006287
0.032806 0.004761 0.006439
0.047913 0.004913 0.006622
0.064240 0.005066 0.006805
0.081482 0.005188 0.006989
0.099609 0.005341 0.007202
0.118805 0.005493 0.007385
0.138977 0.005646 0.007568
0.160095 0.005798 0.007751
0.182007 0.005981 0.007965
0.204895 0.006104 0.008148
0.228760 0.006287 0.008331
0.253571 0.006439 0.008545
0.279205 0.006592 0.008728
0.305786 0.006744 0.008942
0.333344 0.006897 0.009094
0.361908 0.007080 0.009308
0.391357 0.007233 0.009491
0.422028 0.007416 0.009705
0.454254 0.007538 0.009888
0.488220 0.007721 0.010101
0.523773 0.007874 0.010284
0.559631 0.008026 0.010498
0.595856 0.008240 0.010681
0.632782 0.008392 0.010864
0.670532 0.008545 0.011078
0.709076 0.008728 0.011292
0.748901 0.008881 0.011475
0.790497 0.009064 0.011688
0.834747 0.009216 0.011902
0.883057 0.009399 0.012115
0.007629 0.015167 0.006439
0.019592 0.015350 0.006622
0.033295 0.015533 0.006805
0.048431 0.015717 0.006989
0.064819 0.015900 0.007202
0.082092 0.016083 0.007385
0.100250 0.016296 0.007568
0.119446 0.016510 0.007751
0.139648 0.016663 0.007935
0.160828 0.016846 0.008118
0.182739 0.017059 0.008331
0.205658 0.017273 0.008545
0.229523 0.017426 0.008728
0.254395 0.017639 0.008942
0.280060 0.017822 0.009064
0.306671 0.018036 0.009308
0.334290 0.018219 0.009491
0.362854 0.018433 0.009705
0.392365 0.018616 0.009888
0.423096 0.018799 0.010101
0.455353 0.019012 0.010284
0.489319 0.019196 0.010498
0.524902 0.019409 0.010681
0.560730 0.019592 0.010864
0.597046 0.019806 0.011078
0.634003 0.019989 0.011292
0.671692 0.020203 0.011475
0.710327 0.020416 0.011688
0.750214 0.020630 0.011871
0.791931 0.020813 0.012085
0.836182 0.021027 0.012329
0.884674 0.021210 0.012482
0.008057 0.027740 0.006805
0.020050 0.027954 0.006989
0.033813 0.028168 0.007202
0.048981 0.028381 0.007385
0.065399 0.028625 0.007538
0.082703 0.028809 0.007721
0.100922 0.029053 0.007935
0.120087 0.029266 0.008118
0.140381 0.029480 0.008331
0.161560 0.029694 0.008545
0.183533 0.029907 0.008728
0.206421 0.030121 0.008911
0.230347 0.030365 0.009064
0.255219 0.030579 0.009308
0.280914 0.030792 0.009460
0.307556 0.031036 0.009674
0.335236 0.031219 0.009888
0.363831 0.031433 0.010071
0.393372 0.031647 0.010284
0.424072 0.031860 0.010498
0.456421 0.032135 0.010681
0.490479 0.032349 0.010864
0.526031 0.032562 0.011078
0.561890 0.032806 0.011292
0.598236 0.032990 0.011475
0.635132 0.033234 0.011688
0.672913 0.033478 0.011871
0.711609 0.033691 0.012085
0.751526 0.033905 0.012299
0.793243 0.034149 0.012482
0.837616 0.034363 0.012695
0.886353 0.034576 0.012909
0.008484 0.041687 0.007202
0.020569 0.041931 0.007385
0.034363 0.042175 0.007538
0.049530 0.042419 0.007721
0.065979 0.042664 0.007935
0.083344 0.042908 0.008118
0.101562 0.043121 0.008301
0.120819 0.043365 0.008514
0.141083 0.043610 0.008728
0.162292 0.043854 0.008911
0.184326 0.044067 0.009064
0.207245 0.044312 0.009277
0.231140 0.044586 0.009460
0.256073 0.044800 0.009674
0.281830 0.045074 0.009888
0.308472 0.045319 0.010071
0.336151 0.045563 0.010284
0.364777 0.045776 0.010498
0.394379 0.046051 0.010651
0.425140 0.046265 0.010864
0.457489 0.046509 0.011078
0.491638 0.046783 0.011261
0.527252 0.046997 0.011475
0.563110 0.047241 0.011688
0.599426 0.047485 0.011871
0.636322 0.047760 0.012085
0.674133 0.048004 0.012299
0.712830 0.048248 0.012482
0.752838 0.048462 0.012665
0.794586 0.048767 0.012878
0.839142 0.048981 0.013092
0.888062 0.049225 0.013306
0.008881 0.056854 0.007538
0.021088 0.057129 0.007721
0.034912 0.057373 0.007935
0.050140 0.057617 0.008118
0.066559 0.057892 0.008301
0.083954 0.058136 0.008514
0.102234 0.058380 0.008698
0.121490 0.058655 0.008881
0.141754 0.058960 0.009064
0.163055 0.059174 0.009277
0.185059 0.059448 0.009460
0.208008 0.059692 0.009674
0.231964 0.059998 0.009857
0.256927 0.060242 0.010071
0.282715 0.060486 0.010254
0.309357 0.060730 0.010498
0.337097 0.061035 0.010651
0.365723 0.061310 0.010834
0.395355 0.061554 0.011078
0.426208 0.061829 0.011261
0.458618 0.062103 0.011475
0.492828 0.062378 0.011658
0.528381 0.062622 0.011871
0.564270 0.062897 0.012085
0.600616 0.063171 0.012299
0.637573 0.063416 0.012482
0.675354 0.063690 0.012665
0.714111 0.063965 0.012878
0.754120 0.064240 0.013092
0.795990 0.064514 0.013306
0.840637 0.064789 0.013519
0.889709 0.065063 0.013733
0.009308 0.073212 0.007935
0.021545 0.073517 0.008118
0.035431 0.073761 0.008301
0.050690 0.074036 0.008514
0.067200 0.074341 0.008698
0.084564 0.074615 0.008881
0.102844 0.074921 0.009064
0.122131 0.075165 0.009277
0.142487 0.075470 0.009460
0.163757 0.075745 0.009674
0.185822 0.076019 0.009857
0.208801 0.076294 0.010071
0.232819 0.076569 0.010254
0.257782 0.076874 0.010468
0.283539 0.077148 0.010651
0.310242 0.077454 0.010834
0.337982 0.077728 0.011047
0.366669 0.078003 0.011261
0.396332 0.078278 0.011444
0.427216 0.078583 0.011658
0.459717 0.078827 0.011871
0.493958 0.079132 0.012085
0.529541 0.079407 0.012299
0.565460 0.079712 0.012451
0.601807 0.079987 0.012665
0.638794 0.080261 0.012878
0.676605 0.080566 0.013062
0.715363 0.080841 0.013306
0.755432 0.081146 0.013489
0.797424 0.081421 0.013733
0.842102 0.081726 0.013916
0.891357 0.082001 0.014130
0.009735 0.090729 0.008301
0.022003 0.091034 0.008484
0.035919 0.091339 0.008698
0.051270 0.091644 0.008881
0.067780 0.091919 0.009064
0.085205 0.092255 0.009277
0.103516 0.092529 0.009430
0.122864 0.092804 0.009674
0.143219 0.093140 0.009857
0.164520 0.093414 0.010040
0.186554 0.093719 0.010254
0.209595 0.094055 0.010437
0.233612 0.094360 0.010651
0.258606 0.094635 0.010834
0.284424 0.094940 0.011017
0.311157 0.095245 0.011261
0.338928 0.095520 0.011414
0.367645 0.095825 0.011658
0.397339 0.096130 0.011871
0.428253 0.096466 0.012054
0.460815 0.096741 0.012268
0.495056 0.097076 0.012451
0.530731 0.097351 0.012665
0.566620 0.097656 0.012878
0.602936 0.097992 0.013062
0.640015 0.098267 0.013275
0.677856 0.098572 0.013489
0.716614 0.098877 0.013702
0.756714 0.099182 0.013916
0.798767 0.099487 0.014130
0.843597 0.099792 0.014313
0.893036 0.100098 0.014557
0.010132 0.109283 0.008698
0.022491 0.109619 0.008881
0.036438 0.109924 0.009064
0.051788 0.110229 0.009247
0.068359 0.110565 0.009430
0.085815 0.110870 0.009674
0.104156 0.111206 0.009827
0.123505 0.111511 0.010040
0.143890 0.111816 0.010223
0.165222 0.112152 0.010437
0.187317 0.112457 0.010651
0.210388 0.112793 0.010803
0.234436 0.113129 0.011017
0.259460 0.113434 0.011230
0.285339 0.113739 0.011414
0.312073 0.114075 0.011627
0.339844 0.114380 0.011841
0.368622 0.114685 0.012054
0.398315 0.115021 0.012268
0.429291 0.115326 0.012451
0.461853 0.115692 0.012665
0.496216 0.115997 0.012878
0.531891 0.116302 0.013062
0.567810 0.116638 0.013275
0.604187 0.116974 0.013489
0.641235 0.117310 0.013672
0.679108 0.117615 0.013916
0.717926 0.117950 0.014099
0.758026 0.118256 0.014313
0.800110 0.118591 0.014557
0.845123 0.118927 0.014740
0.894806 0.119202 0.014954
0.010590 0.128845 0.009033
0.022980 0.129150 0.009247
0.036987 0.129517 0.009430
0.052368 0.129822 0.009644
0.068939 0.130188 0.009827
0.086426 0.130493 0.010040
0.104797 0.130829 0.010223
0.124207 0.131195 0.010437
0.144562 0.131531 0.010651
0.165955 0.131866 0.010803
0.188080 0.132202 0.011017
0.211182 0.132507 0.011230
0.235260 0.132874 0.011414
0.260315 0.133240 0.011627
0.286163 0.133545 0.011841
0.312988 0.133850 0.012054
0.340790 0.134216 0.012238
0.369598 0.134583 0.012451
0.399323 0.134888 0.012634
0.430359 0.135254 0.012878
0.462982 0.135590 0.013062
0.497406 0.135925 0.013275
0.533020 0.136261 0.013489
0.569000 0.136627 0.013672
0.605377 0.136932 0.013885
0.642456 0.137299 0.014099
0.680328 0.137665 0.014313
0.719208 0.138031 0.014526
0.759399 0.138336 0.014740
0.801605 0.138702 0.014954
0.846619 0.139008 0.015167
0.896423 0.139374 0.015350
0.010986 0.149414 0.009430
0.023468 0.149750 0.009613
0.037537 0.150116 0.009827
0.052979 0.150452 0.010040
0.069550 0.150818 0.010223
0.087067 0.151184 0.010437
0.105469 0.151550 0.010620
0.124908 0.151886 0.010803
0.145325 0.152252 0.011017
0.166718 0.152588 0.011230
0.188843 0.152954 0.011414
0.212006 0.153290 0.011627
0.236084 0.153656 0.011841
0.261200 0.153992 0.012024
0.287079 0.154388 0.012238
0.313904 0.154724 0.012451
0.341736 0.155090 0.012634
0.370544 0.155426 0.012848
0.400330 0.155792 0.013062
0.431396 0.156158 0.013275
0.464081 0.156525 0.013489
0.498535 0.156891 0.013672
0.534210 0.157257 0.013885
0.570160 0.157623 0.014099
0.606537 0.157959 0.014282
0.643677 0.158325 0.014526
0.681580 0.158691 0.014740
0.720520 0.159058 0.014954
0.760773 0.159424 0.015137
0.802948 0.159790 0.015350
0.848114 0.160156 0.015564
0.898102 0.160492 0.015747
0.011414 0.171112 0.009827
0.023926 0.171478 0.010040
0.038055 0.171875 0.010223
0.053497 0.172211 0.010437
0.070129 0.172577 0.010620
0.087677 0.172974 0.010803
0.106110 0.173340 0.011017
0.125549 0.173737 0.011230
0.146027 0.174072 0.011414
0.167450 0.174469 0.011627
0.189606 0.174835 0.011841
0.212769 0.175201 0.012024
0.236908 0.175598 0.012238
0.262024 0.175934 0.012451
0.287933 0.176361 0.012634
0.314789 0.176697 0.012817
0.342682 0.177063 0.013062
0.371490 0.177460 0.013245
0.401337 0.177826 0.013458
0.432434 0.178223 0.013672
0.465118 0.178589 0.013885
0.499634 0.178986 0.014099
0.535370 0.179352 0.014282
0.571289 0.179749 0.014526
0.607758 0.180115 0.014709
0.644867 0.180481 0.014954
0.682831 0.180878 0.015137
0.721741 0.181274 0.015350
0.762054 0.181641 0.015533
0.804382 0.182007 0.015747
0.849640 0.182404 0.015991
0.899872 0.182770 0.016205
0.011841 0.193787 0.010223
0.024445 0.194214 0.010406
0.038574 0.194611 0.010620
0.054047 0.194977 0.010773
0.070740 0.195374 0.011017
0.088318 0.195770 0.011230
0.106750 0.196136 0.011414
0.126251 0.196564 0.011627
0.146729 0.196930 0.011810
0.168182 0.197327 0.012024
0.190399 0.197754 0.012238
0.213562 0.198090 0.012421
0.237701 0.198517 0.012604
0.262848 0.198914 0.012817
0.288849 0.199310 0.013031
0.315704 0.199677 0.013245
0.343567 0.200073 0.013458
0.372437 0.200470 0.013672
0.402344 0.200867 0.013885
0.433472 0.201233 0.014069
0.466248 0.201660 0.014282
0.500793 0.202057 0.014496
0.536530 0.202454 0.014709
0.572479 0.202881 0.014923
0.608948 0.203247 0.015137
0.646088 0.203674 0.015320
0.684021 0.204041 0.015533
0.723053 0.204437 0.015747
0.763336 0.204865 0.015961
0.805725 0.205231 0.016174
0.851135 0.205658 0.016388
0.901581 0.206055 0.016602
0.012299 0.217529 0.010620
0.024902 0.217926 0.010773
0.039093 0.218323 0.010986
0.054596 0.218719 0.011200
0.071320 0.219147 0.011383
0.088928 0.219543 0.011597
0.107452 0.219971 0.011810
0.126923 0.220398 0.012024
0.147430 0.220795 0.012238
0.168945 0.221191 0.012421
0.191162 0.221619 0.012604
0.214355 0.222046 0.012817
0.238525 0.222443 0.013031
0.263733 0.222839 0.013245
0.289703 0.223267 0.013458
0.316620 0.223663 0.013641
0.344513 0.224091 0.013855
0.373413 0.224487 0.014069
0.403290 0.224884 0.014282
0.434540 0.225311 0.014496
0.467346 0.225708 0.014709
0.501953 0.226135 0.014893
0.537689 0.226562 0.015137
0.573639 0.226990 0.015320
0.610138 0.227417 0.015533
0.647247 0.227844 0.015747
0.685272 0.228241 0.015961
0.724274 0.228638 0.016174
0.764679 0.229065 0.016388
0.807190 0.229492 0.016602
0.852631 0.229889 0.016846
0.903259 0.230316 0.017029
0.012726 0.242218 0.010986
0.025391 0.242645 0.011200
0.039642 0.243073 0.011383
0.055206 0.243500 0.011597
0.071930 0.243958 0.011810
0.089539 0.244354 0.011993
0.108093 0.244781 0.012238
0.127625 0.245239 0.012421
0.148132 0.245667 0.012604
0.169678 0.246094 0.012817
0.191925 0.246490 0.013031
0.215179 0.246948 0.013245
0.239380 0.247375 0.013428
0.264557 0.247833 0.013641
0.290588 0.248260 0.013855
0.317535 0.248657 0.014069
0.345490 0.249084 0.014282
0.374390 0.249512 0.014496
0.404327 0.249939 0.014709
0.435577 0.250366 0.014893
0.468475 0.250793 0.015106
0.503143 0.251251 0.015320
0.538818 0.251678 0.015533
0.574829 0.252136 0.015747
0.611359 0.252563 0.015961
0.648468 0.252991 0.016144
0.686523 0.253418 0.016388
0.725586 0.253876 0.016602
0.766052 0.254303 0.016815
0.808533 0.254730 0.017029
0.854156 0.255188 0.017273
0.904968 0.255615 0.017456
0.013153 0.268036 0.011383
0.025909 0.268524 0.011566
0.040192 0.268951 0.011780
0.055786 0.269379 0.011993
0.072540 0.269867 0.012207
0.090179 0.270294 0.012421
0.108765 0.270721 0.012604
0.128296 0.271179 0.012817
0.148865 0.271637 0.013031
0.170380 0.272064 0.013214
0.192688 0.272522 0.013428
0.215942 0.273010 0.013641
0.240204 0.273407 0.013824
0.265442 0.273865 0.014069
0.291443 0.274353 0.014252
0.318420 0.274780 0.014496
0.346405 0.275208 0.014709
0.375336 0.275665 0.014893
0.405334 0.276093 0.015106
0.436615 0.276520 0.015320
0.469574 0.277008 0.015503
0.504272 0.277466 0.015747
0.539978 0.277954 0.015930
0.575958 0.278351 0.016144
0.612457 0.278809 0.016388
0.649689 0.279297 0.016602
0.687775 0.279755 0.016815
0.726868 0.280212 0.017029
0.767395 0.280670 0.017242
0.809937 0.281097 0.017456
0.855682 0.281555 0.017670
0.906830 0.282013 0.017883
0.013580 0.294952 0.011780
0.026398 0.295410 0.011993
0.040680 0.295898 0.012177
0.056305 0.296356 0.012421
0.073120 0.296814 0.012604
0.090790 0.297272 0.012787
0.109375 0.297729 0.013000
0.128967 0.298218 0.013214
0.149597 0.298676 0.013428
0.171143 0.299164 0.013641
0.193451 0.299591 0.013824
0.216736 0.300079 0.014038
0.240997 0.300537 0.014252
0.266266 0.301025 0.014496
0.292328 0.301514 0.014709
0.319305 0.301971 0.014893
0.347321 0.302429 0.015106
0.376312 0.302856 0.015289
0.406342 0.303345 0.015503
0.437653 0.303833 0.015717
0.470642 0.304291 0.015930
0.505432 0.304749 0.016144
0.541168 0.305206 0.016357
0.577179 0.305695 0.016571
0.613647 0.306183 0.016815
0.650879 0.306641 0.016998
0.688965 0.307129 0.017212
0.728119 0.307617 0.017456
0.768677 0.308075 0.017670
0.811401 0.308594 0.017883
0.857239 0.309021 0.018097
0.908508 0.309509 0.018341
0.014038 0.322937 0.012177
0.026886 0.323395 0.012421
0.041229 0.323883 0.012573
0.056885 0.324371 0.012787
0.073700 0.324829 0.013000
0.091431 0.325317 0.013214
0.110046 0.325806 0.013428
0.129639 0.326294 0.013641
0.150299 0.326782 0.013824
0.171875 0.327271 0.014038
0.194214 0.327759 0.014252
0.217529 0.328247 0.014465
0.241821 0.328735 0.014709
0.267120 0.329193 0.014893
0.293213 0.329712 0.015106
0.320221 0.330200 0.015289
0.348236 0.330688 0.015503
0.377289 0.331146 0.015717
0.407318 0.331665 0.015930
0.438721 0.332123 0.016144
0.471741 0.332642 0.016357
0.506592 0.333099 0.016571
0.542328 0.333618 0.016815
0.578400 0.334106 0.016998
0.614868 0.334625 0.017212
0.652100 0.335114 0.017426
0.690216 0.335571 0.017670
0.729401 0.336090 0.017883
0.769989 0.336578 0.018097
0.812805 0.337097 0.018311
0.858826 0.337555 0.018524
0.910309 0.338043 0.018738
0.014465 0.351898 0.012573
0.027374 0.352386 0.012787
0.041779 0.352905 0.013000
0.057465 0.353394 0.013214
0.074310 0.353912 0.013397
0.092072 0.354401 0.013641
0.110718 0.354919 0.013824
0.130341 0.355408 0.014038
0.151001 0.355927 0.014252
0.172607 0.356445 0.014465
0.195007 0.356964 0.014679
0.218353 0.357452 0.014893
0.242645 0.357941 0.015106
0.267944 0.358459 0.015289
0.294098 0.358978 0.015503
0.321167 0.359436 0.015686
0.349213 0.359985 0.015930
0.378265 0.360474 0.016144
0.408295 0.360962 0.016357
0.439789 0.361481 0.016571
0.472870 0.361969 0.016815
0.507782 0.362488 0.016998
0.543518 0.363007 0.017212
0.579559 0.363495 0.017426
0.616089 0.364014 0.017670
0.653320 0.364532 0.017853
0.691437 0.365082 0.018097
0.730652 0.365570 0.018311
0.771362 0.366119 0.018524
0.814240 0.366638 0.018738
0.860321 0.367126 0.018982
0.912201 0.367645 0.019165
0.014893 0.381958 0.012970
0.027863 0.382446 0.013184
0.042328 0.382965 0.013397
0.058044 0.383484 0.013611
0.074921 0.384003 0.013824
0.092682 0.384583 0.014038
0.111389 0.385071 0.014252
0.131073 0.385620 0.014465
0.151733 0.386108 0.014648
0.173340 0.386688 0.014893
0.195770 0.387177 0.015076
0.219116 0.387726 0.015289
0.243469 0.388275 0.015472
0.268829 0.388794 0.015686
0.294983 0.389313 0.015930
0.322052 0.389832 0.016144
0.350159 0.390320 0.016357
0.379211 0.390869 0.016541
0.409332 0.391357 0.016785
0.440857 0.391937 0.016998
0.473999 0.392456 0.017212
0.508911 0.393005 0.017426
0.544678 0.393524 0.017670
0.580688 0.394073 0.017853
0.617279 0.394592 0.018066
0.654541 0.395111 0.018311
0.692688 0.395630 0.018524
0.731964 0.396179 0.018738
0.772675 0.396698 0.018951
0.815582 0.397247 0.019165
0.861908 0.397827 0.019409
0.913940 0.398315 0.019623
0.015350 0.413361 0.013397
0.028351 0.413879 0.013580
0.042847 0.414459 0.013824
0.058594 0.415009 0.014008
0.075500 0.415558 0.014221
0.093292 0.416107 0.014435
0.112030 0.416626 0.014648
0.131744 0.417206 0.014862
0.152435 0.417755 0.015076
0.174103 0.418304 0.015289
0.196533 0.418884 0.015472
0.219910 0.419464 0.015686
0.244293 0.419983 0.015900
0.269653 0.420532 0.016144
0.295868 0.421112 0.016357
0.322968 0.421631 0.016541
0.351074 0.422180 0.016785
0.380157 0.422760 0.016998
0.410339 0.423309 0.017212
0.441864 0.423889 0.017426
0.475067 0.424408 0.017639
0.510071 0.424988 0.017853
0.545807 0.425537 0.018066
0.581879 0.426117 0.018311
0.618500 0.426697 0.018494
0.655762 0.427246 0.018738
0.693970 0.427795 0.018951
0.733215 0.428375 0.019165
0.773987 0.428925 0.019379
0.817017 0.429474 0.019592
0.863434 0.430054 0.019836
0.915710 0.430603 0.020050
0.015778 0.446411 0.013794
0.028870 0.446960 0.014008
0.043365 0.447540 0.014221
0.059143 0.448120 0.014435
0.076111 0.448730 0.014648
0.093964 0.449341 0.014862
0.112671 0.449890 0.015076
0.132385 0.450470 0.015259
0.153137 0.451050 0.015472
0.174835 0.451630 0.015686
0.197296 0.452209 0.015900
0.220703 0.452820 0.016113
0.245178 0.453430 0.016327
0.270508 0.453979 0.016541
0.296753 0.454590 0.016754
0.323883 0.455139 0.016968
0.352020 0.455750 0.017212
0.381134 0.456299 0.017426
0.411346 0.456940 0.017639
0.442932 0.457489 0.017853
0.476135 0.458099 0.018066
0.511200 0.458679 0.018280
0.546997 0.459290 0.018494
0.583038 0.459869 0.018738
0.619690 0.460480 0.018951
0.656982 0.461060 0.019135
0.695221 0.461670 0.019379
0.734558 0.462280 0.019592
0.775360 0.462891 0.019836
0.818390 0.463470 0.020050
0.864990 0.464050 0.020264
0.917542 0.464661 0.020477
0.016235 0.481262 0.014221
0.029358 0.481903 0.014435
0.043915 0.482483 0.014648
0.059723 0.483124 0.014862
0.076691 0.483734 0.015045
0.094574 0.484314 0.015259
0.113342 0.484985 0.015472
0.133118 0.485596 0.015656
0.153839 0.486176 0.015900
0.175598 0.486816 0.016083
0.198090 0.487427 0.016327
0.221527 0.488068 0.016541
0.245972 0.488708 0.016754
0.271423 0.489288 0.016968
0.297638 0.489929 0.017181
0.324799 0.490540 0.017395
0.352966 0.491150 0.017639
0.382080 0.491791 0.017822
0.412354 0.492462 0.018066
0.444000 0.493011 0.018280
0.477325 0.493683 0.018494
0.512329 0.494293 0.018707
0.548126 0.494934 0.018921
0.584229 0.495544 0.019135
0.620850 0.496185 0.019379
0.658203 0.496857 0.019592
0.696472 0.497467 0.019806
0.735840 0.498077 0.020050
0.776703 0.498718 0.020264
0.819855 0.499329 0.020477
0.866547 0.500000 0.020691
0.919342 0.500641 0.020935
0.016693 0.517944 0.014648
0.029846 0.518585 0.014862
0.044495 0.519196 0.015045
0.060303 0.519897 0.015259
0.077301 0.520477 0.015442
0.095215 0.521149 0.015656
0.114014 0.521759 0.015900
0.133820 0.522400 0.016083
0.154602 0.523071 0.016296
0.176331 0.523712 0.016541
0.198853 0.524323 0.016754
0.222351 0.524994 0.016968
0.246826 0.525635 0.017151
0.272247 0.526276 0.017395
0.298523 0.526886 0.017609
0.325714 0.527527 0.017822
0.353943 0.528168 0.018066
0.383087 0.528778 0.018280
0.413391 0.529480 0.018494
0.445068 0.530090 0.018707
0.478424 0.530731 0.018921
0.513519 0.531372 0.019135
0.549286 0.531982 0.019348
0.585419 0.532654 0.019592
0.622070 0.533295 0.019806
0.659454 0.533936 0.020020
0.697693 0.534576 0.020264
0.737183 0.535187 0.020477
0.778046 0.535858 0.020691
0.821350 0.536530 0.020935
0.868103 0.537170 0.021118
0.921173 0.537842 0.021362
0.017120 0.555420 0.015045
0.030365 0.556091 0.015259
0.045013 0.556702 0.015442
0.060883 0.557343 0.015656
0.077911 0.558014 0.015900
0.095825 0.558655 0.016083
0.114655 0.559326 0.016296
0.134491 0.559937 0.016541
0.155304 0.560577 0.016754
0.177063 0.561249 0.016968
0.199615 0.561890 0.017151
0.223145 0.562531 0.017395
0.247650 0.563232 0.017609
0.273102 0.563873 0.017822
0.299377 0.564514 0.018036
0.326599 0.565125 0.018280
0.354858 0.565796 0.018494
0.384064 0.566437 0.018707
0.414398 0.567078 0.018921
0.446136 0.567749 0.019135
0.479523 0.568390 0.019348
0.514648 0.569031 0.019592
0.550476 0.569672 0.019806
0.586578 0.570343 0.020020
0.623199 0.570953 0.020264
0.660645 0.571686 0.020477
0.698975 0.572296 0.020691
0.738434 0.572968 0.020905
0.779388 0.573578 0.021118
0.822723 0.574219 0.021362
0.869690 0.574890 0.021576
0.923065 0.575531 0.021790
0.017609 0.593414 0.015442
0.030884 0.594055 0.015656
0.045502 0.594757 0.015869
0.061462 0.595398 0.016083
0.078491 0.596069 0.016296
0.096466 0.596710 0.016510
0.115326 0.597351 0.016724
0.135193 0.597992 0.016968
0.156036 0.598663 0.017151
0.177826 0.599335 0.017365
0.200409 0.600037 0.017609
0.223938 0.600677 0.017822
0.248444 0.601318 0.018036
0.273956 0.601959 0.018280
0.300293 0.602631 0.018463
0.327545 0.603271 0.018677
0.355835 0.604004 0.018890
0.385040 0.604614 0.019104
0.415375 0.605286 0.019348
0.447174 0.605927 0.019562
0.480621 0.606628 0.019806
0.515839 0.607269 0.020020
0.551636 0.607941 0.020233
0.587769 0.608612 0.020447
0.624420 0.609253 0.020691
0.661835 0.609955 0.020905
0.700195 0.610596 0.021118
0.739716 0.611267 0.021332
0.780762 0.611908 0.021576
0.824219 0.612579 0.021790
0.871216 0.613281 0.022034
0.924927 0.613922 0.022247
0.018036 0.632019 0.015869
0.031372 0.632721 0.016083
0.046082 0.633453 0.016296
0.062012 0.634094 0.016510
0.079102 0.634735 0.016724
0.097107 0.635468 0.016937
0.115967 0.636108 0.017151
0.135864 0.636780 0.017365
0.156708 0.637451 0.017609
0.178589 0.638123 0.017792
0.201172 0.638794 0.018036
0.224762 0.639526 0.018250
0.249298 0.640167 0.018463
0.274811 0.640839 0.018677
0.301178 0.641510 0.018890
0.328461 0.642181 0.019104
0.356750 0.642822 0.019348
0.385986 0.643494 0.019562
0.416412 0.644226 0.019806
0.448273 0.644867 0.019989
0.481750 0.645599 0.020203
0.516968 0.646210 0.020447
0.552795 0.646881 0.020660
0.588898 0.647552 0.020905
0.625610 0.648285 0.021118
0.663055 0.649017 0.021332
0.701477 0.649658 0.021576
0.740997 0.650299 0.021790
0.782135 0.651001 0.022003
0.825592 0.651642 0.022247
0.872833 0.652344 0.022461
0.926819 0.653015 0.022705
0.018494 0.671509 0.016266
0.031860 0.672241 0.016510
0.046631 0.672913 0.016693
0.062622 0.673645 0.016937
0.079712 0.674377 0.017151
0.097748 0.675049 0.017365
0.116638 0.675690 0.017578
0.136566 0.676392 0.017792
0.157471 0.677063 0.018036
0.179321 0.677826 0.018219
0.201965 0.678467 0.018463
0.225586 0.679199 0.018677
0.250122 0.679871 0.018890
0.275696 0.680603 0.019104
0.302063 0.681305 0.019318
0.329376 0.681976 0.019562
0.357666 0.682648 0.019775
0.386932 0.683350 0.019989
0.417450 0.683990 0.020203
0.449341 0.684723 0.020447
0.482880 0.685394 0.020660
0.518127 0.686157 0.020874
0.553955 0.686829 0.021118
0.590057 0.687531 0.021332
0.626831 0.688202 0.021545
0.664307 0.688965 0.021790
0.702698 0.689667 0.022003
0.742310 0.690338 0.022247
0.783478 0.691071 0.022461
0.827057 0.691711 0.022675
0.874420 0.692413 0.022919
0.928711 0.693085 0.023132
0.018951 0.712250 0.016693
0.032379 0.712921 0.016937
0.047180 0.713654 0.017120
0.063202 0.714355 0.017365
0.080322 0.715118 0.017578
0.098389 0.715790 0.017792
0.117340 0.716522 0.018005
0.137238 0.717224 0.018219
0.158173 0.717957 0.018433
0.180054 0.718658 0.018677
0.202728 0.719391 0.018890
0.226349 0.720123 0.019104
0.250946 0.720856 0.019318
0.276520 0.721558 0.019562
0.302948 0.722290 0.019745
0.330292 0.722961 0.019989
0.358643 0.723694 0.020203
0.387939 0.724426 0.020416
