Final/public/luts/Test2.CUBE
#Created by: Adobe Photoshop Export Color Lookup Plugin
TITLE "Test2"
#LUT size
LUT_3D_SIZE 32
#data domain
DOMAIN_MIN 0.0 0.0 0.0
DOMAIN_MAX 1.0 1.0 1.0
#LUT data points
0.054688 0.054688 0.054688
0.054688 0.054688 0.054688
0.054688 0.054688 0.054688
0.054688 0.054688 0.054688
0.065308 0.054688 0.054688
0.085297 0.054688 0.054688
0.106293 0.054688 0.054688
0.128387 0.054688 0.054688
0.151367 0.054688 0.054688
0.175598 0.054688 0.054688
0.200500 0.054688 0.054688
0.226410 0.054688 0.054688
0.253204 0.054688 0.054688
0.280914 0.054688 0.054688
0.309662 0.054688 0.054688
0.338989 0.054688 0.054688
0.369934 0.054688 0.054688
0.402527 0.054688 0.054688
0.437500 0.054688 0.054688
0.474670 0.054688 0.054688
0.514587 0.054688 0.054688
0.556122 0.054688 0.054688
0.599091 0.054688 0.054688
0.644012 0.054688 0.054688
0.690430 0.054688 0.054688
0.739258 0.054688 0.054688
0.790741 0.054688 0.054688
0.844452 0.054688 0.054688
0.900696 0.054688 0.054688
0.962982 0.054688 0.054688
1.000000 0.054688 0.054688
1.000000 0.054688 0.054688
0.054688 0.054688 0.054688
0.054688 0.054688 0.054688
0.054688 0.054688 0.054688
0.054688 0.054688 0.054688
0.064728 0.054688 0.054688
0.084900 0.054688 0.054688
0.106110 0.054688 0.054688
0.128143 0.054688 0.054688
0.151154 0.054688 0.054688
0.175354 0.054688 0.054688
0.200500 0.054688 0.054688
0.226410 0.054688 0.054688
0.253204 0.054688 0.054688
0.280914 0.054688 0.054688
0.309662 0.054688 0.054688
0.338989 0.054688 0.054688
0.369934 0.054688 0.054688
0.402527 0.054688 0.054688
0.437500 0.054688 0.054688
0.474731 0.054688 0.054688
0.514618 0.054688 0.054688
0.556152 0.054688 0.054688
0.599152 0.054688 0.054688
0.643982 0.054688 0.054688
0.690399 0.054688 0.054688
0.739166 0.054688 0.054688
0.790680 0.054688 0.054688
0.844421 0.054688 0.054688
0.900696 0.054688 0.054688
0.962982 0.054688 0.054688
1.000000 0.054688 0.054688
1.000000 0.054688 0.054688
0.054688 0.054688 0.054688
0.054688 0.054688 0.054688
0.054688 0.054688 0.054688
0.054688 0.054688 0.054688
0.064209 0.054688 0.054688
0.084137 0.054688 0.054688
0.105682 0.054688 0.054688
0.127930 0.054688 0.054688
0.150940 0.054688 0.054688
0.175110 0.054688 0.054688
0.200287 0.054688 0.054688
0.226379 0.054688 0.054688
0.253174 0.054688 0.054688
0.280884 0.054688 0.054688
0.309631 0.054688 0.054688
0.338989 0.054688 0.054688
0.369934 0.054688 0.054688
0.402527 0.054688 0.054688
0.437500 0.054688 0.054688
0.474731 0.054688 0.054688
0.514648 0.054688 0.054688
0.556183 0.054688 0.054688
0.599182 0.054688 0.054688
0.644012 0.054688 0.054688
0.690369 0.054688 0.054688
0.739136 0.054688 0.054688
0.790649 0.054688 0.054688
0.844330 0.054688 0.054688
0.900665 0.054688 0.054688
0.962982 0.054688 0.054688
1.000000 0.054688 0.054688
1.000000 0.054688 0.054688
0.054688 0.054688 0.054688
0.054688 0.054688 0.054688
0.054688 0.054688 0.054688
0.054688 0.054688 0.054688
0.063446 0.054688 0.054688
0.083466 0.054688 0.054688
0.104858 0.054688 0.054688
0.127502 0.054688 0.054688
0.150726 0.054688 0.054688
0.174866 0.054688 0.054688
0.200043 0.054688 0.054688
0.226166 0.054688 0.054688
0.253174 0.054688 0.054688
0.280884 0.054688 0.054688
0.309631 0.054688 0.054688
0.338989 0.054688 0.054688
0.369934 0.054688 0.054688
0.402527 0.054688 0.054688
0.437500 0.054688 0.054688
0.474731 0.054688 0.054688
0.514648 0.054688 0.054688
0.556244 0.054688 0.054688
0.599213 0.054688 0.054688
0.644043 0.054688 0.054688
0.690399 0.054688 0.054688
0.739105 0.054688 0.054688
0.790588 0.054688 0.054688
0.844299 0.054688 0.054688
0.900604 0.054688 0.054688
0.962982 0.054688 0.054688
1.000000 0.054688 0.054688
1.000000 0.054688 0.054688
0.054688 0.065186 0.054688
0.054688 0.064819 0.054688
0.054688 0.064484 0.054688
0.054688 0.064056 0.054688
0.062927 0.063599 0.054688
0.082886 0.063232 0.054688
0.104187 0.062592 0.054688
0.126831 0.061951 0.054688
0.150299 0.061310 0.054688
0.174652 0.060822 0.054688
0.199799 0.060577 0.054688
0.225800 0.060303 0.054688
0.252930 0.060059 0.054688
0.280853 0.059814 0.054688
0.309601 0.059814 0.054688
0.338989 0.059784 0.054688
0.369904 0.059784 0.054688
0.402527 0.059753 0.054688
0.437500 0.059753 0.054688
0.474731 0.059784 0.054688
0.514648 0.059784 0.054688
0.556244 0.059814 0.054688
0.599243 0.059814 0.054688
0.644073 0.059814 0.054688
0.690430 0.059814 0.054688
0.739136 0.059814 0.054688
0.790558 0.059814 0.054688
0.844208 0.059814 0.054688
0.900482 0.059814 0.054688
0.962860 0.059814 0.054688
1.000000 0.059814 0.054688
1.000000 0.059814 0.054688
0.054688 0.085175 0.054688
0.054688 0.084900 0.054688
0.054688 0.084503 0.054688
0.054688 0.083923 0.054688
0.062347 0.083557 0.054688
0.081543 0.082733 0.054688
0.102814 0.082062 0.054688
0.125153 0.081146 0.054688
0.148743 0.080383 0.054688
0.173065 0.079712 0.054688
0.198242 0.079224 0.054688
0.224243 0.078949 0.054688
0.251251 0.078705 0.054688
0.279419 0.078400 0.054688
0.308868 0.078247 0.054688
0.338501 0.078186 0.054688
0.369324 0.078125 0.054688
0.401978 0.078094 0.054688
0.437164 0.078033 0.054688
0.474731 0.078033 0.054688
0.514648 0.078125 0.054688
0.556244 0.078125 0.054688
0.599243 0.078247 0.054688
0.644104 0.078247 0.054688
0.690460 0.078247 0.054688
0.739166 0.078247 0.054688
0.790588 0.078247 0.054688
0.844208 0.078247 0.054688
0.900482 0.078247 0.054688
0.962860 0.078247 0.054688
1.000000 0.078247 0.054688
1.000000 0.078247 0.054688
0.054688 0.106171 0.054688
0.054688 0.106079 0.054688
0.054688 0.105835 0.054688
0.054688 0.105438 0.054688
0.061401 0.104858 0.054688
0.080322 0.103912 0.054688
0.100677 0.102600 0.054688
0.122894 0.101654 0.054688
0.146423 0.100891 0.054688
0.170715 0.100159 0.054688
0.195801 0.099457 0.054688
0.221832 0.098724 0.054688
0.248932 0.098419 0.054688
0.276764 0.098114 0.054688
0.306610 0.098083 0.054688
0.337646 0.098083 0.054688
0.368439 0.098053 0.054688
0.401062 0.098022 0.054688
0.436127 0.097992 0.054688
0.474365 0.097961 0.054688
0.514648 0.097992 0.054688
0.556244 0.097992 0.054688
0.599243 0.098022 0.054688
0.644104 0.098053 0.054688
0.690552 0.098053 0.054688
0.739258 0.098053 0.054688
0.790649 0.098053 0.054688
0.844238 0.098053 0.054688
0.900482 0.098053 0.054688
0.962860 0.098053 0.054688
1.000000 0.098053 0.054688
1.000000 0.098053 0.054688
0.054688 0.128296 0.054688
0.054688 0.128174 0.054688
0.054688 0.128052 0.054688
0.054688 0.127838 0.054688
0.060272 0.127380 0.054688
0.079285 0.126190 0.054688
0.099518 0.124817 0.054688
0.120880 0.123260 0.054688
0.144043 0.122406 0.054688
0.168427 0.121674 0.054688
0.193481 0.120911 0.054688
0.219543 0.119934 0.054688
0.246399 0.119415 0.054688
0.274170 0.119110 0.054688
0.303925 0.119049 0.054688
0.335052 0.119049 0.054688
0.367310 0.119080 0.054688
0.400055 0.119019 0.054688
0.434998 0.119019 0.054688
0.473267 0.118958 0.054688
0.514343 0.118927 0.054688
0.556183 0.118927 0.054688
0.599213 0.118958 0.054688
0.644073 0.118988 0.054688
0.690552 0.119019 0.054688
0.739288 0.119019 0.054688
0.790680 0.119019 0.054688
0.844330 0.119019 0.054688
0.900543 0.119019 0.054688
0.962860 0.119019 0.054688
1.000000 0.119019 0.054688
1.000000 0.119019 0.054688
0.054688 0.151337 0.054688
0.054688 0.151184 0.054688
0.054688 0.151093 0.054688
0.054688 0.150940 0.054688
0.059357 0.150726 0.054688
0.078125 0.149689 0.054688
0.098236 0.148041 0.054688
0.119537 0.146606 0.054688
0.141724 0.144958 0.054688
0.165985 0.144135 0.054688
0.190979 0.143341 0.054688
0.216919 0.142578 0.054688
0.243835 0.141479 0.054688
0.271545 0.141022 0.054688
0.301270 0.140930 0.054688
0.332275 0.140961 0.054688
0.364868 0.140961 0.054688
0.398834 0.140961 0.054688
0.433807 0.140930 0.054688
0.472198 0.140869 0.054688
0.513184 0.140869 0.054688
0.555817 0.140808 0.054688
0.599213 0.140808 0.054688
0.644073 0.140839 0.054688
0.690552 0.140869 0.054688
0.739288 0.140869 0.054688
0.790771 0.140869 0.054688
0.844421 0.140869 0.054688
0.900665 0.140869 0.054688
0.962921 0.140869 0.054688
1.000000 0.140869 0.054688
1.000000 0.140869 0.054688
0.054688 0.175598 0.054688
0.054688 0.175446 0.054688
0.054688 0.175323 0.054688
0.054688 0.175140 0.054688
0.058868 0.175018 0.054688
0.077026 0.174133 0.054688
0.097168 0.172394 0.054688
0.118408 0.170807 0.054688
0.140533 0.169189 0.054688
0.163605 0.167725 0.054688
0.188507 0.166687 0.054688
0.214386 0.165833 0.054688
0.241180 0.165039 0.054688
0.269135 0.163940 0.054688
0.298370 0.163727 0.054688
0.329315 0.163757 0.054688
0.361755 0.163788 0.054688
0.396057 0.163788 0.054688
0.432373 0.163788 0.054688
0.470337 0.163757 0.054688
0.511261 0.163696 0.054688
0.554138 0.163666 0.054688
0.598328 0.163605 0.054688
0.643768 0.163635 0.054688
0.690155 0.163635 0.054688
0.738922 0.163666 0.054688
0.790375 0.163696 0.054688
0.844452 0.163696 0.054688
0.900696 0.163696 0.054688
0.962982 0.163696 0.054688
1.000000 0.163696 0.054688
1.000000 0.163696 0.054688
0.054688 0.200500 0.054688
0.054688 0.200500 0.054688
0.054688 0.200378 0.054688
0.054688 0.200287 0.054688
0.058411 0.200104 0.054688
0.076294 0.199005 0.054688
0.095856 0.197418 0.054688
0.117004 0.195679 0.054688
0.139282 0.194092 0.054688
0.162323 0.192383 0.054688
0.186127 0.190979 0.054688
0.211853 0.189972 0.054688
0.238708 0.188995 0.054688
0.266510 0.188171 0.054688
0.294952 0.187958 0.054688
0.325226 0.187988 0.054688
0.357483 0.187988 0.054688
0.391235 0.187988 0.054688
0.427399 0.188019 0.054688
0.465698 0.187988 0.054688
0.506317 0.187958 0.054688
0.548767 0.187927 0.054688
0.593018 0.187897 0.054688
0.640411 0.187897 0.054688
0.687836 0.187897 0.054688
0.736450 0.187897 0.054688
0.787506 0.187927 0.054688
0.842133 0.187958 0.054688
0.900696 0.187958 0.054688
0.962982 0.187958 0.054688
1.000000 0.187958 0.054688
1.000000 0.187958 0.054688
0.054688 0.226410 0.054688
0.054688 0.226410 0.054688
0.054688 0.226410 0.054688
0.054688 0.226318 0.054688
0.057953 0.226135 0.054688
0.075867 0.224945 0.054688
0.095093 0.223358 0.054688
0.115845 0.221558 0.054688
0.137878 0.219971 0.054688
0.160828 0.218140 0.054688
0.184784 0.216675 0.054688
0.209625 0.215027 0.054688
0.236267 0.214081 0.054688
0.263855 0.213226 0.054688
0.292450 0.212982 0.054688
0.321686 0.213013 0.054688
0.352997 0.213013 0.054688
0.386780 0.213043 0.054688
0.422546 0.213043 0.054688
0.460663 0.213043 0.054688
0.501434 0.213043 0.054688
0.543701 0.213013 0.054688
0.587524 0.212952 0.054688
0.634766 0.212952 0.054688
0.684326 0.212952 0.054688
0.733673 0.212982 0.054688
0.784637 0.213013 0.054688
0.839233 0.213013 0.054688
0.898560 0.213013 0.054688
0.962982 0.213043 0.054688
1.000000 0.213043 0.054688
1.000000 0.213043 0.054688
0.054688 0.253204 0.054688
0.054688 0.253204 0.054688
0.054688 0.253204 0.054688
0.054688 0.253204 0.054688
0.057617 0.253082 0.054688
0.075470 0.251892 0.054688
0.094635 0.250214 0.054688
0.115051 0.248383 0.054688
0.136658 0.246674 0.054688
0.159576 0.244843 0.054688
0.183350 0.243317 0.054688
0.208069 0.241669 0.054688
0.233734 0.240112 0.054688
0.261230 0.239166 0.054688
0.289703 0.238922 0.054688
0.318878 0.238922 0.054688
0.349365 0.238953 0.054688
0.382294 0.238953 0.054688
0.417816 0.238983 0.054688
0.455322 0.238983 0.054688
0.495789 0.238983 0.054688
0.538635 0.238953 0.054688
0.582306 0.238922 0.054688
0.629211 0.238922 0.054688
0.678345 0.238922 0.054688
0.730103 0.238922 0.054688
0.782013 0.238953 0.054688
0.836304 0.238953 0.054688
0.895203 0.238983 0.054688
0.960266 0.239014 0.054688
1.000000 0.239014 0.054688
1.000000 0.239014 0.054688
0.054688 0.280914 0.054688
0.054688 0.280914 0.054688
0.054688 0.280914 0.054688
0.054688 0.280914 0.054688
0.057281 0.280914 0.054688
0.074890 0.279938 0.054688
0.094208 0.277985 0.054688
0.114532 0.276306 0.054688
0.135651 0.274384 0.054688
0.158295 0.272675 0.054688
0.181946 0.270935 0.054688
0.206726 0.269379 0.054688
0.232208 0.267639 0.054688
0.258850 0.266052 0.054688
0.287018 0.265808 0.054688
0.316345 0.265808 0.054688
0.346466 0.265839 0.054688
0.378479 0.265869 0.054688
0.412872 0.265869 0.054688
0.450226 0.265869 0.054688
0.490356 0.265869 0.054688
0.532867 0.265869 0.054688
0.577057 0.265869 0.054688
0.623840 0.265869 0.054688
0.672729 0.265869 0.054688
0.724152 0.265869 0.054688
0.778198 0.265900 0.054688
0.833282 0.265900 0.054688
0.891907 0.265930 0.054688
0.956604 0.265930 0.054688
1.000000 0.265961 0.054688
1.000000 0.265961 0.054688
0.054688 0.309662 0.054688
0.054688 0.309692 0.054688
0.054688 0.309692 0.054688
0.054688 0.309692 0.054688
0.057281 0.309692 0.054688
0.074799 0.309296 0.054688
0.094116 0.307495 0.054688
0.114319 0.305573 0.054688
0.135529 0.303772 0.054688
0.157745 0.301727 0.054688
0.181580 0.299652 0.054688
0.206238 0.297791 0.054688
0.231689 0.296173 0.054688
0.258179 0.294342 0.054688
0.286224 0.293823 0.054688
0.315247 0.293854 0.054688
0.345612 0.293884 0.054688
0.377350 0.293915 0.054688
0.411438 0.293945 0.054688
0.448425 0.293945 0.054688
0.488373 0.293945 0.054688
0.531158 0.293945 0.054688
0.575043 0.293945 0.054688
0.621674 0.293945 0.054688
0.670593 0.293976 0.054688
0.721863 0.293976 0.054688
0.775818 0.293976 0.054688
0.832306 0.293945 0.054688
0.891052 0.293945 0.054688
0.955658 0.293945 0.054688
1.000000 0.293976 0.054688
1.000000 0.293976 0.054688
0.054688 0.338989 0.054688
0.054688 0.339050 0.054688
0.054688 0.339081 0.054688
0.054688 0.339081 0.054688
0.057281 0.339081 0.054688
0.074799 0.338745 0.054688
0.094147 0.338165 0.054688
0.114380 0.336334 0.054688
0.135559 0.334503 0.054688
0.157776 0.332306 0.054688
0.181610 0.329742 0.054688
0.206238 0.327362 0.054688
0.231689 0.325470 0.054688
0.258179 0.323822 0.054688
0.286224 0.323242 0.054688
0.315155 0.323120 0.054688
0.345490 0.323151 0.054688
0.377197 0.323181 0.054688
0.411316 0.323212 0.054688
0.448212 0.323303 0.054688
0.488068 0.323303 0.054688
0.530579 0.323303 0.054688
0.574738 0.323303 0.054688
0.621338 0.323334 0.054688
0.670013 0.323364 0.054688
0.721313 0.323364 0.054688
0.775299 0.323395 0.054688
0.831726 0.323334 0.054688
0.890930 0.323273 0.054688
0.955658 0.323242 0.054688
1.000000 0.323273 0.054688
1.000000 0.323303 0.054688
0.054688 0.369934 0.054688
0.054688 0.369965 0.054688
0.054688 0.369995 0.054688
0.054688 0.370026 0.054688
0.057281 0.370026 0.054688
0.074799 0.369690 0.054688
0.094147 0.369019 0.054688
0.114471 0.368378 0.054688
0.135620 0.366364 0.054688
0.157898 0.364197 0.054688
0.181641 0.361481 0.054688
0.206299 0.358551 0.054688
0.231689 0.356079 0.054688
0.258179 0.354340 0.054688
0.286224 0.353607 0.054688
0.315155 0.353455 0.054688
0.345367 0.353302 0.054688
0.377075 0.353333 0.054688
0.411163 0.353363 0.054688
0.448059 0.353455 0.054688
0.487823 0.353546 0.054688
0.530212 0.353546 0.054688
0.574432 0.353546 0.054688
0.621002 0.353607 0.054688
0.669586 0.353729 0.054688
0.720764 0.353790 0.054688
0.774689 0.353851 0.054688
0.830902 0.353729 0.054688
0.890228 0.353546 0.054688
0.955383 0.353455 0.054688
1.000000 0.353424 0.054688
1.000000 0.353455 0.054688
0.054688 0.402527 0.054688
0.054688 0.402588 0.054688
0.054688 0.402649 0.054688
0.054688 0.402710 0.054688
0.057281 0.402832 0.054688
0.074799 0.402313 0.054688
0.094147 0.401642 0.054688
0.114471 0.401001 0.054688
0.135620 0.400269 0.054688
0.157928 0.398071 0.054688
0.181702 0.394958 0.054688
0.206360 0.391907 0.054688
0.231720 0.389130 0.054688
0.258209 0.386444 0.054688
0.286224 0.385864 0.054688
0.315155 0.385773 0.054688
0.345367 0.385651 0.054688
0.376953 0.385468 0.054688
0.411041 0.385559 0.054688
0.447937 0.385620 0.054688
0.487671 0.385712 0.054688
0.529938 0.385773 0.054688
0.574097 0.385773 0.054688
0.620575 0.385803 0.054688
0.669281 0.385864 0.054688
0.720398 0.385895 0.054688
0.774109 0.385925 0.054688
0.830170 0.385895 0.054688
0.889313 0.385803 0.054688
0.954681 0.385742 0.054688
1.000000 0.385620 0.054688
1.000000 0.385620 0.054688
0.054688 0.437500 0.054688
0.054688 0.437561 0.054688
0.054688 0.437622 0.054688
0.054688 0.437683 0.054688
0.057281 0.437714 0.054688
0.074799 0.437561 0.054688
0.094147 0.436768 0.054688
0.114471 0.436035 0.054688
0.135651 0.435303 0.054688
0.158051 0.433990 0.054688
0.181702 0.430756 0.054688
0.206421 0.427521 0.054688
0.231750 0.424377 0.054688
0.258209 0.421265 0.054688
0.286255 0.420044 0.054688
0.315186 0.419922 0.054688
0.345398 0.419800 0.054688
0.376984 0.419678 0.054688
0.410950 0.419556 0.054688
0.447845 0.419647 0.054688
0.487579 0.419708 0.054688
0.529846 0.419800 0.054688
0.573883 0.419861 0.054688
0.620361 0.419922 0.054688
0.669006 0.419952 0.054688
0.720093 0.419983 0.054688
0.773804 0.420013 0.054688
0.829773 0.420013 0.054688
0.888824 0.419952 0.054688
0.954132 0.419830 0.054688
1.000000 0.419739 0.054688
1.000000 0.419617 0.054688
0.054688 0.474670 0.054688
0.054688 0.474854 0.054688
0.054688 0.475006 0.054688
0.054688 0.475128 0.054688
0.057251 0.475220 0.054688
0.074768 0.475250 0.054688
0.094147 0.474915 0.054688
0.114471 0.473969 0.054688
0.135651 0.473206 0.054688
0.158051 0.472046 0.054688
0.181702 0.468842 0.054688
0.206451 0.465332 0.054688
0.231781 0.461914 0.054688
0.258240 0.458405 0.054688
0.286285 0.457428 0.054688
0.315277 0.457275 0.054688
0.345490 0.457153 0.054688
0.377075 0.457031 0.054688
0.411072 0.456940 0.054688
0.447845 0.456848 0.054688
0.487579 0.456970 0.054688
0.529846 0.457062 0.054688
0.573883 0.457123 0.054688
0.620361 0.457153 0.054688
0.669006 0.457214 0.054688
0.720093 0.457245 0.054688
0.773804 0.457306 0.054688
0.829773 0.457306 0.054688
0.888824 0.457245 0.054688
0.954132 0.457123 0.054688
1.000000 0.457031 0.054688
1.000000 0.456848 0.054688
0.054688 0.514587 0.054688
0.054688 0.514679 0.054688
0.054688 0.514862 0.054688
0.054688 0.514923 0.054688
0.057220 0.514984 0.054688
0.074768 0.515015 0.054688
0.094147 0.515015 0.054688
0.114471 0.514771 0.054688
0.135681 0.513977 0.054688
0.158051 0.512817 0.054688
0.181702 0.509338 0.054688
0.206451 0.505829 0.054688
0.231781 0.502228 0.054688
0.258240 0.498566 0.054688
0.286285 0.497467 0.054688
0.315308 0.497314 0.054688
0.345612 0.497040 0.054688
0.377197 0.496704 0.054688
0.411163 0.496613 0.054688
0.447968 0.496582 0.054688
0.487610 0.496552 0.054688
0.529846 0.496613 0.054688
0.573914 0.496704 0.054688
0.620392 0.496735 0.054688
0.669006 0.496918 0.054688
0.720093 0.496979 0.054688
0.773804 0.497101 0.054688
0.829773 0.497101 0.054688
0.888824 0.496918 0.054688
0.954132 0.496735 0.054688
1.000000 0.496613 0.054688
1.000000 0.496460 0.054688
0.054688 0.556122 0.054688
0.054688 0.556244 0.054688
0.054688 0.556396 0.054688
0.054688 0.556488 0.054688
0.057220 0.556580 0.054688
0.074768 0.556641 0.054688
0.094116 0.556641 0.054688
0.114471 0.556671 0.054688
0.135681 0.556396 0.054688
0.158051 0.555145 0.054688
0.181732 0.551605 0.054688
0.206451 0.548065 0.054688
0.231781 0.544495 0.054688
0.258240 0.540710 0.054688
0.286316 0.539612 0.054688
0.315308 0.539459 0.054688
0.345673 0.539307 0.054688
0.377350 0.539185 0.054688
0.411285 0.538971 0.054688
0.448059 0.538940 0.054688
0.487701 0.538910 0.054688
0.529877 0.538879 0.054688
0.573914 0.538971 0.054688
0.620392 0.539001 0.054688
0.669006 0.539124 0.054688
0.720093 0.539185 0.054688
0.773804 0.539215 0.054688
0.829773 0.539215 0.054688
0.888824 0.539124 0.054688
0.954132 0.539001 0.054688
1.000000 0.538910 0.054688
1.000000 0.538818 0.054688
0.054688 0.599091 0.054688
0.054688 0.599213 0.054688
0.054688 0.599335 0.054688
0.054688 0.599579 0.054688
0.057190 0.599823 0.054688
0.074738 0.599884 0.054688
0.094116 0.599976 0.054688
0.114441 0.599976 0.054688
0.135681 0.600006 0.054688
0.158112 0.599091 0.054688
0.181732 0.595367 0.054688
0.206451 0.591919 0.054688
0.231812 0.588257 0.054688
0.258240 0.584625 0.054688
0.286316 0.583252 0.054688
0.315308 0.583099 0.054688
0.345673 0.582977 0.054688
0.377380 0.582794 0.054688
0.411407 0.582672 0.054688
0.448212 0.582672 0.054688
0.487854 0.582581 0.054688
0.529968 0.582520 0.054688
0.573944 0.582489 0.054688
0.620392 0.582520 0.054688
0.669037 0.582581 0.054688
0.720123 0.582703 0.054688
0.773804 0.582733 0.054688
0.829773 0.582733 0.054688
0.888824 0.582581 0.054688
0.954132 0.582489 0.054688
1.000000 0.582428 0.054688
1.000000 0.582367 0.054688
0.054688 0.643860 0.054688
0.054688 0.644012 0.054688
0.054688 0.644104 0.054688
0.054688 0.644287 0.054688
0.057220 0.644379 0.054688
0.074707 0.644440 0.054688
0.094086 0.644440 0.054688
0.114380 0.644470 0.054688
0.135620 0.644470 0.054688
0.158051 0.644287 0.054688
0.181702 0.641815 0.054688
0.206421 0.638000 0.054688
0.231750 0.634186 0.054688
0.258179 0.630341 0.054688
0.286316 0.629181 0.054688
0.315338 0.629028 0.054688
0.345673 0.628876 0.054688
0.377411 0.628723 0.054688
0.411407 0.628601 0.054688
0.448212 0.628571 0.054688
0.487854 0.628479 0.054688
0.529968 0.628448 0.054688
0.573914 0.628418 0.054688
0.620392 0.628418 0.054688
0.669006 0.628448 0.054688
0.720093 0.628479 0.054688
0.773773 0.628571 0.054688
0.829773 0.628601 0.054688
0.888824 0.628571 0.054688
0.954132 0.628448 0.054688
1.000000 0.628387 0.054688
1.000000 0.628235 0.054688
0.054688 0.690216 0.054688
0.054688 0.690369 0.054688
0.054688 0.690430 0.054688
0.054688 0.690582 0.054688
0.057220 0.690918 0.054688
0.074707 0.690979 0.054688
0.094055 0.690979 0.054688
0.114319 0.690979 0.054688
0.135620 0.691071 0.054688
0.157990 0.690582 0.054688
0.181702 0.688934 0.054688
0.206299 0.686401 0.054688
0.231689 0.682373 0.054688
0.258118 0.678375 0.054688
0.286255 0.677216 0.054688
0.315338 0.677002 0.054688
0.345673 0.676819 0.054688
0.377411 0.676666 0.054688
0.411438 0.676483 0.054688
0.448151 0.676453 0.054688
0.487823 0.676422 0.054688
0.529938 0.676361 0.054688
0.573883 0.676300 0.054688
0.620361 0.676270 0.054688
0.668976 0.676270 0.054688
0.720062 0.676300 0.054688
0.773682 0.676361 0.054688
0.829712 0.676422 0.054688
0.888824 0.676453 0.054688
0.954132 0.676422 0.054688
1.000000 0.676270 0.054688
1.000000 0.676178 0.054688
0.054688 0.738892 0.054688
0.054688 0.738983 0.054688
0.054688 0.739136 0.054688
0.054688 0.739288 0.054688
0.057220 0.739471 0.054688
0.074707 0.739532 0.054688
0.094055 0.739532 0.054688
0.114319 0.739532 0.054688
0.135590 0.739532 0.054688
0.157928 0.739258 0.054688
0.181641 0.737488 0.054688
0.206238 0.735565 0.054688
0.231659 0.733063 0.054688
0.258057 0.728912 0.054688
0.286194 0.727600 0.054688
0.315277 0.727295 0.054688
0.345673 0.726898 0.054688
0.377411 0.726685 0.054688
0.411438 0.726593 0.054688
0.448212 0.726532 0.054688
0.487823 0.726440 0.054688
0.529907 0.726379 0.054688
0.573822 0.726379 0.054688
0.620300 0.726318 0.054688
0.668945 0.726318 0.054688
0.719971 0.726288 0.054688
0.773651 0.726318 0.054688
0.829681 0.726379 0.054688
0.888733 0.726410 0.054688
0.954132 0.726410 0.054688
1.000000 0.726379 0.054688
1.000000 0.726288 0.054688
0.054688 0.790253 0.054688
0.054688 0.790375 0.054688
0.054688 0.790497 0.054688
0.054688 0.790649 0.054688
0.057220 0.790771 0.054688
0.074738 0.790833 0.054688
0.094055 0.790833 0.054688
0.114319 0.790833 0.054688
0.135559 0.790833 0.054688
0.157898 0.790588 0.054688
0.181610 0.788422 0.054688
0.206116 0.786591 0.054688
0.231598 0.784424 0.054688
0.257996 0.781982 0.054688
0.286133 0.780365 0.054688
0.315247 0.780060 0.054688
0.345612 0.779846 0.054688
0.377411 0.779602 0.054688
0.411438 0.779449 0.054688
0.448212 0.779388 0.054688
0.487823 0.779297 0.054688
0.529907 0.779236 0.054688
0.573792 0.779205 0.054688
0.620270 0.779205 0.054688
0.668915 0.779144 0.054688
0.719940 0.779144 0.054688
0.773621 0.779083 0.054688
0.829590 0.779144 0.054688
0.888702 0.779205 0.054688
0.954071 0.779205 0.054688
1.000000 0.779236 0.054688
1.000000 0.779205 0.054688
0.054688 0.843903 0.054688
0.054688 0.843994 0.054688
0.054688 0.844086 0.054688
0.054688 0.844238 0.054688
0.057220 0.844421 0.054688
0.074707 0.844452 0.054688
0.094055 0.844452 0.054688
0.114258 0.844452 0.054688
0.135529 0.844452 0.054688
0.157837 0.844452 0.054688
0.181610 0.842712 0.054688
0.206116 0.840759 0.054688
0.231598 0.838470 0.054688
0.257996 0.836487 0.054688
0.286102 0.835876 0.054688
0.315186 0.835602 0.054688
0.345551 0.835327 0.054688
0.377380 0.834839 0.054688
