Final/public/luts/Test.CUBE
#Created by: Adobe Photoshop Export Color Lookup Plugin
TITLE "LUT1"
#LUT size
LUT_3D_SIZE 32
#data domain
DOMAIN_MIN 0.0 0.0 0.0
DOMAIN_MAX 1.0 1.0 1.0
#LUT data points
0.054688 0.054688 0.054688
0.054688 0.054688 0.054688
0.054688 0.054688 0.054688
0.054688 0.054688 0.054688
0.062347 0.054688 0.054688
0.083038 0.054688 0.054688
0.105743 0.054688 0.054688
0.129333 0.054688 0.054688
0.154236 0.054688 0.054688
0.180542 0.054688 0.054688
0.206848 0.054688 0.054688
0.233612 0.054688 0.054688
0.260376 0.054688 0.054688
0.287689 0.054688 0.054688
0.315613 0.054688 0.054688
0.343964 0.054688 0.054688
0.373016 0.054688 0.054688
0.403717 0.054688 0.054688
0.436157 0.054688 0.054688
0.470551 0.054688 0.054688
0.507416 0.054688 0.054688
0.545898 0.054688 0.054688
0.585114 0.054688 0.054688
0.625031 0.054688 0.054688
0.665955 0.054688 0.054688
0.708618 0.054688 0.054688
0.752960 0.054688 0.054688
0.799316 0.054688 0.054688
0.848541 0.054688 0.054688
0.900970 0.054688 0.054688
0.958557 0.054688 0.054688
1.000000 0.054688 0.054688
0.054688 0.054688 0.054688
0.054688 0.054688 0.054688
0.054688 0.054688 0.054688
0.054688 0.054688 0.054688
0.059052 0.054688 0.054688
0.078705 0.054688 0.054688
0.099915 0.054688 0.054688
0.122131 0.054688 0.054688
0.146240 0.054688 0.054688
0.171143 0.054688 0.054688
0.196869 0.054688 0.054688
0.223267 0.054688 0.054688
0.250336 0.054688 0.054688
0.278320 0.054688 0.054688
0.306915 0.054688 0.054688
0.335571 0.054688 0.054688
0.365143 0.054688 0.054688
0.396179 0.054688 0.054688
0.429718 0.054688 0.054688
0.464508 0.054688 0.054688
0.501831 0.054688 0.054688
0.540344 0.054688 0.054688
0.579803 0.054688 0.054688
0.620850 0.054688 0.054688
0.663422 0.054688 0.054688
0.706573 0.054688 0.054688
0.752838 0.054688 0.054688
0.800079 0.054688 0.054688
0.849884 0.054688 0.054688
0.903320 0.054688 0.054688
0.961243 0.054688 0.054688
1.000000 0.054688 0.054688
0.054688 0.054688 0.054688
0.054688 0.054688 0.054688
0.054688 0.054688 0.054688
0.054688 0.054688 0.054688
0.058105 0.054688 0.054688
0.076599 0.054688 0.054688
0.097107 0.054688 0.054688
0.118744 0.054688 0.054688
0.141632 0.054688 0.054688
0.166046 0.054688 0.054688
0.191345 0.054688 0.054688
0.217316 0.054688 0.054688
0.244232 0.054688 0.054688
0.272369 0.054688 0.054688
0.301514 0.054688 0.054688
0.330750 0.054688 0.054688
0.360321 0.054688 0.054688
0.391785 0.054688 0.054688
0.425323 0.054688 0.054688
0.461060 0.054688 0.054688
0.498688 0.054688 0.054688
0.537689 0.054688 0.054688
0.577667 0.054688 0.054688
0.618774 0.054688 0.054688
0.661591 0.054688 0.054688
0.706085 0.054688 0.054688
0.752808 0.054688 0.054688
0.801239 0.054688 0.054688
0.852386 0.054688 0.054688
0.906250 0.054688 0.054688
0.965302 0.054688 0.054688
1.000000 0.054688 0.054688
0.054688 0.054688 0.054688
0.054688 0.054688 0.054688
0.054688 0.054688 0.054688
0.054688 0.054688 0.054688
0.058624 0.054688 0.054688
0.076874 0.054688 0.054688
0.097198 0.054688 0.054688
0.118774 0.054688 0.054688
0.141479 0.054688 0.054688
0.165588 0.054688 0.054688
0.190826 0.054688 0.054688
0.216919 0.054688 0.054688
0.243591 0.054688 0.054688
0.271393 0.054688 0.054688
0.300446 0.054688 0.054688
0.330444 0.054688 0.054688
0.360535 0.054688 0.054688
0.391876 0.054688 0.054688
0.425354 0.054688 0.054688
0.461029 0.054688 0.054688
0.499146 0.054688 0.054688
0.538818 0.054688 0.054688
0.579163 0.054688 0.054688
0.620544 0.054688 0.054688
0.663483 0.054688 0.054688
0.708038 0.054688 0.054688
0.754517 0.054688 0.054688
0.803467 0.054688 0.054688
0.855225 0.054688 0.054688
0.910767 0.054688 0.054688
0.971191 0.054688 0.054688
1.000000 0.054688 0.054688
0.054688 0.057190 0.054688
0.054688 0.057465 0.054688
0.054688 0.057709 0.054688
0.054688 0.058014 0.054688
0.059265 0.058624 0.054688
0.077606 0.059052 0.054688
0.097900 0.059509 0.054688
0.119446 0.059937 0.054688
0.142242 0.060303 0.054688
0.166107 0.060699 0.054688
0.191345 0.061188 0.054688
0.217468 0.061493 0.054688
0.244110 0.061737 0.054688
0.271820 0.061890 0.054688
0.300781 0.061951 0.054688
0.330902 0.062012 0.054688
0.361694 0.061981 0.054688
0.393280 0.061951 0.054688
0.426514 0.061951 0.054688
0.462189 0.061859 0.054688
0.500305 0.061737 0.054688
0.540466 0.061615 0.054688
0.581482 0.061432 0.054688
0.623138 0.061371 0.054688
0.665955 0.061218 0.054688
0.710602 0.060974 0.054688
0.757507 0.060883 0.054688
0.806610 0.060791 0.054688
0.858612 0.060638 0.054688
0.914673 0.060547 0.054688
0.976715 0.060425 0.054688
1.000000 0.060455 0.054688
0.054688 0.075195 0.054688
0.054688 0.075653 0.054688
0.054688 0.076019 0.054688
0.054688 0.076447 0.054688
0.059937 0.076874 0.054688
0.078552 0.077423 0.054688
0.098633 0.077942 0.054688
0.120239 0.078705 0.054688
0.143066 0.079163 0.054688
0.166809 0.079620 0.054688
0.191925 0.080048 0.054688
0.218140 0.080444 0.054688
0.244843 0.080780 0.054688
0.272644 0.081024 0.054688
0.301361 0.081390 0.054688
0.331482 0.081635 0.054688
0.362579 0.081787 0.054688
0.394531 0.081818 0.054688
0.428131 0.081848 0.054688
0.463501 0.081909 0.054688
0.502045 0.081879 0.054688
0.542084 0.081848 0.054688
0.583435 0.081848 0.054688
0.625671 0.081787 0.054688
0.668884 0.081787 0.054688
0.713623 0.081757 0.054688
0.760468 0.081726 0.054688
0.809509 0.081726 0.054688
0.862000 0.081696 0.054688
0.918365 0.081665 0.054688
0.981079 0.081665 0.054688
1.000000 0.081635 0.054688
0.054688 0.094971 0.054688
0.054688 0.095428 0.054688
0.054688 0.095886 0.054688
0.054688 0.096527 0.054688
0.060669 0.097076 0.054688
0.079407 0.097595 0.054688
0.099762 0.098206 0.054688
0.121338 0.098755 0.054688
0.143982 0.099487 0.054688
0.167877 0.100067 0.054688
0.192749 0.100586 0.054688
0.218933 0.101044 0.054688
0.245880 0.101440 0.054688
0.273468 0.101807 0.054688
0.302124 0.102203 0.054688
0.332153 0.102570 0.054688
0.363251 0.102814 0.054688
0.396210 0.102966 0.054688
0.429565 0.103088 0.054688
0.465271 0.103149 0.054688
0.503418 0.103241 0.054688
0.543610 0.103302 0.054688
0.585175 0.103333 0.054688
0.628235 0.103394 0.054688
0.671661 0.103424 0.054688
0.716492 0.103424 0.054688
0.763214 0.103485 0.054688
0.812622 0.103485 0.054688
0.865265 0.103516 0.054688
0.921875 0.103546 0.054688
0.985168 0.103546 0.054688
1.000000 0.103577 0.054688
0.054688 0.116150 0.054688
0.054688 0.116638 0.054688
0.054688 0.117157 0.054688
0.054688 0.117828 0.054688
0.061737 0.118439 0.054688
0.080353 0.119019 0.054688
0.100769 0.119629 0.054688
0.122314 0.120239 0.054688
0.144928 0.121033 0.054688
0.168854 0.121674 0.054688
0.193878 0.122223 0.054688
0.220001 0.122803 0.054688
0.246765 0.123260 0.054688
0.274414 0.123901 0.054688
0.303223 0.124268 0.054688
0.333130 0.124603 0.054688
0.364441 0.124908 0.054688
0.397369 0.125183 0.054688
0.430969 0.125305 0.054688
0.466705 0.125488 0.054688
0.505219 0.125641 0.054688
0.545074 0.125763 0.054688
0.586731 0.125854 0.054688
0.629730 0.125916 0.054688
0.674042 0.126007 0.054688
0.719055 0.126068 0.054688
0.766144 0.126099 0.054688
0.815613 0.126190 0.054688
0.868134 0.126251 0.054688
0.925293 0.126282 0.054688
0.988892 0.126373 0.054688
1.000000 0.126495 0.054688
0.054688 0.138367 0.054688
0.054688 0.138885 0.054688
0.054688 0.139679 0.054688
0.054688 0.140198 0.054688
0.062653 0.140839 0.054688
0.081543 0.141449 0.054688
0.101837 0.142242 0.054688
0.123413 0.143005 0.054688
0.146210 0.143646 0.054688
0.169861 0.144257 0.054688
0.194916 0.144897 0.054688
0.220947 0.145721 0.054688
0.247803 0.146271 0.054688
0.275665 0.146759 0.054688
0.304138 0.147125 0.054688
0.334106 0.147552 0.054688
0.365326 0.147949 0.054688
0.398468 0.148407 0.054688
0.432526 0.148743 0.054688
0.468445 0.148987 0.054688
0.506744 0.149139 0.054688
0.546875 0.149323 0.054688
0.588440 0.149475 0.054688
0.631500 0.149597 0.054688
0.675934 0.149750 0.054688
0.721741 0.149872 0.054688
0.768982 0.149963 0.054688
0.818573 0.150055 0.054688
0.871155 0.150146 0.054688
0.928558 0.150238 0.054688
0.992676 0.150330 0.054688
1.000000 0.150421 0.054688
0.054688 0.161835 0.054688
0.054688 0.162445 0.054688
0.054688 0.163025 0.054688
0.054688 0.163635 0.054688
0.063660 0.164490 0.054688
0.082672 0.165131 0.054688
0.103119 0.165802 0.054688
0.124725 0.166504 0.054688
0.147308 0.167145 0.054688
0.171204 0.168121 0.054688
0.195984 0.168762 0.054688
0.222015 0.169434 0.054688
0.249084 0.169983 0.054688
0.276672 0.170532 0.054688
0.305145 0.171265 0.054688
0.334991 0.171692 0.054688
0.366241 0.172150 0.054688
0.399628 0.172577 0.054688
0.433746 0.172943 0.054688
0.469910 0.173157 0.054688
0.508362 0.173370 0.054688
0.548370 0.173553 0.054688
0.589966 0.173920 0.054688
0.632965 0.174225 0.054688
0.677765 0.174408 0.054688
0.724213 0.174530 0.054688
0.771301 0.174652 0.054688
0.821075 0.174774 0.054688
0.874207 0.174896 0.054688
0.931488 0.175018 0.054688
0.996216 0.175140 0.054688
1.000000 0.175262 0.054688
0.054688 0.186127 0.054688
0.054688 0.186981 0.054688
0.054688 0.187622 0.054688
0.054688 0.188263 0.054688
0.064941 0.188873 0.054688
0.083771 0.189514 0.054688
0.104279 0.190460 0.054688
0.125854 0.191162 0.054688
0.148651 0.191864 0.054688
0.172302 0.192535 0.054688
0.197296 0.193481 0.054688
0.223328 0.194214 0.054688
0.250153 0.194855 0.054688
0.277710 0.195404 0.054688
0.306427 0.195953 0.054688
0.335999 0.196686 0.054688
0.367188 0.197205 0.054688
0.400543 0.197662 0.054688
0.435120 0.198059 0.054688
0.471436 0.198364 0.054688
0.509888 0.198608 0.054688
0.549988 0.198914 0.054688
0.591278 0.199097 0.054688
0.634369 0.199371 0.054688
0.679413 0.199799 0.054688
0.725952 0.200012 0.054688
0.773804 0.200165 0.054688
0.823639 0.200317 0.054688
0.876556 0.200439 0.054688
0.934418 0.200592 0.054688
0.999298 0.200775 0.054688
1.000000 0.200928 0.054688
0.054688 0.211609 0.054688
0.054688 0.212311 0.054688
0.054688 0.213196 0.054688
0.054688 0.213837 0.054688
0.066101 0.214478 0.054688
0.085236 0.215149 0.054688
0.105682 0.216095 0.054688
0.127258 0.216766 0.054688
0.149841 0.217499 0.054688
0.173492 0.218262 0.054688
0.198547 0.219147 0.054688
0.224548 0.219971 0.054688
0.251282 0.220642 0.054688
0.279022 0.221222 0.054688
0.307465 0.221802 0.054688
0.337311 0.222595 0.054688
0.368439 0.223145 0.054688
0.401520 0.223663 0.054688
0.436279 0.224030 0.054688
0.472870 0.224426 0.054688
0.511261 0.224731 0.054688
0.551361 0.225006 0.054688
0.592896 0.225311 0.054688
0.636017 0.225708 0.054688
0.680817 0.226074 0.054688
0.727661 0.226349 0.054688
0.775635 0.226532 0.054688
0.825867 0.226715 0.054688
0.879242 0.226898 0.054688
0.937317 0.227051 0.054688
1.000000 0.227264 0.054688
1.000000 0.227448 0.054688
0.054688 0.238342 0.054688
0.054688 0.239227 0.054688
0.054688 0.239899 0.054688
0.054688 0.240570 0.054688
0.067596 0.241211 0.054688
0.086548 0.242004 0.054688
0.106934 0.242737 0.054688
0.128510 0.243500 0.054688
0.151093 0.244232 0.054688
0.175018 0.245026 0.054688
0.200073 0.245972 0.054688
0.226074 0.246765 0.054688
0.252655 0.247467 0.054688
0.280212 0.248108 0.054688
0.308624 0.248871 0.054688
0.338379 0.249573 0.054688
0.369598 0.250153 0.054688
0.402649 0.250671 0.054688
0.437622 0.251221 0.054688
0.474274 0.251648 0.054688
0.512909 0.252136 0.054688
0.552826 0.252563 0.054688
0.594360 0.252869 0.054688
0.637482 0.253174 0.054688
0.682251 0.253479 0.054688
0.729187 0.253754 0.054688
0.778046 0.254028 0.054688
0.828308 0.254242 0.054688
0.881836 0.254425 0.054688
0.939819 0.254639 0.054688
1.000000 0.254791 0.054688
1.000000 0.255005 0.054688
0.054688 0.265961 0.054688
0.054688 0.266663 0.054688
0.054688 0.267303 0.054688
0.054688 0.267975 0.054688
0.068787 0.268738 0.054688
0.088013 0.269501 0.054688
0.108459 0.270172 0.054688
0.130005 0.270905 0.054688
0.152649 0.271667 0.054688
0.176331 0.272675 0.054688
0.201324 0.273499 0.054688
0.227356 0.274323 0.054688
0.253845 0.274994 0.054688
0.281281 0.275909 0.054688
0.309967 0.276550 0.054688
0.339447 0.277222 0.054688
0.370605 0.277832 0.054688
0.403961 0.278564 0.054688
0.438995 0.279266 0.054688
0.475769 0.279755 0.054688
0.514221 0.280060 0.054688
0.554352 0.280426 0.054688
0.595703 0.280792 0.054688
0.639008 0.281158 0.054688
0.683777 0.281464 0.054688
0.730560 0.281830 0.054688
0.779572 0.282349 0.054688
0.830261 0.282654 0.054688
0.883820 0.282837 0.054688
0.942261 0.283020 0.054688
1.000000 0.283264 0.054688
1.000000 0.283478 0.054688
0.054688 0.294128 0.054688
0.054688 0.294830 0.054688
0.054688 0.295746 0.054688
0.054688 0.296356 0.054688
0.070404 0.296967 0.054688
0.089355 0.297607 0.054688
0.109772 0.298309 0.054688
0.131348 0.299316 0.054688
0.153992 0.300049 0.054688
0.177887 0.300903 0.054688
0.202881 0.301758 0.054688
0.228668 0.302887 0.054688
0.255035 0.303528 0.054688
0.282654 0.304230 0.054688
0.311005 0.304932 0.054688
0.340790 0.305695 0.054688
0.371918 0.306519 0.054688
0.405029 0.307251 0.054688
0.440094 0.307800 0.054688
0.476959 0.308319 0.054688
0.515442 0.308716 0.054688
0.555481 0.309296 0.054688
0.597046 0.309753 0.054688
0.640137 0.310120 0.054688
0.684967 0.310486 0.054688
0.731934 0.310852 0.054688
0.781097 0.311218 0.054688
0.832092 0.311493 0.054688
0.885925 0.311737 0.054688
0.944214 0.311981 0.054688
1.000000 0.312225 0.054688
1.000000 0.312592 0.054688
0.054688 0.323425 0.054688
0.054688 0.324066 0.054688
0.054688 0.324738 0.054688
0.054688 0.325348 0.054688
0.071716 0.325928 0.054688
0.090942 0.326813 0.054688
0.111267 0.327484 0.054688
0.132690 0.328247 0.054688
0.155579 0.329041 0.054688
0.179352 0.330109 0.054688
0.204193 0.330933 0.054688
0.230072 0.331787 0.054688
0.256378 0.332489 0.054688
0.283722 0.333466 0.054688
0.312103 0.334167 0.054688
0.341797 0.334839 0.054688
0.372955 0.335541 0.054688
0.406006 0.336334 0.054688
0.441071 0.337097 0.054688
0.477966 0.337646 0.054688
0.516632 0.338074 0.054688
0.556488 0.338501 0.054688
0.597961 0.338867 0.054688
0.641083 0.339264 0.054688
0.685852 0.339783 0.054688
0.732819 0.340332 0.054688
0.782104 0.340729 0.054688
0.833191 0.341003 0.054688
0.887299 0.341278 0.054688
0.945862 0.341553 0.054688
1.000000 0.341797 0.054688
1.000000 0.342041 0.054688
0.054688 0.353729 0.054688
0.054688 0.354462 0.054688
0.054688 0.355072 0.054688
0.055969 0.355652 0.054688
0.073303 0.356201 0.054688
0.092346 0.356873 0.054688
0.112823 0.357849 0.054688
0.134430 0.358551 0.054688
0.157074 0.359344 0.054688
0.181030 0.360229 0.054688
0.205475 0.361298 0.054688
0.231262 0.362122 0.054688
0.257538 0.362823 0.054688
0.284821 0.363556 0.054688
0.313446 0.364532 0.054688
0.342865 0.365265 0.054688
0.373993 0.366028 0.054688
0.407379 0.366760 0.054688
0.442139 0.367401 0.054688
0.479218 0.368225 0.054688
0.517639 0.368652 0.054688
0.557739 0.369080 0.054688
0.598999 0.369568 0.054688
0.642059 0.369965 0.054688
0.686920 0.370392 0.054688
0.733795 0.370850 0.054688
0.782959 0.371490 0.054688
0.834259 0.371826 0.054688
0.888611 0.372162 0.054688
0.947388 0.372467 0.054688
1.000000 0.372681 0.054688
1.000000 0.372986 0.054688
0.054688 0.385834 0.054688
0.054688 0.386414 0.054688
0.054688 0.386993 0.054688
0.057281 0.387604 0.054688
0.074799 0.388214 0.054688
0.094025 0.389099 0.054688
0.114471 0.389801 0.054688
0.136078 0.390564 0.054688
0.158813 0.391388 0.054688
0.182556 0.392517 0.054688
0.207245 0.393372 0.054688
0.232697 0.394135 0.054688
0.259003 0.394836 0.054688
0.286285 0.395813 0.054688
0.314575 0.396667 0.054688
0.344269 0.397461 0.054688
0.375397 0.398224 0.054688
0.408478 0.399078 0.054688
0.443420 0.399963 0.054688
0.480286 0.400543 0.054688
0.518677 0.401062 0.054688
0.558777 0.401520 0.054688
0.600250 0.401978 0.054688
0.643280 0.402435 0.054688
0.688049 0.403137 0.054688
0.734741 0.403595 0.054688
0.783905 0.404053 0.054688
0.835541 0.404449 0.054688
0.890228 0.404816 0.054688
0.948883 0.405121 0.054688
1.000000 0.405396 0.054688
1.000000 0.405701 0.054688
0.054688 0.419800 0.054688
0.054688 0.420532 0.054688
0.054688 0.421265 0.054688
0.058838 0.421844 0.054688
0.076477 0.422455 0.054688
0.095581 0.423096 0.054688
0.116150 0.423828 0.054688
0.137756 0.424927 0.054688
0.160461 0.425751 0.054688
0.184265 0.426605 0.054688
0.208527 0.427460 0.054688
0.233978 0.428497 0.054688
0.260223 0.429321 0.054688
0.287506 0.430084 0.054688
0.315979 0.430908 0.054688
0.345459 0.431946 0.054688
0.376648 0.432770 0.054688
0.409729 0.433624 0.054688
0.444489 0.434296 0.054688
0.481323 0.435211 0.054688
0.519989 0.435699 0.054688
0.559784 0.436218 0.054688
0.601257 0.436737 0.054688
0.644287 0.437225 0.054688
0.689026 0.437744 0.054688
0.735962 0.438202 0.054688
0.785065 0.438965 0.054688
0.836670 0.439392 0.054688
0.891479 0.439789 0.054688
0.950470 0.440125 0.054688
1.000000 0.440430 0.054688
1.000000 0.440796 0.054688
0.054688 0.455872 0.054688
0.054688 0.456665 0.054688
0.054688 0.457367 0.054688
0.060333 0.458008 0.054688
0.078186 0.458618 0.054688
0.097443 0.459259 0.054688
0.118011 0.460114 0.054688
0.139679 0.461121 0.054688
0.162201 0.462006 0.054688
0.185730 0.462860 0.054688
0.210205 0.463684 0.054688
0.235199 0.464752 0.054688
0.261444 0.465546 0.054688
0.288849 0.466370 0.054688
0.317291 0.467255 0.054688
0.346741 0.468384 0.054688
0.377838 0.469299 0.054688
0.411194 0.470154 0.054688
0.445648 0.470886 0.054688
0.482605 0.471802 0.054688
0.520996 0.472351 0.054688
0.560760 0.472870 0.054688
0.602234 0.473419 0.054688
0.645264 0.473969 0.054688
0.689941 0.474518 0.054688
0.736847 0.475311 0.054688
0.786072 0.475861 0.054688
0.837646 0.476349 0.054688
0.892639 0.476807 0.054688
0.951691 0.477173 0.054688
1.000000 0.477509 0.054688
1.000000 0.477844 0.054688
0.054688 0.494141 0.054688
0.054688 0.494720 0.054688
0.054688 0.495361 0.054688
0.062134 0.496033 0.054688
0.079987 0.496643 0.054688
0.099457 0.497620 0.054688
0.119751 0.498413 0.054688
0.141479 0.499268 0.054688
0.164032 0.500122 0.054688
0.187347 0.501160 0.054688
0.211517 0.502075 0.054688
0.236786 0.502869 0.054688
0.263000 0.503723 0.054688
0.290253 0.504913 0.054688
0.318512 0.505768 0.054688
0.348145 0.506744 0.054688
0.379303 0.507660 0.054688
0.412415 0.508850 0.054688
0.446930 0.509613 0.054688
0.483521 0.510315 0.054688
0.521881 0.510895 0.054688
0.561890 0.511505 0.054688
0.603058 0.512299 0.054688
0.646027 0.512939 0.054688
0.690918 0.513519 0.054688
0.737640 0.514099 0.054688
0.786835 0.514648 0.054688
0.838470 0.515228 0.054688
0.893585 0.515961 0.054688
0.952698 0.516327 0.054688
1.000000 0.516724 0.054688
1.000000 0.517120 0.054688
0.054688 0.534210 0.054688
0.054688 0.535126 0.054688
0.054688 0.535736 0.054688
0.063873 0.536346 0.054688
0.082031 0.536926 0.054688
0.101257 0.537689 0.054688
0.121826 0.538666 0.054688
0.143158 0.539429 0.054688
0.165680 0.540314 0.054688
0.188782 0.541046 0.054688
0.213074 0.542023 0.054688
0.238098 0.542938 0.054688
0.264343 0.543884 0.054688
0.291534 0.544739 0.054688
0.320038 0.545898 0.054688
0.349426 0.546844 0.054688
0.380554 0.547791 0.054688
0.413940 0.548798 0.054688
0.447876 0.549438 0.054688
0.484406 0.550385 0.054688
0.522797 0.551025 0.054688
0.562775 0.551636 0.054688
0.604187 0.552246 0.054688
0.647156 0.552856 0.054688
0.691772 0.553650 0.054688
0.738434 0.554321 0.054688
0.787567 0.554901 0.054688
0.839539 0.555450 0.054688
0.894714 0.555969 0.054688
0.953827 0.556427 0.054688
1.000000 0.556793 0.054688
1.000000 0.557465 0.054688
0.054688 0.575897 0.054688
0.054688 0.576782 0.054688
0.054688 0.577393 0.054688
0.065735 0.578003 0.054688
0.083771 0.578644 0.054688
0.103149 0.579285 0.054688
0.123840 0.580170 0.054688
0.144928 0.581055 0.054688
0.167053 0.581757 0.054688
0.190399 0.582489 0.054688
0.214478 0.583313 0.054688
0.239716 0.584412 0.054688
0.265930 0.585266 0.054688
0.293121 0.586243 0.054688
0.321411 0.587128 0.054688
0.350952 0.588409 0.054688
0.382080 0.589294 0.054688
0.415222 0.590332 0.054688
0.449097 0.590942 0.054688
0.485352 0.591766 0.054688
0.524017 0.592468 0.054688
0.563660 0.593079 0.054688
0.605042 0.593750 0.054688
0.647980 0.594360 0.054688
0.692596 0.594971 0.054688
0.739166 0.595642 0.054688
0.788330 0.596466 0.054688
0.840240 0.597046 0.054688
0.895477 0.597595 0.054688
0.954681 0.597992 0.054688
1.000000 0.598450 0.054688
1.000000 0.598877 0.054688
0.054688 0.619385 0.054688
0.054688 0.620087 0.054688
0.054688 0.620667 0.054688
0.067719 0.621307 0.054688
0.085815 0.621826 0.054688
0.105011 0.622467 0.054688
0.125214 0.623260 0.054688
0.146576 0.624054 0.054688
0.168732 0.624756 0.054688
0.191864 0.625458 0.054688
0.216156 0.626312 0.054688
0.241150 0.627411 0.054688
0.267334 0.628296 0.054688
0.294586 0.629211 0.054688
0.322998 0.630219 0.054688
0.352386 0.631378 0.054688
0.383423 0.632324 0.054688
0.416290 0.633301 0.054688
0.450317 0.633942 0.054688
0.486603 0.634644 0.054688
0.524872 0.635468 0.054688
0.564606 0.636108 0.054688
0.605957 0.636719 0.054688
0.648804 0.637390 0.054688
0.693451 0.638031 0.054688
0.740295 0.638855 0.054688
0.789398 0.639587 0.054688
0.841034 0.640167 0.054688
0.896301 0.640778 0.054688
0.955536 0.641144 0.054688
1.000000 0.641571 0.054688
1.000000 0.642029 0.054688
0.054688 0.664429 0.054688
0.054688 0.665009 0.054688
0.054688 0.665466 0.054688
0.069336 0.666016 0.054688
0.087555 0.666504 0.054688
0.106720 0.667450 0.054688
0.127045 0.667999 0.054688
0.148041 0.668701 0.054688
0.170197 0.669403 0.054688
0.193542 0.670105 0.054688
0.217621 0.671234 0.054688
0.242828 0.672089 0.054688
0.269043 0.672943 0.054688
0.296234 0.673920 0.054688
0.324493 0.675140 0.054688
0.354095 0.676117 0.054688
0.384613 0.677002 0.054688
0.417542 0.677917 0.054688
0.451355 0.678680 0.054688
0.487518 0.679474 0.054688
0.525909 0.680084 0.054688
0.565765 0.680786 0.054688
0.606873 0.681458 0.054688
0.649750 0.682098 0.054688
0.694275 0.683014 0.054688
0.741119 0.683716 0.054688
0.790192 0.684418 0.054688
0.841766 0.684967 0.054688
0.897034 0.685547 0.054688
0.956390 0.685974 0.054688
1.000000 0.686432 0.054688
1.000000 0.687042 0.054688
0.054688 0.711395 0.054688
0.054688 0.711945 0.054688
0.054779 0.712494 0.054688
0.071106 0.712952 0.054688
0.089111 0.713440 0.054688
0.108398 0.713928 0.054688
0.128479 0.714478 0.054688
0.149780 0.715393 0.054688
0.171936 0.716187 0.054688
0.195099 0.716919 0.054688
0.219330 0.717773 0.054688
0.244385 0.718597 0.054688
0.270569 0.719788 0.054688
0.297791 0.720734 0.054688
0.326050 0.721741 0.054688
0.355560 0.722626 0.054688
0.386261 0.723846 0.054688
0.418549 0.724670 0.054688
0.452332 0.725342 0.054688
0.488525 0.725983 0.054688
0.527069 0.726654 0.054688
0.566711 0.727600 0.054688
0.607971 0.728271 0.054688
0.650757 0.729034 0.054688
0.695465 0.729614 0.054688
0.742035 0.730347 0.054688
0.791077 0.730988 0.054688
0.842651 0.731934 0.054688
0.897858 0.732513 0.054688
0.957214 0.733002 0.054688
1.000000 0.733429 0.054688
1.000000 0.733887 0.054688
0.054688 0.760254 0.054688
0.054688 0.760864 0.054688
0.056122 0.761383 0.054688
0.072662 0.761841 0.054688
0.090759 0.762329 0.054688
0.109894 0.762817 0.054688
0.130219 0.763428 0.054688
0.151276 0.764160 0.054688
0.173462 0.765137 0.054688
0.196838 0.765900 0.054688
0.220917 0.766724 0.054688
0.246124 0.767548 0.054688
0.272339 0.768738 0.054688
0.299591 0.769714 0.054688
0.327728 0.770752 0.054688
0.357147 0.771698 0.054688
0.387634 0.772827 0.054688
0.419525 0.773590 0.054688
0.453552 0.774231 0.054688
0.489624 0.774933 0.054688
0.528107 0.775635 0.054688
0.567688 0.776367 0.054688
0.608978 0.777252 0.054688
0.651825 0.778046 0.054688
0.696381 0.778748 0.054688
0.742889 0.779449 0.054688
0.791962 0.780151 0.054688
0.843781 0.780884 0.054688
0.898926 0.781738 0.054688
0.958282 0.782166 0.054688
1.000000 0.782623 0.054688
1.000000 0.783142 0.054688
0.054688 0.810852 0.054688
0.054688 0.811340 0.054688
0.057434 0.811768 0.054688
0.074158 0.812256 0.054688
0.092316 0.812683 0.054688
0.111664 0.813232 0.054688
0.131836 0.813873 0.054688
0.153168 0.814850 0.054688
0.175323 0.815613 0.054688
0.198486 0.816406 0.054688
0.222778 0.817200 0.054688
0.247772 0.818390 0.054688
0.273956 0.819458 0.054688
0.301178 0.820404 0.054688
0.329376 0.821442 0.054688
0.358459 0.822571 0.054688
0.389038 0.823517 0.054688
0.420715 0.824158 0.054688
