Final/public/luts/Test.CUBE
#Created by: Adobe Photoshop Export Color Lookup Plugin
TITLE "LUT1"
#LUT size
LUT_3D_SIZE 5
#data domain
#LUT data points
DOMAIN_MIN 0.000000 0.000000 0.000000
DOMAIN_MAX 0.903226 0.903226 0.903226
0.054688 0.054688 0.054688
0.129333 0.054688 0.054688
0.315613 0.054688 0.054688
0.545898 0.054688 0.054688
0.848541 0.054688 0.054688
0.054688 0.116150 0.054688
0.122314 0.120239 0.054688
0.303223 0.124268 0.054688
0.545074 0.125763 0.054688
0.868134 0.126251 0.054688
0.054688 0.294128 0.054688
0.131348 0.299316 0.054688
0.311005 0.304932 0.054688
0.555481 0.309296 0.054688
0.885925 0.311737 0.054688
0.054688 0.534210 0.054688
0.143158 0.539429 0.054688
0.320038 0.545898 0.054688
0.562775 0.551636 0.054688
0.894714 0.555969 0.054688
0.054688 0.863708 0.054688
0.154968 0.867859 0.054688
0.331177 0.875061 0.054688
0.569824 0.880798 0.054688
0.900116 0.886902 0.054688
0.054688 0.054688 0.118622
0.126984 0.054688 0.119537
0.311798 0.054688 0.119537
0.546356 0.054688 0.119324
0.853485 0.054688 0.119690
0.054688 0.118164 0.119568
0.122894 0.122040 0.121155
0.305634 0.125366 0.121674
0.549072 0.126953 0.121704
0.873688 0.127472 0.122131
0.054688 0.298126 0.125549
0.130035 0.303040 0.125916
0.311432 0.308258 0.125885
0.557037 0.312073 0.125641
0.888306 0.314484 0.125885
0.054688 0.540192 0.131775
0.141083 0.544830 0.131775
0.319183 0.551086 0.131561
0.562347 0.556366 0.131378
0.894714 0.560425 0.131561
0.054688 0.870667 0.139832
0.153229 0.874756 0.139832
0.330139 0.881805 0.139740
0.568451 0.887207 0.139862
0.898895 0.892700 0.140167
0.054688 0.054688 0.290527
0.123413 0.054688 0.297424
0.308289 0.054688 0.300415
0.545074 0.054688 0.300964
0.858398 0.054688 0.301361
0.054688 0.120911 0.297729
0.122833 0.124451 0.302734
0.307281 0.127472 0.305481
0.551788 0.128662 0.306793
0.877625 0.129242 0.307404
0.054688 0.302704 0.307678
0.127777 0.307007 0.309937
0.311157 0.311798 0.311554
0.557587 0.315277 0.312500
0.889191 0.317505 0.313049
0.054688 0.546265 0.315094
0.138580 0.550720 0.316132
0.317902 0.556366 0.316895
0.561340 0.561432 0.317413
0.893463 0.565186 0.317810
0.054688 0.878082 0.322021
0.151123 0.882080 0.322357
0.328186 0.888458 0.322906
0.566803 0.893799 0.323303
0.896729 0.899078 0.323669
0.054688 0.054688 0.512787
0.123840 0.054688 0.528198
0.308624 0.054688 0.536163
0.547668 0.054688 0.538940
0.866302 0.054688 0.540405
0.054688 0.123535 0.531067
0.123962 0.126770 0.540710
0.308746 0.129517 0.547485
0.554230 0.130920 0.550507
0.880798 0.131561 0.551758
0.054688 0.305878 0.548065
0.127441 0.309967 0.552551
0.311554 0.314423 0.556763
0.558014 0.317749 0.559296
0.890076 0.319855 0.560455
0.054688 0.550537 0.559052
0.137451 0.554626 0.561096
0.317719 0.560150 0.563416
0.560638 0.564728 0.565186
0.892792 0.568176 0.566132
0.054688 0.883484 0.566986
0.150330 0.887451 0.567932
0.327057 0.893372 0.569397
0.565857 0.898804 0.570343
0.895355 0.903687 0.571014
0.054688 0.054688 0.816864
0.125275 0.054688 0.837372
0.310089 0.054688 0.849945
0.551758 0.054688 0.854950
0.873932 0.054688 0.857849
0.054688 0.127380 0.841034
0.125641 0.130432 0.854553
0.310730 0.133240 0.865112
0.556274 0.134644 0.870087
0.884155 0.135315 0.872437
0.054688 0.308746 0.864716
0.129150 0.312805 0.871582
0.313110 0.317017 0.878479
0.559052 0.320160 0.882782
0.891022 0.321960 0.884949
0.054688 0.553894 0.880280
0.138245 0.557617 0.883606
0.318878 0.562897 0.887756
0.561462 0.567108 0.890778
0.893066 0.570465 0.892639
0.054688 0.887085 0.890778
0.151001 0.890991 0.892365
0.327179 0.896484 0.894775
0.566193 0.901550 0.896515
0.895203 0.906189 0.898102
