Final/public/luts/Test2.CUBE
#Created by: Adobe Photoshop Export Color Lookup Plugin
TITLE "Test2"
#LUT size
LUT_3D_SIZE 8
#data domain
#LUT data points
DOMAIN_MIN 0.000000 0.000000 0.000000
DOMAIN_MAX 0.903226 0.903226 0.903226
0.054688 0.054688 0.054688
0.065308 0.054688 0.054688
0.151367 0.054688 0.054688
0.253204 0.054688 0.054688
0.369934 0.054688 0.054688
0.514587 0.054688 0.054688
0.690430 0.054688 0.054688
0.900696 0.054688 0.054688
0.054688 0.065186 0.054688
0.062927 0.063599 0.054688
0.150299 0.061310 0.054688
0.252930 0.060059 0.054688
0.369904 0.059784 0.054688
0.514648 0.059784 0.054688
0.690430 0.059814 0.054688
0.900482 0.059814 0.054688
0.054688 0.151337 0.054688
0.059357 0.150726 0.054688
0.141724 0.144958 0.054688
0.243835 0.141479 0.054688
0.364868 0.140961 0.054688
0.513184 0.140869 0.054688
0.690552 0.140869 0.054688
0.900665 0.140869 0.054688
0.054688 0.253204 0.054688
0.057617 0.253082 0.054688
0.136658 0.246674 0.054688
0.233734 0.240112 0.054688
0.349365 0.238953 0.054688
0.495789 0.238983 0.054688
0.678345 0.238922 0.054688
0.895203 0.238983 0.054688
0.054688 0.369934 0.054688
0.057281 0.370026 0.054688
0.135620 0.366364 0.054688
0.231689 0.356079 0.054688
0.345367 0.353302 0.054688
0.487823 0.353546 0.054688
0.669586 0.353729 0.054688
0.890228 0.353546 0.054688
0.054688 0.514587 0.054688
0.057220 0.514984 0.054688
0.135681 0.513977 0.054688
0.231781 0.502228 0.054688
0.345612 0.497040 0.054688
0.487610 0.496552 0.054688
0.669006 0.496918 0.054688
0.888824 0.496918 0.054688
0.054688 0.690216 0.054688
0.057220 0.690918 0.054688
0.135620 0.691071 0.054688
0.231689 0.682373 0.054688
0.345673 0.676819 0.054688
0.487823 0.676422 0.054688
0.668976 0.676270 0.054688
0.888824 0.676453 0.054688
0.054688 0.900269 0.054688
0.057220 0.900665 0.054688
0.135498 0.900696 0.054688
0.231659 0.896729 0.054688
0.345551 0.893311 0.054688
0.487823 0.892731 0.054688
0.668884 0.892609 0.054688
0.888641 0.892487 0.054688
0.054688 0.054688 0.065186
0.063690 0.054688 0.063690
0.150726 0.054688 0.061401
0.252777 0.054688 0.060089
0.370026 0.054688 0.059814
0.514832 0.054688 0.059814
0.690399 0.054688 0.059845
0.900604 0.054688 0.059875
0.054688 0.063568 0.062927
0.064911 0.064972 0.064911
0.151337 0.062897 0.062836
0.253113 0.060638 0.060638
0.369965 0.059967 0.059967
0.514832 0.059875 0.059875
0.690460 0.059875 0.059875
0.900482 0.059906 0.059875
0.054688 0.150665 0.059479
0.061737 0.151367 0.061737
0.146942 0.148499 0.062347
0.251312 0.143219 0.061493
0.369690 0.141113 0.060791
0.514709 0.140839 0.060699
0.690399 0.140869 0.060699
0.900452 0.140869 0.060638
0.054688 0.252899 0.057587
0.058411 0.253052 0.058319
0.139191 0.252136 0.059937
0.238739 0.243469 0.060120
0.358276 0.239471 0.060364
0.508698 0.238739 0.061096
0.689087 0.238800 0.061584
0.900482 0.238922 0.061676
0.054688 0.369965 0.057190
0.057434 0.369965 0.057404
0.136169 0.369720 0.058777
0.232819 0.362122 0.059387
0.347382 0.354828 0.059753
0.491760 0.353546 0.060577
0.675629 0.353455 0.061646
0.894226 0.353394 0.062134
0.054688 0.514771 0.057159
0.057281 0.514862 0.057281
0.135620 0.514832 0.058655
0.231720 0.510620 0.059540
0.345490 0.499390 0.059937
0.487823 0.496643 0.060791
0.669189 0.496796 0.061951
0.888641 0.496735 0.062744
0.054688 0.690582 0.057190
0.057281 0.690460 0.057281
0.135651 0.690674 0.058685
0.231720 0.689636 0.059753
0.345551 0.680725 0.060486
0.487823 0.676270 0.061493
0.669006 0.676270 0.062592
0.888824 0.676422 0.063446
0.054688 0.900696 0.057220
0.057281 0.900452 0.057281
0.135590 0.900665 0.058655
0.231659 0.900543 0.059814
0.345459 0.896179 0.060822
0.487823 0.892731 0.062012
0.669037 0.892639 0.063171
0.888641 0.892639 0.064301
0.054688 0.054688 0.151337
0.061401 0.054688 0.150726
0.144958 0.054688 0.144958
0.246674 0.054688 0.141449
0.366272 0.054688 0.140930
0.513824 0.054688 0.140961
0.690460 0.054688 0.140961
0.900604 0.054688 0.140930
0.054688 0.061371 0.150238
0.062805 0.062836 0.151337
0.148499 0.062958 0.148499
0.251953 0.061615 0.143280
0.369781 0.060791 0.141266
0.514954 0.060730 0.140930
0.690552 0.060699 0.140900
0.900482 0.060669 0.140900
0.054688 0.144867 0.141663
0.062408 0.148438 0.146942
0.150726 0.150909 0.150787
0.252899 0.146240 0.146240
0.369873 0.141968 0.141998
0.514771 0.141022 0.141052
0.690582 0.141022 0.141022
0.900543 0.141022 0.141022
0.054688 0.246857 0.136841
0.059875 0.251831 0.139191
0.143463 0.252899 0.143494
0.245972 0.248077 0.145050
0.367584 0.240631 0.143372
0.514374 0.238800 0.142975
0.690430 0.238922 0.143066
0.900482 0.238953 0.143036
0.054688 0.366302 0.135559
0.058868 0.369843 0.136261
0.137360 0.369781 0.137360
0.234497 0.368652 0.140106
0.350403 0.356720 0.140167
0.498596 0.353668 0.141693
0.683868 0.353485 0.143890
0.899170 0.353607 0.144745
0.054688 0.513794 0.135590
0.058685 0.514862 0.135620
0.135773 0.514771 0.135773
0.231781 0.514587 0.138611
0.345673 0.503937 0.139923
0.488251 0.497162 0.141296
0.670654 0.496674 0.143890
0.892242 0.496613 0.146179
0.054688 0.690430 0.135529
0.058624 0.690460 0.135590
0.135712 0.690552 0.135712
0.231781 0.690674 0.138641
0.345551 0.686127 0.140991
0.487823 0.677277 0.142853
0.669006 0.676270 0.145294
0.888641 0.676270 0.147522
0.054688 0.900482 0.135498
0.058624 0.900604 0.135620
0.135681 0.900543 0.135651
0.231720 0.900665 0.138641
0.345612 0.899719 0.141479
0.487762 0.895203 0.144043
0.669006 0.892639 0.146698
0.888550 0.892700 0.149200
0.054688 0.054688 0.252899
0.060059 0.054688 0.252899
0.141541 0.054688 0.246887
0.240173 0.054688 0.240173
0.356079 0.054688 0.238861
0.502228 0.054688 0.238983
0.682465 0.054688 0.239014
0.896820 0.054688 0.239014
0.054688 0.060089 0.252838
0.060669 0.060638 0.253143
0.143250 0.061646 0.251953
0.243500 0.060974 0.243469
0.362183 0.060791 0.239502
0.510651 0.061340 0.238861
0.689667 0.061615 0.238861
0.900543 0.061646 0.238800
0.054688 0.141571 0.243774
0.061523 0.143250 0.251465
0.146301 0.146301 0.253082
0.248291 0.146484 0.248260
0.368561 0.143646 0.240723
0.514496 0.143005 0.238953
0.690582 0.143005 0.238861
0.900604 0.143005 0.238922
0.054688 0.240143 0.233795
0.060120 0.243530 0.238708
0.145081 0.248230 0.246002
0.251648 0.251892 0.251648
0.369751 0.244324 0.244293
0.514679 0.239807 0.239807
0.690430 0.238983 0.238983
0.900482 0.239044 0.239014
0.054688 0.356140 0.231720
0.059387 0.362183 0.232758
0.140106 0.368622 0.234467
0.240082 0.369720 0.240082
0.359650 0.363007 0.242706
0.511566 0.355011 0.241760
0.689941 0.353546 0.242126
0.900452 0.353485 0.242188
0.054688 0.502106 0.231750
0.059662 0.510773 0.231689
0.138641 0.514587 0.231812
0.233337 0.514862 0.233307
0.347595 0.512909 0.237427
0.491180 0.499054 0.237946
0.675507 0.496674 0.241425
0.895630 0.496674 0.244415
0.054688 0.682343 0.231689
0.059784 0.689636 0.231659
0.138641 0.690369 0.231689
0.232056 0.690674 0.232056
0.345673 0.690369 0.236755
0.487885 0.680664 0.239288
0.668976 0.676208 0.242554
0.888489 0.676208 0.246277
0.054688 0.896698 0.231567
0.059814 0.900482 0.231628
0.138641 0.900452 0.231598
0.231903 0.900604 0.231873
0.345673 0.900696 0.236847
0.488007 0.897491 0.240967
0.669006 0.892731 0.244843
0.888489 0.892639 0.249054
0.054688 0.054688 0.369965
0.059753 0.054688 0.369781
0.140778 0.054688 0.366364
0.238922 0.054688 0.356140
0.353607 0.054688 0.353729
0.496735 0.054688 0.353790
0.676453 0.054688 0.353485
0.893219 0.054688 0.353546
0.054688 0.059814 0.369812
0.059998 0.059937 0.369843
0.141266 0.060852 0.369904
0.239563 0.060852 0.362244
0.354828 0.060638 0.354797
0.499420 0.061279 0.353546
0.680664 0.061920 0.353668
0.896332 0.062286 0.353607
0.054688 0.140961 0.364807
0.060852 0.141205 0.369659
0.141968 0.141968 0.370056
0.240692 0.143677 0.368469
0.356812 0.142334 0.356781
0.503937 0.142883 0.353729
0.686127 0.144196 0.353607
0.899811 0.144806 0.353729
0.054688 0.238953 0.349365
0.060425 0.239624 0.358521
0.143494 0.240662 0.367706
0.244324 0.244324 0.369720
0.363159 0.244751 0.363129
0.512878 0.242371 0.355042
0.690216 0.242126 0.353668
0.900665 0.242279 0.353607
0.054688 0.353729 0.345642
0.059753 0.354919 0.347412
0.140198 0.356812 0.350403
0.242767 0.363098 0.359680
0.368469 0.368805 0.368469
0.514648 0.357910 0.357880
0.690369 0.354156 0.354156
0.900391 0.353790 0.353790
0.054688 0.497101 0.345612
0.060028 0.499481 0.345551
0.139954 0.503937 0.345612
0.237427 0.512939 0.347504
0.351837 0.514709 0.351807
0.499664 0.505066 0.355103
0.686005 0.497620 0.356781
0.899506 0.496674 0.358246
0.054688 0.676727 0.345673
0.060638 0.680786 0.345673
0.141022 0.685974 0.345490
0.236755 0.690186 0.345612
0.346344 0.690582 0.346313
0.488708 0.687622 0.352142
0.670258 0.677124 0.355164
0.891052 0.676270 0.360443
0.054688 0.893433 0.345520
0.060883 0.896301 0.345490
0.141571 0.899536 0.345459
0.236755 0.900452 0.345459
0.345947 0.900482 0.345947
0.488007 0.899902 0.352570
0.669006 0.894440 0.358307
0.888550 0.892639 0.363770
0.054688 0.054688 0.515015
0.059784 0.054688 0.514709
0.140869 0.054688 0.513794
0.238861 0.054688 0.502228
0.353546 0.054688 0.496796
0.496735 0.054688 0.496796
0.676300 0.054688 0.496918
0.892365 0.054688 0.496368
0.054688 0.059875 0.514832
0.059875 0.059875 0.514862
0.140961 0.060760 0.514893
0.238739 0.061401 0.510773
0.353729 0.061310 0.499573
0.496704 0.061737 0.496735
0.676147 0.062286 0.496613
0.892639 0.062927 0.496704
0.054688 0.140961 0.513153
0.060730 0.140900 0.514709
0.141022 0.141022 0.514923
0.238983 0.143005 0.514526
0.353668 0.142853 0.503906
0.497101 0.143219 0.496918
0.677307 0.144775 0.496674
0.895325 0.146393 0.496735
0.054688 0.238861 0.495636
0.061096 0.238922 0.508820
0.142975 0.238922 0.514374
0.239777 0.239777 0.514862
0.354950 0.242279 0.512726
0.499268 0.240906 0.499176
0.680542 0.242828 0.496613
0.897400 0.244659 0.496704
0.054688 0.353790 0.487854
0.060516 0.353729 0.491821
0.141754 0.353790 0.498566
0.241699 0.354828 0.511444
0.357880 0.357910 0.514618
0.505005 0.358154 0.504944
0.687714 0.357635 0.497620
0.900024 0.358368 0.496735
0.054688 0.496643 0.487854
0.060791 0.496735 0.487946
0.141296 0.497223 0.488220
0.237946 0.499115 0.491241
0.355103 0.504944 0.499573
0.512665 0.499603 0.498993
0.690125 0.497589 0.497498
0.900330 0.497406 0.497314
0.054688 0.676422 0.487854
0.061554 0.676300 0.487976
0.142944 0.677307 0.487976
0.239288 0.680542 0.487854
0.352203 0.687775 0.488617
0.491638 0.690186 0.491638
0.674896 0.680145 0.496796
0.896576 0.672638 0.497772
0.054688 0.892792 0.488007
0.062073 0.892731 0.487946
0.144135 0.895203 0.487823
0.240936 0.897278 0.487854
0.352631 0.899902 0.488007
0.488495 0.900330 0.488495
0.669159 0.897369 0.497375
0.888885 0.889648 0.498138
0.054688 0.054688 0.690430
0.059814 0.054688 0.690582
0.140930 0.054688 0.690582
0.238953 0.054688 0.682587
0.353485 0.054688 0.676758
0.496613 0.054688 0.676270
0.676422 0.054688 0.676422
0.892853 0.054688 0.676422
0.054688 0.059875 0.690674
0.059875 0.059906 0.690613
0.140930 0.060730 0.690552
0.238739 0.061615 0.689514
0.353546 0.061920 0.680725
0.496796 0.062378 0.676422
0.676270 0.063049 0.676300
0.892487 0.063568 0.676056
0.054688 0.140991 0.690552
0.060699 0.140961 0.690552
0.141052 0.141052 0.690582
0.238983 0.143097 0.690582
0.353485 0.144196 0.686096
0.496704 0.144806 0.677246
0.676270 0.146484 0.676208
0.892639 0.147766 0.676178
0.054688 0.238953 0.678284
0.061584 0.238953 0.689178
0.142975 0.238739 0.690399
0.239044 0.239044 0.690582
0.353546 0.242035 0.690094
0.496704 0.242737 0.680542
0.676361 0.244446 0.676208
0.892609 0.246979 0.675995
0.054688 0.353546 0.669434
0.061646 0.353607 0.675629
0.143890 0.353485 0.683868
0.241821 0.353363 0.689911
0.354156 0.354126 0.690399
0.497589 0.357666 0.687714
0.677277 0.358093 0.677216
0.894348 0.361572 0.676178
0.054688 0.496674 0.668762
0.061920 0.496735 0.669006
0.143860 0.496674 0.670532
0.241455 0.496704 0.675507
0.356689 0.497406 0.685913
0.499420 0.497589 0.688812
0.680145 0.497589 0.677734
0.897766 0.497894 0.672333
0.054688 0.676056 0.668915
0.062592 0.676208 0.669006
0.145111 0.676270 0.669037
0.242584 0.676270 0.669037
0.355194 0.677124 0.670319
0.496704 0.680023 0.674561
0.692444 0.568054 0.566742
0.903412 0.561737 0.561646
0.054688 0.892700 0.668915
0.063141 0.892639 0.669128
0.146759 0.892700 0.669159
0.244904 0.892700 0.669189
0.358368 0.894409 0.669037
0.498077 0.897522 0.668640
0.677307 0.839111 0.557800
0.894043 0.828156 0.563110
0.054688 0.054688 0.900269
0.059875 0.054688 0.900665
0.140930 0.054688 0.900604
0.238922 0.054688 0.896942
0.353607 0.054688 0.893555
0.496613 0.054688 0.892792
0.676208 0.054688 0.892731
0.892853 0.054688 0.892853
0.054688 0.059875 0.900665
0.059875 0.059906 0.900482
0.140869 0.060699 0.900482
0.238739 0.061646 0.900391
0.353485 0.062286 0.896179
0.496674 0.062927 0.892700
0.676300 0.063660 0.892700
0.892609 0.064423 0.892639
0.054688 0.140991 0.900696
0.060699 0.140991 0.900543
0.141022 0.141022 0.900452
0.238861 0.143005 0.900604
0.353546 0.144775 0.899658
0.496704 0.146484 0.895172
0.676270 0.147919 0.892609
0.892639 0.149628 0.892639
0.054688 0.238861 0.895294
0.061707 0.238983 0.900604
0.143005 0.238800 0.900391
0.239075 0.239075 0.900482
0.353668 0.242279 0.900482
0.496796 0.244720 0.897278
0.676270 0.247040 0.892609
0.892639 0.249756 0.892639
0.054688 0.353546 0.890198
0.062256 0.353607 0.894257
0.144745 0.353546 0.899170
0.242188 0.353455 0.900330
0.353973 0.353973 0.900452
0.496552 0.358185 0.899750
0.676208 0.361481 0.894440
0.892700 0.365021 0.892639
0.054688 0.496643 0.888550
0.062775 0.496735 0.888611
0.146210 0.496613 0.892365
0.244385 0.496552 0.895752
0.358154 0.496552 0.899384
0.497345 0.497314 0.900391
0.676636 0.497894 0.895721
0.892944 0.498291 0.888977
0.054688 0.676147 0.888458
0.063507 0.676208 0.888611
0.147522 0.676270 0.888641
0.246429 0.676300 0.888702
0.360535 0.676300 0.891235
0.502808 0.672638 0.894562
0.684143 0.561798 0.837097
0.897034 0.564240 0.827423
0.054688 0.892487 0.888489
0.064270 0.892639 0.888611
0.149139 0.892639 0.888641
0.249207 0.892639 0.888641
0.363739 0.892700 0.888702
0.506012 0.889496 0.885803
0.686157 0.828125 0.823944
0.903717 0.761963 0.760651
