Final/public/luts/Test.CUBE
#Created by: Adobe Photoshop Export Color Lookup Plugin
TITLE "LUT1"
#LUT size
LUT_3D_SIZE 8
#data domain
#LUT data points
DOMAIN_MIN 0.000000 0.000000 0.000000
DOMAIN_MAX 0.903226 0.903226 0.903226
0.054688 0.054688 0.054688
0.062347 0.054688 0.054688
0.154236 0.054688 0.054688
0.260376 0.054688 0.054688
0.373016 0.054688 0.054688
0.507416 0.054688 0.054688
0.665955 0.054688 0.054688
0.848541 0.054688 0.054688
0.054688 0.057190 0.054688
0.059265 0.058624 0.054688
0.142242 0.060303 0.054688
0.244110 0.061737 0.054688
0.361694 0.061981 0.054688
0.500305 0.061737 0.054688
0.665955 0.061218 0.054688
0.858612 0.060638 0.054688
0.054688 0.138367 0.054688
0.062653 0.140839 0.054688
0.146210 0.143646 0.054688
0.247803 0.146271 0.054688
0.365326 0.147949 0.054688
0.506744 0.149139 0.054688
0.675934 0.149750 0.054688
0.871155 0.150146 0.054688
0.054688 0.238342 0.054688
0.067596 0.241211 0.054688
0.151093 0.244232 0.054688
0.252655 0.247467 0.054688
0.369598 0.250153 0.054688
0.512909 0.252136 0.054688
0.682251 0.253479 0.054688
0.881836 0.254425 0.054688
0.054688 0.353729 0.054688
0.073303 0.356201 0.054688
0.157074 0.359344 0.054688
0.257538 0.362823 0.054688
0.373993 0.366028 0.054688
0.517639 0.368652 0.054688
0.686920 0.370392 0.054688
0.888611 0.372162 0.054688
0.054688 0.494141 0.054688
0.079987 0.496643 0.054688
0.164032 0.500122 0.054688
0.263000 0.503723 0.054688
0.379303 0.507660 0.054688
0.521881 0.510895 0.054688
0.690918 0.513519 0.054688
0.893585 0.515961 0.054688
0.054688 0.664429 0.054688
0.087555 0.666504 0.054688
0.170197 0.669403 0.054688
0.269043 0.672943 0.054688
0.384613 0.677002 0.054688
0.525909 0.680084 0.054688
0.694275 0.683014 0.054688
0.897034 0.685547 0.054688
0.054688 0.863708 0.054688
0.094116 0.865936 0.054688
0.177216 0.868927 0.054688
0.275909 0.872864 0.054688
0.389954 0.876678 0.054688
0.529999 0.880035 0.054688
0.698090 0.883606 0.054688
0.900116 0.886902 0.054688
0.054688 0.054688 0.058563
0.063080 0.054688 0.058228
0.153839 0.054688 0.058105
0.258087 0.054688 0.057556
0.372681 0.054688 0.057007
0.507874 0.054688 0.056793
0.668335 0.054688 0.056824
0.851562 0.054688 0.057190
0.054688 0.057556 0.057922
0.059723 0.058960 0.058228
0.143585 0.060577 0.058624
0.246063 0.061829 0.058258
0.363647 0.061981 0.057739
0.503204 0.061646 0.057434
0.668945 0.061218 0.057343
0.862488 0.060669 0.057495
0.054688 0.139343 0.059998
0.062683 0.141510 0.060211
0.146881 0.144165 0.060120
0.249237 0.146667 0.059753
0.367126 0.148407 0.059082
0.508942 0.149445 0.058350
0.678314 0.150116 0.057922
0.874390 0.150574 0.057983
0.054688 0.239990 0.062225
0.066772 0.242706 0.062164
0.151062 0.245728 0.061920
0.253174 0.248566 0.061310
0.370667 0.251129 0.060333
0.514160 0.253113 0.059570
0.684418 0.254333 0.059113
0.883789 0.255463 0.059113
0.054688 0.355957 0.064697
0.072052 0.358521 0.064514
0.156586 0.361633 0.064117
0.257416 0.364929 0.063416
0.374573 0.368011 0.062653
0.518188 0.370239 0.061951
0.688080 0.372253 0.061615
0.890015 0.373657 0.061554
0.054688 0.497406 0.067810
0.078918 0.499817 0.067627
0.163086 0.503204 0.067322
0.262451 0.506714 0.066772
0.379272 0.510559 0.066132
0.521820 0.513580 0.065704
0.691345 0.516083 0.065521
0.894226 0.518188 0.065460
0.054688 0.667725 0.071625
0.086334 0.669769 0.071503
0.169312 0.672546 0.071320
0.268219 0.676056 0.071045
0.384186 0.679993 0.070648
0.525421 0.682953 0.070496
0.694092 0.685547 0.070374
0.896790 0.688202 0.070435
0.054688 0.867340 0.076385
0.093262 0.869629 0.076294
0.176270 0.872284 0.076172
0.275116 0.876221 0.075989
0.389313 0.880157 0.075836
0.529358 0.883423 0.075775
0.697723 0.886902 0.075775
0.899536 0.890076 0.075867
0.054688 0.054688 0.140839
0.060913 0.054688 0.141174
0.150421 0.054688 0.142761
0.255524 0.054688 0.142944
0.370636 0.054688 0.142853
0.507324 0.054688 0.142792
0.669464 0.054688 0.142853
0.854004 0.054688 0.143036
0.054688 0.058685 0.139832
0.059418 0.059967 0.141022
0.144135 0.061615 0.142487
0.247162 0.062592 0.143097
0.365479 0.062744 0.143402
0.505707 0.062378 0.143555
0.671844 0.062012 0.143829
0.866150 0.061615 0.144226
0.054688 0.141083 0.143158
0.061554 0.143433 0.144135
0.146759 0.145935 0.144958
0.249756 0.148041 0.145660
0.368469 0.149780 0.145844
0.510468 0.150604 0.145966
0.680450 0.151184 0.146118
0.876678 0.151703 0.146454
0.054688 0.242371 0.146912
0.065002 0.244812 0.147430
0.150421 0.247589 0.147858
0.253143 0.250519 0.148102
0.371521 0.253052 0.148163
0.514893 0.254608 0.148163
0.685577 0.255981 0.148346
0.885132 0.256866 0.148743
0.054688 0.358765 0.150452
0.070282 0.361267 0.150696
0.155548 0.364014 0.150848
0.256866 0.367188 0.150940
0.374634 0.370148 0.150940
0.518311 0.372559 0.150879
0.688629 0.374115 0.150940
0.890564 0.375702 0.151184
0.054688 0.500763 0.154144
0.077179 0.503265 0.154236
0.161896 0.506531 0.154327
0.261383 0.509949 0.154327
0.378967 0.513672 0.154266
0.521454 0.516510 0.154236
0.691315 0.518677 0.154327
0.893890 0.520905 0.154510
0.054688 0.671417 0.158478
0.085052 0.673370 0.158539
0.168152 0.676056 0.158569
0.267303 0.679504 0.158569
0.383575 0.683350 0.158539
0.524658 0.685944 0.158600
0.693665 0.688660 0.158722
0.896179 0.691223 0.158936
0.054688 0.871704 0.163147
0.091888 0.873901 0.163177
0.175171 0.876556 0.163177
0.274231 0.880524 0.163208
0.388062 0.884186 0.163239
0.528473 0.887451 0.163330
0.696991 0.890808 0.163483
0.898651 0.893585 0.163696
0.054688 0.054688 0.237488
0.060181 0.054688 0.240082
0.147858 0.054688 0.243195
0.253174 0.054688 0.244446
0.368530 0.054688 0.244781
0.506348 0.054688 0.244934
0.669678 0.054688 0.245087
0.856995 0.054688 0.245331
0.054688 0.059479 0.239075
0.059326 0.060699 0.241699
0.144745 0.062225 0.244324
0.248108 0.063141 0.246002
0.366760 0.063293 0.246796
0.507538 0.062988 0.247223
0.674133 0.062683 0.247559
0.869385 0.062347 0.248016
0.054688 0.142944 0.243896
0.060181 0.144989 0.246155
0.146637 0.147369 0.247864
0.250183 0.149536 0.249390
0.369293 0.150970 0.250061
0.511597 0.152008 0.250427
0.682007 0.152527 0.250732
0.878845 0.152924 0.251099
0.054688 0.244598 0.249237
0.062866 0.247070 0.250397
0.149567 0.249786 0.251526
0.252899 0.252625 0.252655
0.371796 0.254730 0.253235
0.515259 0.256439 0.253510
0.686401 0.257507 0.253784
0.886322 0.258331 0.254059
0.054688 0.361603 0.253540
0.067993 0.363708 0.254242
0.154205 0.366638 0.254913
0.256165 0.369690 0.255707
0.374390 0.372620 0.256134
0.518097 0.374695 0.256378
0.688751 0.376343 0.256592
0.890686 0.377594 0.256836
0.054688 0.504028 0.257446
0.075470 0.506744 0.257843
0.160248 0.509796 0.258240
0.260498 0.513153 0.258850
0.378387 0.516724 0.259155
0.520752 0.519257 0.259308
0.690674 0.521545 0.259491
0.893311 0.523590 0.259674
0.054688 0.674988 0.261200
0.083344 0.676941 0.261353
0.166626 0.679504 0.261536
0.266418 0.682892 0.261780
0.382812 0.686310 0.262085
0.523865 0.689026 0.262329
0.693054 0.691711 0.262451
0.895355 0.693787 0.262634
0.054688 0.875916 0.265015
0.090790 0.878082 0.265106
0.174225 0.880646 0.265381
0.273468 0.884552 0.265686
0.387054 0.887970 0.265808
0.527588 0.891235 0.265900
0.696259 0.894470 0.266022
0.897369 0.897125 0.266205
0.054688 0.054688 0.346130
0.060364 0.054688 0.351562
0.146942 0.054688 0.356293
0.251160 0.054688 0.358948
0.367310 0.054688 0.360046
0.506653 0.054688 0.360626
0.670380 0.054688 0.361298
0.860962 0.054688 0.361694
0.054688 0.060181 0.351501
0.059631 0.061493 0.355957
0.145691 0.062714 0.359955
0.249329 0.063568 0.362640
0.368256 0.063812 0.363983
0.509430 0.063599 0.364838
0.676666 0.063385 0.365326
0.872009 0.063171 0.365784
0.054688 0.144348 0.358582
0.059509 0.146576 0.361938
0.146881 0.148773 0.364777
0.250671 0.150665 0.366760
0.370087 0.152283 0.368286
0.512878 0.153046 0.368896
0.683533 0.153625 0.369385
0.880432 0.153992 0.369751
0.054688 0.246643 0.365417
0.061310 0.249084 0.367249
0.149231 0.251434 0.369263
0.252869 0.254059 0.370728
0.372253 0.256378 0.372070
0.515869 0.257751 0.372650
0.687378 0.259125 0.373108
0.887024 0.259857 0.373383
0.054688 0.363647 0.370667
0.066223 0.366028 0.371979
0.153503 0.368835 0.373199
0.255707 0.371704 0.374146
0.374329 0.374298 0.375275
0.517975 0.376434 0.375732
0.688934 0.378021 0.376129
0.890686 0.379303 0.376434
0.054688 0.507050 0.375488
0.074036 0.509644 0.376221
0.159180 0.512543 0.376892
0.259827 0.515656 0.377563
0.377716 0.519043 0.378448
0.520233 0.521606 0.378784
0.690399 0.523926 0.379089
0.892853 0.525635 0.379364
0.054688 0.678009 0.379639
0.082123 0.680054 0.379974
0.165588 0.682373 0.380402
0.265717 0.685730 0.380890
0.382202 0.689240 0.381348
0.522797 0.691803 0.381592
0.692505 0.694122 0.382080
0.894470 0.696411 0.382324
0.054688 0.879822 0.383270
0.089569 0.881989 0.383514
0.173065 0.884552 0.383850
0.272766 0.888367 0.384216
0.386108 0.891724 0.384521
0.526398 0.894836 0.384766
0.695526 0.897766 0.385071
0.896179 0.900543 0.385468
0.054688 0.054688 0.475525
0.061035 0.054688 0.484375
0.147034 0.054688 0.491516
0.250763 0.054688 0.495758
0.367737 0.054688 0.498077
0.508118 0.054688 0.499268
0.672363 0.054688 0.499969
0.865234 0.054688 0.500824
0.054688 0.061432 0.484680
0.060211 0.062531 0.491577
0.146667 0.063660 0.497528
0.250305 0.064728 0.501648
0.369507 0.065063 0.504028
0.510986 0.064941 0.505554
0.678986 0.064819 0.506409
0.874969 0.064728 0.507050
0.054688 0.146118 0.494568
0.059631 0.147949 0.499512
0.147430 0.150085 0.503784
0.251373 0.152100 0.507416
0.371033 0.153503 0.509979
0.513947 0.154266 0.511169
0.684753 0.154907 0.512268
0.882294 0.155426 0.512848
0.054688 0.248383 0.503967
0.060638 0.250641 0.507172
0.149475 0.253174 0.510315
0.253174 0.255707 0.513123
0.372772 0.257721 0.515015
0.516449 0.259308 0.516357
0.688080 0.260376 0.517181
0.887817 0.261108 0.517670
0.054688 0.365662 0.511444
0.065674 0.367859 0.513428
0.153503 0.370392 0.515503
0.255768 0.373169 0.517456
0.374756 0.375977 0.519043
0.518066 0.377747 0.520203
0.689240 0.379456 0.520935
0.890930 0.380554 0.521423
0.054688 0.509430 0.517487
0.073639 0.511719 0.518677
0.158722 0.514465 0.520111
0.259674 0.517578 0.521362
0.377747 0.521057 0.522614
0.520081 0.523560 0.523590
0.690399 0.525574 0.524139
0.892609 0.527496 0.524628
0.054688 0.680450 0.522308
0.081512 0.682220 0.522919
0.165222 0.684753 0.523926
0.265442 0.688049 0.524841
0.381653 0.691467 0.525696
0.522491 0.693726 0.526245
0.692291 0.696259 0.527039
0.893890 0.698181 0.527496
0.054688 0.882812 0.526428
0.089142 0.884705 0.527100
0.172791 0.887512 0.527679
0.272583 0.891266 0.528412
0.385620 0.894409 0.528870
0.525970 0.897217 0.529327
0.695221 0.900452 0.529785
0.895569 0.903198 0.530182
0.054688 0.054688 0.632507
0.061920 0.054688 0.643219
0.147583 0.054688 0.651764
0.251038 0.054688 0.657196
0.368622 0.054688 0.660614
0.510071 0.054688 0.662567
0.674988 0.054688 0.664062
0.870056 0.054688 0.665283
0.054688 0.063171 0.644440
0.061035 0.064392 0.652802
0.147614 0.065521 0.659973
0.251312 0.066467 0.665253
0.370667 0.067139 0.668884
0.512695 0.067169 0.670715
0.681000 0.067139 0.672241
0.877686 0.067169 0.673187
0.054688 0.147949 0.656525
0.060303 0.149933 0.662506
0.148407 0.152008 0.668091
0.252502 0.153748 0.672729
0.372192 0.155304 0.676117
0.514954 0.156097 0.677887
0.686005 0.156677 0.679474
0.883911 0.157104 0.680267
0.054688 0.250427 0.668243
0.061218 0.252625 0.672089
0.150208 0.254791 0.676117
0.253784 0.257263 0.679749
0.373444 0.259460 0.682526
0.517120 0.260773 0.684418
0.688934 0.261810 0.685577
0.888702 0.262787 0.686401
0.054688 0.367249 0.677185
0.066071 0.369446 0.679749
0.153992 0.372131 0.682373
0.256195 0.374695 0.685059
0.375305 0.377258 0.687592
0.518433 0.379242 0.688965
0.689728 0.380676 0.690094
0.891235 0.381989 0.691071
0.054688 0.511292 0.684479
0.074005 0.513733 0.686096
0.158875 0.516296 0.687866
0.260040 0.519318 0.689667
0.378387 0.522522 0.691711
0.520203 0.524902 0.692780
0.690674 0.527191 0.693756
0.892639 0.528778 0.694458
0.054688 0.682343 0.689880
0.081482 0.684265 0.690674
0.165314 0.686493 0.692017
0.265808 0.689758 0.693420
0.381592 0.692932 0.694672
0.522491 0.695496 0.695740
0.692413 0.697754 0.696594
0.893555 0.699921 0.697174
0.054688 0.885010 0.694214
0.089172 0.887177 0.695068
0.172943 0.889923 0.695923
0.272797 0.893372 0.696930
0.385406 0.896301 0.697662
0.525879 0.899384 0.698334
0.695251 0.902344 0.699371
0.895172 0.904938 0.699921
0.054688 0.054688 0.816864
0.062714 0.054688 0.829498
0.148804 0.054688 0.839874
0.252075 0.054688 0.847107
0.370056 0.054688 0.851959
0.511902 0.054688 0.854431
0.677917 0.054688 0.856445
0.873932 0.054688 0.857849
0.054688 0.065521 0.830292
0.062134 0.066681 0.840698
0.148956 0.067963 0.849396
0.252625 0.068939 0.856079
0.372131 0.069733 0.860992
0.514099 0.069946 0.863281
0.683228 0.070068 0.865326
0.880035 0.070190 0.866455
0.054688 0.150238 0.844727
0.061646 0.152161 0.852295
0.149597 0.153931 0.858795
0.253418 0.155853 0.864868
0.373138 0.157227 0.869202
0.516235 0.158264 0.871582
0.687408 0.158875 0.873596
0.885529 0.159302 0.874664
0.054688 0.252777 0.858795
0.062347 0.254578 0.863434
0.151184 0.256927 0.868774
0.254608 0.259277 0.873291
0.374298 0.261230 0.876892
0.517883 0.262726 0.879272
0.689819 0.263794 0.880951
0.889923 0.264587 0.882233
0.054688 0.369202 0.869629
0.067505 0.371277 0.872711
0.155212 0.373688 0.876251
0.256989 0.376221 0.879639
0.376099 0.378876 0.882874
0.518951 0.380493 0.884766
0.690338 0.382202 0.886505
0.891724 0.383270 0.887512
0.054688 0.513275 0.878540
0.074860 0.515411 0.880554
0.159546 0.517822 0.882874
0.260773 0.520905 0.885315
0.379059 0.524109 0.887878
0.520660 0.526184 0.889343
0.691528 0.528381 0.890930
0.892883 0.529907 0.891876
0.054688 0.684265 0.885132
0.082062 0.685852 0.886505
0.165924 0.688324 0.887939
0.266541 0.691528 0.890106
0.382019 0.694275 0.891724
0.522858 0.696777 0.892883
0.692871 0.699280 0.894348
0.893799 0.701050 0.895111
0.054688 0.887085 0.890778
0.089691 0.888916 0.891541
0.173462 0.891663 0.892639
0.273132 0.895172 0.894348
0.385681 0.897766 0.895294
0.526184 0.900818 0.896210
0.695648 0.903992 0.897217
0.895203 0.906189 0.898102
