Final/public/luts/Test2.CUBE
#Created by: Adobe Photoshop Export Color Lookup Plugin
TITLE "Test2"
#LUT size
LUT_3D_SIZE 5
#data domain
#LUT data points
DOMAIN_MIN 0.000000 0.000000 0.000000
DOMAIN_MAX 0.903226 0.903226 0.903226
0.054688 0.054688 0.054688
0.128387 0.054688 0.054688
0.309662 0.054688 0.054688
0.556122 0.054688 0.054688
0.900696 0.054688 0.054688
0.054688 0.128296 0.054688
0.120880 0.123260 0.054688
0.303925 0.119049 0.054688
0.556183 0.118927 0.054688
0.900543 0.119019 0.054688
0.054688 0.309662 0.054688
0.114319 0.305573 0.054688
0.286224 0.293823 0.054688
0.531158 0.293945 0.054688
0.891052 0.293945 0.054688
0.054688 0.556122 0.054688
0.114471 0.556671 0.054688
0.286316 0.539612 0.054688
0.529877 0.538879 0.054688
0.888824 0.539124 0.054688
0.054688 0.900269 0.054688
0.114258 0.900696 0.054688
0.286133 0.893646 0.054688
0.529907 0.892700 0.054688
0.888641 0.892487 0.054688
0.054688 0.054688 0.128296
0.123260 0.054688 0.123260
0.305359 0.054688 0.118988
0.556427 0.054688 0.119080
0.900604 0.054688 0.119049
0.054688 0.123169 0.120850
0.127777 0.127899 0.127838
0.309448 0.121216 0.121216
0.556396 0.119110 0.119141
0.900482 0.119141 0.119110
0.054688 0.305573 0.114319
0.117676 0.309357 0.117615
0.294739 0.299622 0.119934
0.547760 0.293823 0.120850
0.900543 0.293945 0.121887
0.054688 0.556427 0.114319
0.114655 0.556396 0.114685
0.286255 0.550812 0.118011
0.530151 0.538940 0.120636
0.888611 0.538879 0.124023
0.054688 0.900665 0.114258
0.114471 0.900482 0.114471
0.286255 0.900543 0.118652
0.529968 0.892700 0.122528
0.888611 0.892700 0.126373
0.054688 0.054688 0.309296
0.118988 0.054688 0.305634
0.293945 0.054688 0.293945
0.539520 0.054688 0.293976
0.894257 0.054688 0.294006
0.054688 0.119049 0.303864
0.121338 0.121277 0.309601
0.299774 0.121613 0.299713
0.550720 0.121124 0.293854
0.900665 0.121918 0.293915
0.054688 0.293945 0.286346
0.119934 0.299774 0.294739
0.307861 0.308075 0.307831
0.556274 0.295258 0.295258
0.900452 0.293976 0.293945
0.054688 0.539459 0.286316
0.118073 0.550781 0.286194
0.288452 0.556488 0.288391
0.535339 0.542419 0.293640
0.892883 0.538879 0.299225
0.054688 0.894135 0.286072
0.118713 0.900452 0.286102
0.286560 0.900604 0.286560
0.530212 0.895874 0.295624
0.888489 0.892639 0.304352
0.054688 0.054688 0.556488
0.119019 0.054688 0.556366
0.293945 0.054688 0.539520
0.539001 0.054688 0.539001
0.892609 0.054688 0.538696
0.054688 0.119080 0.556244
0.119110 0.119110 0.556427
0.293884 0.121185 0.550781
0.538940 0.122009 0.538849
0.892700 0.124268 0.538910
0.054688 0.293884 0.530975
0.120819 0.293884 0.547852
0.295258 0.295227 0.556305
0.542664 0.296783 0.542542
0.895630 0.299744 0.538849
0.054688 0.538818 0.529968
0.120575 0.539001 0.530121
0.293640 0.542389 0.535370
0.555206 0.508118 0.507172
0.901123 0.503906 0.503845
0.054688 0.892731 0.530182
0.122620 0.892731 0.530121
0.295624 0.895721 0.530182
0.532593 0.888153 0.502228
0.890198 0.874664 0.505615
0.054688 0.054688 0.900269
0.119049 0.054688 0.900665
0.293945 0.054688 0.894409
0.538879 0.054688 0.892731
0.892853 0.054688 0.892853
0.054688 0.119080 0.900696
0.119110 0.119110 0.900482
0.293823 0.121826 0.900452
0.538971 0.124390 0.892609
0.892609 0.126953 0.892639
0.054688 0.293915 0.891144
0.121887 0.293915 0.900543
0.294067 0.294067 0.900543
0.538910 0.299652 0.895630
0.892700 0.305176 0.892700
0.054688 0.538818 0.888489
0.124023 0.538910 0.888641
0.299255 0.538879 0.893097
0.541382 0.503845 0.885193
0.893982 0.506012 0.874084
0.054688 0.892487 0.888489
0.126343 0.892639 0.888641
0.304474 0.892700 0.888641
0.548523 0.874542 0.870544
0.903717 0.761963 0.760651
